ZeyuZhang1901/offline_CQL_LTR/experiment_output_no_rollout/default_2022_07_20_20_55_53-s-42--736a02bb20274e3a8abadca044108214/progress.csv
env_steps,epoch,sac/log_pi,sac/policy_loss,sac/qf1_loss,sac/qf2_loss,sac/alpha_loss,sac/alpha,sac/average_qf1,sac/average_qf2,sac/average_target_q,sac/total_steps,sac/cql/cql_std_q1,sac/cql/cql_std_q2,sac/cql/cql_q1_rand,sac/cql/cql_q2_rand,sac/cql/cql_min_qf1_loss,sac/cql/cql_min_qf2_loss,sac/cql/cql_qf1_diff,sac/cql/cql_qf2_diff,sac/cql/cql_q1_current_actions,sac/cql/cql_q2_current_actions,sac/cql/cql_q1_next_actions,sac/cql/cql_q2_next_actions,sac/cql/alpha_prime_loss,sac/cql/alpha_prime,average_return,average_traj_length,train_time,eval_time,epoch_time,_timestamp,_runtime
1000000,0,-46.605987548828125,-28.57819175720215,444.9692077636719,443.88299560546875,-57.298622131347656,0.7438210844993591,-11.803009986877441,-10.753216743469238,-8.089090347290039,1000,3358.880126953125,3473.5,-17434.37890625,-17949.669921875,-75454.90625,-77467.171875,-15090.9814453125,-15493.43359375,-17302.224609375,-17810.17578125,-17302.21875,-17810.17578125,0.0,0.0,0.14335323816648635,10.0,20.238771438598633,0.09370231628417969,20.332473754882812,1658324735,2986
1000000,1,-34.40131378173828,-92.67619323730469,2176.924072265625,920.968505859375,-101.23881530761719,0.5722993612289429,62.048255920410156,65.24541473388672,61.07835388183594,2000,21888.47265625,22864.9921875,-114187.875,-119261.890625,-498667.1875,-519898.90625,-99733.4375,-103979.78125,-112035.1015625,-116711.0390625,-112035.125,-116711.0546875,0.0,0.0,19.903069734573364,0.0,19.903069734573364,1658324755,3006
1000000,2,-3.7095580101013184,-152.54351806640625,6212.6640625,2770.836181640625,-123.50004577636719,0.4406707286834717,123.84812927246094,126.93400573730469,142.51885986328125,3000,62181.09765625,65195.3359375,-326409.84375,-342899.5,-1427545.75,-1503416.75,-285509.15625,-300683.34375,-318709.90625,-333760.71875,-318709.90625,-333760.71875,0.0,0.0,20.108203172683716,0.0,20.108203172683716,1658324775,3026
1000000,3,7.726131439208984,-248.3782501220703,15535.2490234375,14481.0390625,-149.17282104492188,0.34263983368873596,190.8560791015625,204.9370880126953,239.40093994140625,4000,126768.296875,133174.859375,-670897.625,-705630.625,-2945303.0,-3099222.75,-589060.625,-619844.5625,-650619.1875,-681868.4375,-650619.1875,-681868.4375,0.0,0.0,20.32661533355713,0.0,20.32661533355713,1658324795,3046
1000000,4,22.817798614501953,-362.87353515625,28142.00390625,16248.7802734375,-164.213623046875,0.26650550961494446,275.09088134765625,311.70501708984375,348.7587890625,5000,220462.28125,231033.71875,-1167055.5,-1223243.375,-5110195.0,-5350514.5,-1022039.0,-1070102.875,-1124289.875,-1176429.0,-1124289.75,-1176429.0,0.0,0.0,20.279531002044678,0.0,20.279531002044678,1658324815,3067
1000000,5,33.132972717285156,-431.4791259765625,36506.4453125,15681.392578125,-181.4009246826172,0.20329557359218597,381.9312744140625,393.57733154296875,422.20721435546875,6000,343383.4375,358437.40625,-1821500.625,-1902643.625,-7989435.5,-8332364.5,-1597887.125,-1666472.875,-1751058.875,-1823303.625,-1751058.875,-1823303.625,0.0,0.0,20.30836534500122,0.0,20.30836534500122,1658324836,3087
1000000,6,50.89201354980469,-518.9110107421875,37958.31640625,25061.703125,-179.3976593017578,0.15464459359645844,416.125732421875,460.67529296875,508.48089599609375,7000,500201.0,518780.5625,-2656069.25,-2758873.25,-11661790.0,-12101259.0,-2332358.0,-2420251.75,-2540996.0,-2636020.5,-2540996.0,-2636020.75,0.0,0.0,21.501058340072632,0.0,21.501058340072632,1658324857,3108
1000000,7,49.09181213378906,-609.36474609375,127483.296875,245854.296875,-209.34017944335938,0.11787537485361099,482.3985595703125,519.2800903320312,588.0777587890625,8000,689797.5625,712214.375,-3664809.75,-3786262.75,-16065412.0,-16574246.0,-3213082.5,-3314849.25,-3510014.5,-3619976.5,-3510014.5,-3619976.0,0.0,0.0,21.18083167076111,0.0,21.18083167076111,1658324878,3130
1000000,8,73.82113647460938,-647.184814453125,68675.7109375,31598.41015625,-176.7642822265625,0.08932176232337952,586.7449951171875,576.4910278320312,649.54931640625,9000,912311.0,936550.3125,-4883601.5,-5022089.5,-21397564.0,-22058702.0,-4279513.0,-4411740.5,-4657457.0,-4781304.0,-4657457.0,-4781303.5,0.0,0.0,20.45837926864624,0.0,20.45837926864624,1658324899,3150
1000000,9,69.16531372070312,-717.4166259765625,55527.8046875,49530.796875,-207.98150634765625,0.06910745054483414,634.2355346679688,652.890380859375,718.6624145507812,10000,1178082.125,1203096.375,-6298381.5,-6442697.5,-27524776.0,-28273584.0,-5504955.0,-5654717.0,-5985585.0,-6112617.0,-5985585.0,-6112617.0,0.0,0.0,0.2560873743215872,10.0,20.496646404266357,0.07879018783569336,20.57543659210205,1658324919,3171
1000000,10,103.5446548461914,-786.1005859375,76510.359375,39914.23828125,-125.54473876953125,0.0556289404630661,743.2242431640625,710.3914184570312,774.4080200195312,11000,1471988.75,1497983.5,-7921685.0,-8066376.0,-34828264.0,-35523556.0,-6965652.5,-7104711.0,-7515566.5,-7629675.5,-7515566.5,-7629676.0,0.0,0.0,20.43436360359192,0.0,20.43436360359192,1658324940,3191
1000000,11,119.44309997558594,-819.343017578125,106600.96875,40343.2265625,-83.66193389892578,0.048028066754341125,739.2172241210938,748.4411010742188,828.7349853515625,12000,1817202.0,1838779.25,-9799119.0,-9920327.0,-43263536.0,-43743400.0,-8652707.0,-8748680.0,-9239813.0,-9335096.0,-9239813.0,-9335096.0,0.0,0.0,20.47298526763916,0.0,20.47298526763916,1658324960,3212
1000000,12,150.32156372070312,-889.414794921875,129870.0625,69056.328125,10.312898635864258,0.04483157396316528,752.5091552734375,784.798828125,882.50146484375,13000,2216336.0,2235965.0,-11929791.0,-12041320.0,-52480760.0,-52871760.0,-10496152.0,-10574352.0,-11217031.0,-11303502.0,-11217031.0,-11303502.0,0.0,0.0,20.508193492889404,0.0,20.508193492889404,1658324981,3232
1000000,13,136.86341857910156,-968.40673828125,114848.578125,58543.80078125,-31.12701416015625,0.04638589918613434,822.8004150390625,870.0772705078125,968.511962890625,14000,2662782.5,2678061.5,-14323344.0,-14394711.0,-62825700.0,-63000408.0,-12565140.0,-12600082.0,-13380557.0,-13415699.0,-13380557.0,-13415699.0,0.0,0.0,20.48313546180725,0.0,20.48313546180725,1658325001,3253
1000000,14,160.26271057128906,-1039.4359130859375,140653.328125,83692.984375,38.93500518798828,0.05309491232037544,901.3357543945312,946.385009765625,1043.85595703125,15000,3124422.5,3135933.0,-16898020.0,-16950488.0,-74138280.0,-74582304.0,-14827656.0,-14916460.0,-15829181.0,-15831645.0,-15829181.0,-15831645.0,0.0,0.0,20.52198886871338,0.0,20.52198886871338,1658325022,3273
1000000,15,152.99334716796875,-1071.0474853515625,159647.421875,92268.109375,17.00604248046875,0.05857277289032936,977.1312255859375,955.0037841796875,1082.6015625,16000,3668976.0,3673263.0,-19762738.0,-19776726.0,-86741720.0,-86832720.0,-17348344.0,-17366544.0,-18503718.0,-18482414.0,-18503718.0,-18482414.0,0.0,0.0,21.187376976013184,0.0,21.187376976013184,1658325043,3294
1000000,16,147.70526123046875,-1162.2216796875,158251.34375,114496.7265625,1.9420814514160156,0.06369132548570633,999.363525390625,1046.1300048828125,1154.493896484375,17000,4243885.5,4232455.0,-22903062.0,-22838110.0,-100681600.0,-100323160.0,-20136320.0,-20064632.0,-21417628.0,-21331788.0,-21417626.0,-21331788.0,0.0,0.0,20.487558603286743,0.0,20.487558603286743,1658325064,3315
1000000,17,150.75076293945312,-1206.998046875,180892.609375,115704.015625,9.985426902770996,0.069792240858078,1017.3192138671875,1093.244140625,1219.97119140625,18000,4842034.5,4813700.5,-26227886.0,-26090742.0,-115516240.0,-115427104.0,-23103248.0,-23085420.0,-24572938.0,-24409222.0,-24572942.0,-24409222.0,0.0,0.0,20.48071026802063,0.0,20.48071026802063,1658325084,3335
1000000,18,151.41383361816406,-1309.826904296875,236201.0,103359.890625,11.493066787719727,0.07398673892021179,1265.23876953125,1167.942626953125,1293.096923828125,19000,5510745.0,5478127.0,-29838244.0,-29631102.0,-131649856.0,-130383512.0,-26329972.0,-26076702.0,-27970694.0,-27723156.0,-27970694.0,-27723156.0,0.0,0.0,20.467702865600586,0.0,20.467702865600586,1658325105,3356
1000000,19,144.93246459960938,-1322.532958984375,247733.6875,164584.78125,-5.260771751403809,0.07851497083902359,1185.7755126953125,1180.9796142578125,1339.112548828125,20000,6228878.0,6190309.5,-33782880.0,-33568348.0,-149321936.0,-148460544.0,-29864386.0,-29692108.0,-31668714.0,-31383140.0,-31668714.0,-31383140.0,0.0,0.0,0.08687398625114251,10.0,20.395339965820312,0.08302974700927734,20.47836971282959,1658325125,3376
1000000,20,142.47384643554688,-1445.6304931640625,254707.09375,143492.1875,-10.945042610168457,0.08908330649137497,1308.47509765625,1299.1463623046875,1413.206787109375,21000,7094529.0,7039746.0,-38059984.0,-37742332.0,-167565760.0,-165984864.0,-33513152.0,-33196972.0,-35591068.0,-35247452.0,-35591068.0,-35247452.0,0.0,0.0,20.503126859664917,0.0,20.503126859664917,1658325146,3397
1000000,21,148.64389038085938,-1465.646728515625,408728.1875,176384.203125,4.0074052810668945,0.08735591918230057,1185.79345703125,1276.4581298828125,1450.945068359375,22000,7833364.0,7781385.0,-42389772.0,-42044892.0,-187044512.0,-185121664.0,-37408904.0,-37024332.0,-39791392.0,-39409632.0,-39791392.0,-39409632.0,0.0,0.0,20.51685357093811,0.0,20.51685357093811,1658325166,3417
1000000,22,151.49095153808594,-1590.246337890625,1160222.25,158831.59375,10.596471786499023,0.09446574002504349,1250.343994140625,1391.105712890625,1572.8626708984375,23000,8711601.0,8652260.0,-47179496.0,-46789096.0,-208832256.0,-206559840.0,-41766452.0,-41311968.0,-44199364.0,-43791872.0,-44199368.0,-43791868.0,0.0,0.0,20.67765498161316,0.0,20.67765498161316,1658325187,3438
1000000,23,152.5970458984375,-1709.9619140625,331269.5,212997.5,12.963369369506836,0.09865697473287582,1528.097900390625,1521.6739501953125,1681.7032470703125,24000,9603929.0,9516140.0,-52149052.0,-51684004.0,-230313792.0,-228471488.0,-46062760.0,-45694296.0,-48957740.0,-48423860.0,-48957740.0,-48423860.0,0.0,0.0,20.486023426055908,0.0,20.486023426055908,1658325207,3459
1000000,24,149.84251403808594,-1805.46240234375,388949.0,211676.375,6.10764741897583,0.11663818359375,1564.909423828125,1616.886474609375,1804.068115234375,25000,10675460.0,10564591.0,-57629320.0,-57011100.0,-253748352.0,-250692640.0,-50749672.0,-50138528.0,-53986432.0,-53323440.0,-53986432.0,-53323440.0,0.0,0.0,20.41552495956421,0.0,20.41552495956421,1658325228,3479
1000000,25,136.29896545410156,-1826.916259765625,6521684.5,3887538.0,-23.859193801879883,0.10756983608007431,1572.328369140625,1564.94921875,1803.139892578125,26000,11667580.0,11538942.0,-63230120.0,-62481736.0,-279478976.0,-275718528.0,-55895792.0,-55143704.0,-59131244.0,-58322572.0,-59131244.0,-58322568.0,0.0,0.0,20.57295513153076,0.0,20.57295513153076,1658325248,3500
1000000,26,148.87142944335938,-1898.7943115234375,448545.09375,361219.0625,4.034335136413574,0.11581455171108246,1630.42041015625,1666.54931640625,1877.1748046875,27000,12689034.0,12556865.0,-69220704.0,-68329848.0,-306656608.0,-302156096.0,-61331320.0,-60431216.0,-64764264.0,-63886720.0,-64764264.0,-63886720.0,0.0,0.0,20.43650507926941,0.0,20.43650507926941,1658325269,3520
1000000,27,152.5718994140625,-2000.034423828125,436664.9375,267925.375,11.982658386230469,0.1164197325706482,1843.022705078125,1831.65966796875,2013.321533203125,28000,13925996.0,13741628.0,-75482488.0,-74439640.0,-333189184.0,-328516416.0,-66637836.0,-65703280.0,-70777392.0,-69735232.0,-70777384.0,-69735232.0,0.0,0.0,20.466269493103027,0.0,20.466269493103027,1658325289,3541
1000000,28,141.47496032714844,-2072.6767578125,420286.9375,305329.875,-11.650751113891602,0.12139382213354111,1795.23388671875,1872.382568359375,2055.16748046875,29000,15229641.0,15046044.0,-82190160.0,-81173096.0,-361700288.0,-357414880.0,-72340056.0,-71482976.0,-76707288.0,-75641792.0,-76707288.0,-75641800.0,0.0,0.0,20.507575750350952,0.0,20.507575750350952,1658325310,3561
1000000,29,154.37210083007812,-2104.13720703125,478574.03125,354589.75,15.032072067260742,0.13015243411064148,1892.73876953125,1873.95849609375,2114.24609375,30000,16461413.0,16268460.0,-89159384.0,-87986192.0,-393944992.0,-388097792.0,-78789000.0,-77619560.0,-83354704.0,-82139120.0,-83354696.0,-82139120.0,0.0,0.0,0.11097299874376224,10.0,20.491936922073364,0.07878994941711426,20.57072687149048,1658325330,3582
1000000,30,143.40536499023438,-2225.74072265625,935059.0625,333806.3125,-7.310843467712402,0.13083398342132568,1948.99365234375,1996.86474609375,2227.78466796875,31000,17841728.0,17601672.0,-96432832.0,-95087944.0,-424777344.0,-419186496.0,-84955472.0,-83837296.0,-90184976.0,-88760440.0,-90184976.0,-88760440.0,0.0,0.0,20.610514402389526,0.0,20.610514402389526,1658325351,3602
1000000,31,154.0518798828125,-2362.2392578125,6078455.5,1246047.0,13.946712493896484,0.13838304579257965,2093.309814453125,2112.2880859375,2351.3359375,32000,19139048.0,18892180.0,-103873296.0,-102395344.0,-459508640.0,-452366016.0,-91901728.0,-90473200.0,-97394472.0,-95790072.0,-97394472.0,-95790072.0,0.0,0.0,20.41763973236084,0.0,20.41763973236084,1658325371,3623
1000000,32,140.42054748535156,-2295.03857421875,418749.84375,285216.71875,-13.330696105957031,0.13184751570224762,2099.10888671875,2064.224853515625,2260.5732421875,33000,20720726.0,20456558.0,-112101200.0,-110573648.0,-493007872.0,-486959328.0,-98601576.0,-97391864.0,-104673984.0,-103057680.0,-104673984.0,-103057680.0,0.0,0.0,20.434688568115234,0.0,20.434688568115234,1658325392,3643
1000000,33,151.99908447265625,-2538.07373046875,683294.5625,589781.0625,9.908778190612793,0.1377774178981781,2189.8974609375,2218.437744140625,2519.818359375,34000,22078076.0,21797434.0,-119955840.0,-118268984.0,-530544832.0,-522642720.0,-106108968.0,-104528544.0,-112582360.0,-110796496.0,-112582352.0,-110796496.0,0.0,0.0,20.49952483177185,0.0,20.49952483177185,1658325412,3664
1000000,34,152.5379180908203,-2497.74072265625,598142.875,463204.96875,10.8488130569458,0.14099876582622528,2185.1513671875,2194.74755859375,2512.290283203125,35000,23712972.0,23381540.0,-128579584.0,-126560936.0,-569181824.0,-558930688.0,-113836368.0,-111786136.0,-120746008.0,-118687640.0,-120746000.0,-118687640.0,0.0,0.0,20.53678274154663,0.0,20.53678274154663,1658325433,3684
1000000,35,145.325439453125,-2619.356689453125,6840761.0,8761528.0,-3.248861074447632,0.14368614554405212,2134.0830078125,2143.45947265625,2595.6962890625,36000,25481228.0,25141368.0,-138047088.0,-135958480.0,-606033664.0,-595742080.0,-121206736.0,-119148416.0,-129163984.0,-126858728.0,-129163984.0,-126858712.0,0.0,0.0,20.531619548797607,0.0,20.531619548797607,1658325453,3705
1000000,36,150.2864532470703,-2715.391357421875,594850.375,483704.25,6.086852550506592,0.15690727531909943,2551.329833984375,2448.27783203125,2680.393310546875,37000,27098024.0,26702832.0,-147279632.0,-144832896.0,-651331840.0,-638283456.0,-130266368.0,-127656696.0,-137891952.0,-135603616.0,-137891952.0,-135603616.0,0.0,0.0,20.47556185722351,0.0,20.47556185722351,1658325474,3725
1000000,37,146.92703247070312,-2776.1025390625,647852.125,567535.75,-0.14008665084838867,0.1466553807258606,2533.693359375,2499.6474609375,2790.0810546875,38000,29032652.0,28627660.0,-157148288.0,-154675584.0,-692357824.0,-681679488.0,-138471568.0,-136335904.0,-146914944.0,-144436304.0,-146914944.0,-144436304.0,0.0,0.0,20.419899463653564,0.0,20.419899463653564,1658325494,3746
1000000,38,143.94053649902344,-2710.10986328125,815918.0625,705703.8125,-5.803577423095703,0.1500280648469925,2379.634033203125,2437.34423828125,2746.263916015625,39000,30725698.0,30314144.0,-166706592.0,-164202272.0,-736057856.0,-721487040.0,-147211568.0,-144297408.0,-156289056.0,-153605568.0,-156289056.0,-153605568.0,0.0,0.0,20.402076721191406,0.0,20.402076721191406,1658325515,3766
1000000,39,149.2452392578125,-2832.04736328125,717455.3125,696294.9375,4.129609107971191,0.15893375873565674,2509.821044921875,2530.715576171875,2818.45556640625,40000,33041512.0,32622244.0,-177879536.0,-175216672.0,-781309312.0,-767087488.0,-156261856.0,-153417504.0,-166272368.0,-163448224.0,-166272368.0,-163448224.0,0.0,0.0,0.32244366231305693,10.0,20.38783288002014,0.07779216766357422,20.465625047683716,1658325535,3787
1000000,40,151.7523193359375,-2871.38330078125,530432.375,403804.5625,9.030887603759766,0.14952240884304047,2633.83984375,2622.528076171875,2859.8203125,41000,34622464.0,34184280.0,-188131584.0,-185247600.0,-832397824.0,-817308288.0,-166479568.0,-163461664.0,-176221040.0,-173332224.0,-176221024.0,-173332208.0,0.0,0.0,20.478755950927734,0.0,20.478755950927734,1658325556,3807
1000000,41,138.2399444580078,-2936.15673828125,615087.125,523826.71875,-16.333419799804688,0.15496826171875,2787.2294921875,2689.30322265625,2999.727783203125,42000,36749412.0,36267544.0,-199200992.0,-196353776.0,-879318272.0,-863240448.0,-175863648.0,-172648096.0,-186629920.0,-183538416.0,-186629904.0,-183538416.0,0.0,0.0,20.449953079223633,0.0,20.449953079223633,1658325576,3828
1000000,42,144.11737060546875,-3009.13623046875,702358.125,621948.625,-5.244230270385742,0.1621483415365219,2690.007568359375,2722.020751953125,3024.7216796875,43000,39229764.0,38746728.0,-211619136.0,-208847616.0,-928108672.0,-914522560.0,-185621728.0,-182904512.0,-197158656.0,-194305808.0,-197158656.0,-194305824.0,0.0,0.0,20.408795595169067,0.0,20.408795595169067,1658325597,3848
1000000,43,144.84869384765625,-3028.8759765625,525967.8125,390679.875,-3.9034807682037354,0.1629258245229721,2748.5400390625,2721.72705078125,3070.07177734375,44000,41251192.0,40709520.0,-223224320.0,-220067120.0,-982416768.0,-969498304.0,-196483360.0,-193899664.0,-208418992.0,-205125808.0,-208418992.0,-205125808.0,0.0,0.0,20.61998462677002,0.0009965896606445312,20.620981216430664,1658325617,3869
1000000,44,150.1414031982422,-3206.4912109375,948622.125,820197.25,5.712823390960693,0.16226011514663696,2942.8349609375,2918.43408203125,3195.088623046875,45000,43492064.0,42891536.0,-235224064.0,-231630080.0,-1037047552.0,-1021767680.0,-207409504.0,-204353536.0,-219962352.0,-216627824.0,-219962368.0,-216627840.0,0.0,0.0,20.416109800338745,0.0,20.416109800338745,1658325638,3889
1000000,45,145.41168212890625,-3189.086669921875,681796.1875,704812.0,-2.8194355964660645,0.16946306824684143,2988.7861328125,2914.36083984375,3230.454345703125,46000,45537848.0,44881572.0,-247178656.0,-243533056.0,-1091056640.0,-1075174912.0,-218211328.0,-215034992.0,-231737344.0,-228069744.0,-231737344.0,-228069744.0,0.0,0.0,20.446622610092163,0.0,20.446622610092163,1658325658,3909
1000000,46,141.4276123046875,-3147.96875,920095.4375,1015998.75,-10.206646919250488,0.16014966368675232,2848.6630859375,2848.6298828125,3233.6513671875,47000,48022264.0,47446008.0,-260835840.0,-257117104.0,-1151361792.0,-1133719296.0,-230272352.0,-226743872.0,-244034608.0,-240408224.0,-244034608.0,-240408224.0,0.0,0.0,20.4146511554718,0.0,20.4146511554718,1658325679,3930
1000000,47,135.33346557617188,-3242.072265625,688596.75,621067.5,-21.136682510375977,0.1633705496788025,2877.7744140625,2997.33740234375,3302.66650390625,48000,50450656.0,49739412.0,-274268768.0,-270106880.0,-1208874112.0,-1191511296.0,-241774816.0,-238302272.0,-256094416.0,-252102128.0,-256094416.0,-252102144.0,0.0,0.0,20.52539300918579,0.0,20.52539300918579,1658325699,3950
1000000,48,145.45462036132812,-3348.98046875,1196664.625,893788.25,-2.71109676361084,0.17302514612674713,2974.588134765625,3001.291015625,3372.0615234375,49000,53472656.0,52746904.0,-288962528.0,-284889184.0,-1269837952.0,-1253499904.0,-253967600.0,-250699968.0,-269381888.0,-265416064.0,-269381888.0,-265416064.0,0.0,0.0,20.454421043395996,0.0,20.454421043395996,1658325720,3971
1000000,49,145.99424743652344,-3407.547607421875,1355414.75,1303671.0,-1.6964855194091797,0.18511581420898438,2932.6884765625,2986.873779296875,3390.16455078125,50000,55850324.0,55206256.0,-302739296.0,-298950880.0,-1336507392.0,-1314049536.0,-267301472.0,-262809920.0,-283227872.0,-279168160.0,-283227872.0,-279168160.0,0.0,0.0,0.16131472016646903,10.0,20.43143606185913,0.09876155853271484,20.530197620391846,1658325740,3991
1000000,50,143.92071533203125,-3456.984130859375,912016.75,858755.4375,-5.197220802307129,0.18492543697357178,3108.825439453125,3124.0966796875,3473.313720703125,51000,58822176.0,58104336.0,-318237152.0,-314128192.0,-1400474112.0,-1383873024.0,-280094816.0,-276774592.0,-297258240.0,-292667424.0,-297258240.0,-292667392.0,0.0,0.0,20.50915813446045,0.0,20.50915813446045,1658325761,4012
1000000,51,159.76513671875,-3387.403564453125,1140021.375,1001356.4375,21.788288116455078,0.1814347207546234,2908.234375,2944.92822265625,3351.439453125,52000,60950456.0,60126056.0,-331486976.0,-326805600.0,-1464625664.0,-1444122240.0,-292925120.0,-288824448.0,-312032352.0,-307475616.0,-312032352.0,-307475616.0,0.0,0.0,20.55845308303833,0.0,20.55845308303833,1658325781,4033
1000000,52,149.2564697265625,-3422.5986328125,1118802.875,1061459.5,4.045541763305664,0.16648341715335846,3049.885498046875,3080.47802734375,3464.60888671875,53000,64204760.0,63336416.0,-348214752.0,-343192320.0,-1537572608.0,-1513690752.0,-307514528.0,-302738144.0,-326478816.0,-321677664.0,-326478816.0,-321677664.0,0.0,0.0,20.519075870513916,0.0,20.519075870513916,1658325802,4053
1000000,53,146.55517578125,-3296.0087890625,13086438.0,5287720.0,-0.8017587661743164,0.16490040719509125,2800.16015625,2901.322998046875,3313.395263671875,54000,67345120.0,66433508.0,-364687840.0,-359548000.0,-1611649536.0,-1586408320.0,-322329920.0,-317281664.0,-341704832.0,-336659904.0,-341704800.0,-336659904.0,0.0,0.0,20.525238275527954,0.0,20.525238275527954,1658325822,4074
1000000,54,153.23907470703125,-3422.29345703125,53652888.0,104735224.0,10.949056625366211,0.1729223132133484,2718.70068359375,2479.228515625,3477.318603515625,55000,70753344.0,69840256.0,-382504928.0,-377591680.0,-1681933056.0,-1663103744.0,-336386624.0,-332620736.0,-356395872.0,-351738848.0,-356395872.0,-351738848.0,0.0,0.0,20.461325645446777,0.0,20.461325645446777,1658325843,4094
1000000,55,156.14022827148438,-3467.29541015625,1309859.5,1144689.25,16.60626220703125,0.16253994405269623,2986.676025390625,3022.543701171875,3459.97119140625,56000,73511104.0,72724384.0,-397151584.0,-392317088.0,-1749297280.0,-1721752960.0,-349859456.0,-344350592.0,-372467488.0,-367667296.0,-372467488.0,-367667264.0,0.0,0.0,20.393574476242065,0.0,20.393574476242065,1658325863,4114
1000000,56,145.28485107421875,-3375.865234375,1022734.1875,923293.375,-2.9396142959594727,0.18015924096107483,3118.12353515625,3103.05859375,3439.10107421875,57000,76371168.0,75533488.0,-415251520.0,-410241088.0,-1828980224.0,-1808391680.0,-365796032.0,-361678336.0,-388230656.0,-384092640.0,-388230656.0,-384092640.0,0.0,0.0,20.46950936317444,0.0,20.46950936317444,1658325884,4135
1000000,57,147.54347229003906,-3431.79248046875,1042634.5,699152.75,0.9177141189575195,0.18477430939674377,3453.16357421875,3167.763671875,3450.38037109375,58000,79965008.0,79205728.0,-433006496.0,-428462176.0,-1908370432.0,-1884461568.0,-381674080.0,-376892320.0,-405130048.0,-400515168.0,-405130048.0,-400515200.0,0.0,0.0,20.500014781951904,0.0,20.500014781951904,1658325904,4155
1000000,58,146.97293090820312,-3538.554931640625,947412.0,931797.0,-0.04543411731719971,0.18669483065605164,3203.7666015625,3220.05078125,3593.99462890625,59000,83277040.0,82619264.0,-451724288.0,-446820960.0,-1994181376.0,-1964738560.0,-398836288.0,-392947712.0,-422675744.0,-418480960.0,-422675712.0,-418480960.0,0.0,0.0,20.56938099861145,0.0,20.56938099861145,1658325925,4176
1000000,59,147.60955810546875,-3476.11572265625,1561609.25,1741559.5,1.0438151359558105,0.18043777346611023,3019.45654296875,3089.7470703125,3534.31689453125,60000,86652992.0,86069984.0,-469680640.0,-465637024.0,-2074876160.0,-2048685824.0,-414975232.0,-409737152.0,-439454944.0,-436541440.0,-439454880.0,-436541440.0,0.0,0.0,0.28710485281782516,10.0,20.448195457458496,0.10074901580810547,20.5489444732666,1658325945,4197
1000000,60,145.59249877929688,-3439.07373046875,1369076.625,1166575.75,-2.5543107986450195,0.1628720909357071,3369.22705078125,3109.63671875,3442.9794921875,61000,90474272.0,89781192.0,-488169952.0,-484174656.0,-2153427968.0,-2130469888.0,-430685600.0,-426093984.0,-458413568.0,-453920608.0,-458413568.0,-453920608.0,0.0,0.0,20.51805305480957,0.0,20.51805305480957,1658325966,4217
1000000,61,146.8053436279297,-3344.63818359375,1158473.5,845185.9375,-0.3573892116546631,0.15944723784923553,3172.49072265625,3044.408203125,3353.509033203125,62000,93727360.0,92977424.0,-508046752.0,-503890688.0,-2244897792.0,-2221931008.0,-448979552.0,-444386176.0,-475449952.0,-471457888.0,-475449952.0,-471457888.0,0.0,0.0,20.489261150360107,0.0,20.489261150360107,1658325986,4238
1000000,62,155.58724975585938,-3337.45458984375,1269619.75,1067848.125,15.486507415771484,0.164732426404953,2947.13330078125,2978.6552734375,3355.76904296875,63000,97359680.0,96679216.0,-528056832.0,-523710176.0,-2323118592.0,-2304433664.0,-464623744.0,-460886720.0,-494212000.0,-490637888.0,-494212000.0,-490637920.0,0.0,0.0,20.490605354309082,0.0,20.490605354309082,1658326007,4258
1000000,63,152.04299926757812,-3055.99072265625,1093127.875,1091615.5,8.271636009216309,0.19393639266490936,2813.981201171875,2833.6875,3188.8291015625,64000,101192688.0,100701264.0,-547913728.0,-544475712.0,-2404914944.0,-2387752704.0,-480983008.0,-477550528.0,-511467776.0,-508386720.0,-511467744.0,-508386720.0,0.0,0.0,20.520097255706787,0.0,20.520097255706787,1658326027,4279
1000000,64,218.79098510742188,6624.8798828125,766983808.0,6565317120.0,106.74897766113281,0.22606302797794342,-2232.59033203125,1692.665283203125,-7982.4013671875,65000,104403936.0,104110096.0,-566391808.0,-564353344.0,-2486881280.0,-2476237056.0,-497376256.0,-495247424.0,-528331008.0,-526292032.0,-528331008.0,-526292032.0,0.0,0.0,20.347347736358643,0.0,20.347347736358643,1658326048,4299
1000000,65,265.2932434082031,51769.04296875,4940263424.0,9585667072.0,118.029052734375,0.3687019944190979,-33851.04296875,-34894.87109375,-38371.953125,66000,106419704.0,105732928.0,-576031424.0,-572267648.0,-2531018496.0,-2502895616.0,-506203712.0,-500579136.0,-538691904.0,-531676256.0,-538691904.0,-531676256.0,0.0,0.0,20.43648052215576,0.0,20.43648052215576,1658326068,4319
1000000,66,246.039794921875,33160.859375,1159822080.0,1830231936.0,56.26057434082031,0.5666234493255615,-27128.18359375,-28138.296875,-29573.169921875,67000,107752536.0,106929136.0,-583387968.0,-578788800.0,-2558323200.0,-2530292480.0,-511664640.0,-506058496.0,-545866432.0,-538436800.0,-545866432.0,-538436800.0,0.0,0.0,20.50472068786621,0.0,20.50472068786621,1658326089,4340
1000000,67,208.67608642578125,28438.51953125,836124032.0,1166853248.0,14.483963012695312,0.7906979918479919,-27292.193359375,-29388.38671875,-38989.828125,68000,109833760.0,109069272.0,-592671872.0,-587739840.0,-2593337088.0,-2561164544.0,-518667424.0,-512232896.0,-552219776.0,-546270528.0,-552219776.0,-546270528.0,0.0,0.0,20.428186416625977,0.0,20.428186416625977,1658326109,4360
1000000,68,181.20632934570312,32108.94921875,9024256000.0,8193257984.0,0.11965358257293701,0.9965081214904785,-32659.3671875,-32916.890625,-36165.46875,69000,111409440.0,110662840.0,-601506816.0,-596623296.0,-2633133568.0,-2611707136.0,-526626688.0,-522341440.0,-561707776.0,-557123776.0,-561707712.0,-557123776.0,0.0,0.0,20.400105953216553,0.0,20.400105953216553,1658326130,4381
1000000,69,152.43746948242188,15595.9521484375,1109036288.0,817905536.0,-0.5262526869773865,1.1016205549240112,-16302.6923828125,-17558.763671875,-15214.82421875,70000,114500592.0,113928768.0,-613279168.0,-608938496.0,-2666580992.0,-2649097728.0,-533316224.0,-529819520.0,-572988096.0,-570060096.0,-572988096.0,-570060032.0,0.0,0.0,0.11561187351274194,10.0,20.40129256248474,0.09092450141906738,20.49221706390381,1658326150,4401
1000000,70,123.56774139404297,7069.4189453125,129450616.0,120102656.0,-0.2707817554473877,0.9885105490684509,-7301.1533203125,-7952.4462890625,-8413.11328125,71000,116201480.0,115791760.0,-623742016.0,-620126208.0,-2714999808.0,-2702382592.0,-542999936.0,-540476544.0,-586152128.0,-584151488.0,-586152128.0,-584151488.0,0.0,0.0,20.460378646850586,0.0,20.460378646850586,1658326171,4422
1000000,71,92.24821472167969,2059.57080078125,71549120.0,315999616.0,-15.488471984863281,0.7536062598228455,-2545.900390625,-2864.280029296875,-1787.6575927734375,72000,119221840.0,119009880.0,-638396416.0,-636369024.0,-2778142464.0,-2771020800.0,-555628480.0,-554204160.0,-599548608.0,-598574208.0,-599548608.0,-598574208.0,0.0,0.0,20.559939861297607,0.0,20.559939861297607,1658326191,4442
1000000,72,99.28939819335938,-1891.083251953125,1664412.0,2770998.75,-27.844390869140625,0.557880699634552,1612.025634765625,1623.4993896484375,966.1867065429688,73000,122117584.0,122062656.0,-654485184.0,-652780864.0,-2860029440.0,-2845874688.0,-572005888.0,-569174912.0,-614324672.0,-613576896.0,-614324736.0,-613576896.0,0.0,0.0,20.463257551193237,0.0,20.463257551193237,1658326212,4463
1000000,73,138.75820922851562,7764.13134765625,5581743616.0,7639728640.0,-6.867496490478516,0.43463292717933655,-6872.048828125,-7076.59033203125,-2324.21044921875,74000,124641776.0,124811544.0,-669500864.0,-669467136.0,-2932453888.0,-2925017856.0,-586490752.0,-585003584.0,-629844672.0,-629662016.0,-629844672.0,-629662016.0,0.0,0.0,20.42017364501953,0.0,20.42017364501953,1658326232,4483
1000000,74,130.2920379638672,445.806884765625,45108464.0,169180752.0,-17.44683837890625,0.3519652783870697,-221.95623779296875,98.99111938476562,-569.3538818359375,75000,127389032.0,127644776.0,-684822592.0,-685187008.0,-2993626112.0,-2989786112.0,-598725248.0,-597957248.0,-644808320.0,-644917440.0,-644808320.0,-644917440.0,0.0,0.0,20.371074199676514,0.0,20.371074199676514,1658326252,4504
1000000,75,140.97142028808594,8695.982421875,11723128832.0,13016718336.0,-7.664709568023682,0.28044041991233826,-7839.95849609375,-8438.8681640625,1892.080322265625,76000,130935176.0,131334160.0,-703699072.0,-704010880.0,-3069631488.0,-3068705280.0,-613926272.0,-613741056.0,-658925120.0,-660092928.0,-658925184.0,-660092928.0,0.0,0.0,20.44286012649536,0.0,20.44286012649536,1658326273,4524
1000000,76,123.25686645507812,-1623.908447265625,12364036.0,24381180.0,-35.832740783691406,0.22109055519104004,1551.23291015625,1043.6348876953125,1763.6624755859375,77000,135306944.0,136025264.0,-724599040.0,-725619392.0,-3152627712.0,-3144256512.0,-630525568.0,-628851328.0,-674705792.0,-676534592.0,-674705728.0,-676534592.0,0.0,0.0,20.341700315475464,0.0,20.341700315475464,1658326293,4545
1000000,77,130.642822265625,4778.95263671875,2128816.25,310146368.0,-28.262344360351562,0.17767015099525452,-4793.08447265625,-3684.502685546875,-4521.43994140625,78000,137554528.0,138054912.0,-739222016.0,-740242176.0,-3220421632.0,-3226085888.0,-644084352.0,-645217152.0,-692777920.0,-694823104.0,-692777920.0,-694823104.0,0.0,0.0,20.353534698486328,0.0,20.353534698486328,1658326314,4565
1000000,78,160.27781677246094,16811.447265625,10015580160.0,8643473408.0,24.25992202758789,0.16087917983531952,-14836.390625,-14362.58984375,-9763.7216796875,79000,139452160.0,140168656.0,-754625728.0,-756602304.0,-3309774080.0,-3307275520.0,-661954816.0,-661455104.0,-706885312.0,-710587520.0,-706885312.0,-710587456.0,0.0,0.0,20.46410036087036,0.0,20.46410036087036,1658326334,4585
1000000,79,198.30946350097656,39921.25390625,3361994752.0,3618430464.0,88.30126190185547,0.17889530956745148,-35745.11328125,-35355.84375,-34836.44921875,80000,145075552.0,146119968.0,-777836736.0,-780684096.0,-3381423360.0,-3393510912.0,-676284672.0,-678702208.0,-724813504.0,-729063040.0,-724813504.0,-729063040.0,0.0,0.0,0.16801550768670342,10.0,20.70559072494507,0.08676791191101074,20.79235863685608,1658326355,4606
1000000,80,170.530517578125,15062.748046875,6676552192.0,3922238208.0,33.14970779418945,0.2444375455379486,-13569.501953125,-13253.818359375,-12029.833984375,81000,147692976.0,148905456.0,-790347712.0,-794826240.0,-3422897920.0,-3443332608.0,-684579584.0,-688666496.0,-737032384.0,-742106112.0,-737032384.0,-742106048.0,0.0,0.0,20.570720672607422,0.0,20.570720672607422,1658326375,4627
1000000,81,148.99012756347656,2460.193359375,93791136.0,15642353.0,2.37394642829895,0.3033527135848999,-1809.4019775390625,-2152.41650390625,-2174.859375,82000,149980528.0,151032496.0,-804651840.0,-809221056.0,-3497090560.0,-3519965440.0,-699418112.0,-703993088.0,-752286528.0,-757904576.0,-752286528.0,-757904576.0,0.0,0.0,20.535492420196533,0.0,20.535492420196533,1658326396,4647
1000000,82,153.48558044433594,8332.65234375,21055372.0,28247234.0,7.233898639678955,0.3277898132801056,-8006.748046875,-7391.6875,-7487.5986328125,83000,153118784.0,154597856.0,-820958336.0,-827283456.0,-3570507520.0,-3597199360.0,-714101504.0,-719439872.0,-766263232.0,-773283456.0,-766263232.0,-773283456.0,0.0,0.0,20.486127853393555,0.0,20.486127853393555,1658326417,4668
1000000,83,144.34503173828125,9973.5166015625,153802544.0,238596096.0,-2.994208812713623,0.32375362515449524,-9982.2451171875,-9348.2236328125,-10371.921875,84000,155910400.0,157750912.0,-835924160.0,-844060224.0,-3632870912.0,-3672261120.0,-726574208.0,-734452224.0,-781678272.0,-790253696.0,-781678272.0,-790253760.0,0.0,0.0,20.344435930252075,0.0,20.344435930252075,1658326437,4688
1000000,84,126.18363189697266,3315.65576171875,168942816.0,249070000.0,-27.41586685180664,0.2679288387298584,-2941.1806640625,-3391.4482421875,-4693.25732421875,85000,159557616.0,161139424.0,-853885120.0,-860835264.0,-3710088192.0,-3738306048.0,-742017664.0,-747661184.0,-798157952.0,-806858368.0,-798157952.0,-806858368.0,0.0,0.0,20.350794792175293,0.0,20.350794792175293,1658326457,4709
1000000,85,145.22073364257812,4102.32568359375,409406464.0,607686144.0,-2.6744861602783203,0.22242851555347443,-4291.0703125,-3573.955322265625,-2512.3447265625,86000,162638976.0,164683280.0,-871977920.0,-881427776.0,-3787513600.0,-3834649600.0,-757502720.0,-766929920.0,-815224576.0,-824506816.0,-815224512.0,-824506816.0,0.0,0.0,20.36449670791626,0.0,20.36449670791626,1658326478,4729
1000000,86,141.7411651611328,7300.7919921875,604733440.0,457196512.0,-8.465256690979004,0.19994346797466278,-6715.228515625,-6471.7958984375,-7976.13671875,87000,166011680.0,168025056.0,-890878144.0,-900827776.0,-3871709440.0,-3915472640.0,-774341888.0,-783094528.0,-830911424.0,-841398848.0,-830911424.0,-841398848.0,0.0,0.0,20.432196617126465,0.0,20.432196617126465,1658326498,4749
1000000,87,155.52256774902344,2760.35986328125,19413032.0,13006973.0,14.745098114013672,0.17726252973079681,-2694.85595703125,-2500.90185546875,-4638.791015625,88000,168882496.0,171111232.0,-907923648.0,-918372800.0,-3950810112.0,-3997488128.0,-790162048.0,-799497600.0,-848744128.0,-860033024.0,-848744128.0,-860033024.0,0.0,0.0,20.528194904327393,0.0,20.528194904327393,1658326519,4770
1000000,88,158.32838439941406,9463.5849609375,935532480.0,827515584.0,18.947830200195312,0.1877588927745819,-8053.26904296875,-7675.3828125,-8469.6796875,89000,172518672.0,175501760.0,-925857984.0,-938622464.0,-4022694912.0,-4062767360.0,-804539008.0,-812553472.0,-864596992.0,-877156544.0,-864596992.0,-877156544.0,0.0,0.0,20.48053503036499,0.0,20.48053503036499,1658326539,4790
1000000,89,186.97531127929688,18795.314453125,2920890368.0,2764604928.0,60.681678771972656,0.2191542536020279,-17653.23828125,-17519.318359375,-15114.7353515625,90000,176405920.0,179426304.0,-943486976.0,-956938688.0,-4102230528.0,-4154770176.0,-820446080.0,-830954048.0,-881753536.0,-895828160.0,-881753408.0,-895828160.0,0.0,0.0,0.16932849637404984,10.0,20.49616241455078,0.08377599716186523,20.579938411712646,1658326560,4811
1000000,90,131.6558380126953,25940.21484375,81014317056.0,79566061568.0,-24.21855926513672,0.2063138633966446,-22963.44140625,-23075.703125,-4250.5830078125,91000,179216288.0,182292848.0,-960765952.0,-975034880.0,-4162451968.0,-4212185088.0,-832490368.0,-842436992.0,-896971072.0,-911150592.0,-896971200.0,-911150720.0,0.0,0.0,20.552984714508057,0.0,20.552984714508057,1658326580,4832
1000000,91,148.85903930664062,13702.1025390625,804455488.0,873511168.0,2.8940515518188477,0.2108202576637268,-13385.04296875,-13903.1328125,-13851.34765625,92000,183171296.0,186333120.0,-981546624.0,-996402624.0,-4260630016.0,-4317831680.0,-852126016.0,-863566336.0,-914302784.0,-929276032.0,-914302784.0,-929276032.0,0.0,0.0,20.51649045944214,0.0,20.51649045944214,1658326601,4852
1000000,92,143.5758056640625,18308.818359375,805633728.0,1334379904.0,-5.31960391998291,0.21149921417236328,-15806.8603515625,-15032.1083984375,-26632.89453125,93000,184627216.0,187667168.0,-993682944.0,-1007692608.0,-4320024064.0,-4382156288.0,-864004800.0,-876431296.0,-925423552.0,-942797632.0,-925423424.0,-942797632.0,0.0,0.0,20.43351411819458,0.0,20.43351411819458,1658326621,4873
1000000,93,106.03846740722656,15003.70703125,1051283968.0,536396480.0,-63.124855041503906,0.21415041387081146,-11848.9482421875,-12635.904296875,-16044.2392578125,94000,189716000.0,193525136.0,-1013359232.0,-1029851584.0,-4381387776.0,-4449211392.0,-876277568.0,-889842240.0,-941207232.0,-959272768.0,-941207168.0,-959272640.0,0.0,0.0,20.477705240249634,0.0,20.477705240249634,1658326642,4893
1000000,94,168.86489868164062,35054.890625,22632353792.0,24542916608.0,32.642791748046875,0.22471284866333008,-31540.84375,-33550.46875,-22882.544921875,95000,193948960.0,197990432.0,-1033198208.0,-1051569472.0,-4471680512.0,-4539373056.0,-894336128.0,-907874624.0,-958758528.0,-977717056.0,-958758528.0,-977717056.0,0.0,0.0,20.430479049682617,0.0,20.430479049682617,1658326662,4913
1000000,95,168.1103515625,31050.6796875,1690682240.0,2896140032.0,30.098155975341797,0.2403271496295929,-27726.130859375,-27294.337890625,-27264.748046875,96000,195142608.0,199347024.0,-1047149184.0,-1066491392.0,-4545896448.0,-4625581568.0,-909179264.0,-925116352.0,-974746432.0,-995594880.0,-974746432.0,-995594752.0,0.0,0.0,20.43354558944702,0.0,20.43354558944702,1658326683,4934
1000000,96,191.83554077148438,37477.39453125,1808843392.0,2190009088.0,57.861289978027344,0.2751268744468689,-32600.19140625,-32115.32421875,-38067.453125,97000,199079920.0,203594976.0,-1066086208.0,-1087867520.0,-4600467968.0,-4699368960.0,-920093568.0,-939873792.0,-991837120.0,-1014453440.0,-991836992.0,-1014453568.0,0.0,0.0,20.41033935546875,0.0,20.41033935546875,1658326703,4954
1000000,97,158.1331024169922,23257.703125,8660435968.0,9414429696.0,12.671676635742188,0.3203957974910736,-21998.6015625,-21499.734375,-17701.017578125,98000,202920832.0,207398976.0,-1083768832.0,-1103409664.0,-4685744640.0,-4773157888.0,-937148928.0,-954631552.0,-1009585984.0,-1033169728.0,-1009585984.0,-1033169728.0,0.0,0.0,20.48516035079956,0.0,20.48516035079956,1658326724,4975
1000000,98,140.39553833007812,32497.109375,1711176704.0,1521750656.0,-7.023140907287598,0.3452816605567932,-28583.953125,-28217.5390625,-34201.4453125,99000,206512272.0,211100864.0,-1100281728.0,-1122241920.0,-4754476544.0,-4843068928.0,-950895296.0,-968613760.0,-1023463872.0,-1049258176.0,-1023463872.0,-1049258176.0,0.0,0.0,20.424588203430176,0.0,20.424588203430176,1658326744,4995
1000000,99,148.89808654785156,33001.765625,819284096.0,976925696.0,1.8525667190551758,0.3768090009689331,-27858.33203125,-29759.96875,-46008.8125,100000,208877664.0,213958608.0,-1114540416.0,-1138954112.0,-4817937408.0,-4932127744.0,-963587456.0,-986425600.0,-1039705792.0,-1066279936.0,-1039705728.0,-1066279936.0,0.0,0.0,0.08687398625114251,10.0,20.422934532165527,0.07878851890563965,20.501723051071167,1658326764,5016
1000000,100,199.86094665527344,78541.5078125,7294903808.0,7044975104.0,38.835968017578125,0.47965821623802185,-60341.12109375,-62595.3359375,-75039.8125,101000,212556480.0,217852416.0,-1136260352.0,-1161305472.0,-4885213184.0,-4996127744.0,-977042624.0,-999225600.0,-1056395072.0,-1084268288.0,-1056395200.0,-1084268160.0,0.0,0.0,20.482190370559692,0.0,20.482190370559692,1658326785,5036
1000000,101,175.43661499023438,52066.6796875,1971910144.0,2573453312.0,12.523353576660156,0.643781840801239,-43049.04296875,-43219.6015625,-58987.8828125,102000,215800992.0,221184496.0,-1151284480.0,-1178748160.0,-4976041984.0,-5076505088.0,-995208448.0,-1015300992.0,-1071517120.0,-1099571200.0,-1071517120.0,-1099571072.0,0.0,0.0,20.330991506576538,0.0,20.330991506576538,1658326805,5057
1000000,102,211.85397338867188,86843.40625,23439953920.0,25187807232.0,14.6090087890625,0.7983086109161377,-76428.25,-77064.0625,-78220.25,103000,218360352.0,224183488.0,-1166162816.0,-1194134400.0,-5045258240.0,-5160701440.0,-1009051648.0,-1032140288.0,-1086818560.0,-1115851136.0,-1086818560.0,-1115851264.0,0.0,0.0,20.43074321746826,0.0,20.43074321746826,1658326826,5077
1000000,103,171.80894470214844,54365.46875,1671932032.0,1973348096.0,2.409064292907715,0.9074609875679016,-47955.93359375,-47156.10546875,-53782.109375,104000,221662320.0,227277456.0,-1181620096.0,-1209629056.0,-5095199232.0,-5220815872.0,-1019039808.0,-1044163200.0,-1101293952.0,-1130208512.0,-1101293952.0,-1130208512.0,0.0,0.0,20.392643451690674,0.0,20.392643451690674,1658326846,5097
1000000,104,190.47543334960938,121345.03125,8629357568.0,8715061248.0,-1.5540573596954346,1.036392092704773,-108290.1953125,-108597.21875,-125106.7578125,105000,223127536.0,229067392.0,-1196040064.0,-1224685184.0,-5162645504.0,-5294828544.0,-1032529088.0,-1058965696.0,-1116490240.0,-1146180608.0,-1116490240.0,-1146180608.0,0.0,0.0,20.506694793701172,0.0,20.506694793701172,1658326867,5118
1000000,105,146.28482055664062,77760.0,2750935552.0,2845237248.0,0.1155327558517456,1.175323247909546,-70091.9453125,-70521.703125,-76252.390625,106000,226586208.0,232799584.0,-1212104704.0,-1241058176.0,-5221245952.0,-5340502016.0,-1044249216.0,-1068100416.0,-1127796480.0,-1158944512.0,-1127796480.0,-1158944384.0,0.0,0.0,20.50166344642639,0.0,20.50166344642639,1658326887,5138
1000000,106,145.976318359375,61696.7734375,813050752.0,829530816.0,0.24673128128051758,1.2725495100021362,-57349.6484375,-58616.6875,-61364.3359375,107000,230522096.0,236922880.0,-1230134272.0,-1260846208.0,-5304028672.0,-5427125760.0,-1060805696.0,-1085425152.0,-1142951936.0,-1174848768.0,-1142951936.0,-1174848640.0,0.0,0.0,20.502354860305786,0.0,20.502354860305786,1658326908,5159
1000000,107,141.19650268554688,46113.40234375,40126136320.0,43376324608.0,1.4319686889648438,1.2798497676849365,-43222.3359375,-43503.58984375,-21724.0703125,108000,233393488.0,239851056.0,-1243242624.0,-1275857024.0,-5355691520.0,-5505305088.0,-1071138304.0,-1101060992.0,-1159894272.0,-1191249664.0,-1159894400.0,-1191249792.0,0.0,0.0,20.4675612449646,0.0,20.4675612449646,1658326928,5179
1000000,108,139.98495483398438,31824.23046875,4226541312.0,3791312896.0,2.1938281059265137,1.3671547174453735,-27132.86328125,-29175.771484375,-33044.8515625,109000,237753568.0,244756256.0,-1260964864.0,-1294820352.0,-5425945600.0,-5563445760.0,-1085189120.0,-1112689152.0,-1175760512.0,-1207955712.0,-1175760640.0,-1207955840.0,0.0,0.0,20.408026218414307,0.0,20.408026218414307,1658326949,5200
1000000,109,124.7798843383789,46713.1640625,3527311616.0,3867628800.0,8.0784273147583,1.4384466409683228,-45761.140625,-42582.8359375,-65684.125,110000,240214272.0,247186704.0,-1276166016.0,-1311194496.0,-5476825600.0,-5610162688.0,-1095365120.0,-1122032512.0,-1187940224.0,-1221945728.0,-1187940224.0,-1221945728.0,0.0,0.0,0.31875742973968013,10.0,20.39136576652527,0.07779192924499512,20.469157695770264,1658326969,5220
1000000,110,170.46511840820312,149965.28125,35752243200.0,35923419136.0,-8.555944442749023,1.4399727582931519,-133703.40625,-130747.8203125,-135874.46875,111000,242643616.0,250028928.0,-1292095360.0,-1325760256.0,-5562163200.0,-5692964864.0,-1112432640.0,-1138593024.0,-1205088512.0,-1240700288.0,-1205088640.0,-1240700288.0,0.0,0.0,20.7207772731781,0.0,20.7207772731781,1658326990,5241
1000000,111,137.23977661132812,72544.453125,2714551808.0,3378283520.0,3.8578784465789795,1.4847779273986816,-64511.234375,-63672.81640625,-74474.5625,112000,246275808.0,253896032.0,-1312720768.0,-1349974656.0,-5623726080.0,-5788376064.0,-1124745216.0,-1157675264.0,-1216382592.0,-1253521024.0,-1216382592.0,-1253521024.0,0.0,0.0,20.934988975524902,0.0,20.934988975524902,1658327011,5262
1000000,112,126.83180236816406,64196.70703125,3677344256.0,3779782656.0,9.545488357543945,1.6052736043930054,-52039.1015625,-52906.4453125,-64603.2421875,113000,249534656.0,257942336.0,-1330115328.0,-1369480448.0,-5700656640.0,-5861846528.0,-1140131328.0,-1172369280.0,-1234249600.0,-1272448640.0,-1234249600.0,-1272448640.0,0.0,0.0,20.856685400009155,0.0,20.856685400009155,1658327032,5283
1000000,113,149.8267822265625,107896.2109375,4092695040.0,5529020928.0,-2.025254249572754,2.047161102294922,-89157.15625,-88729.3984375,-97733.6875,114000,254194784.0,262002944.0,-1349517952.0,-1386397056.0,-5779774464.0,-5922071040.0,-1155954944.0,-1184414208.0,-1251624320.0,-1291063168.0,-1251624192.0,-1291063168.0,0.0,0.0,20.439793348312378,0.0,20.439793348312378,1658327052,5303
1000000,114,187.0781707763672,210876.8125,203089838080.0,209030053888.0,-37.97057342529297,2.579028606414795,-187037.671875,-185543.515625,-177838.0,115000,256939392.0,265648736.0,-1363534848.0,-1404223744.0,-5865008640.0,-6012654080.0,-1173001728.0,-1202530816.0,-1266708480.0,-1310168320.0,-1266708608.0,-1310168320.0,0.0,0.0,20.386327266693115,0.0,20.386327266693115,1658327073,5324
1000000,115,167.100341796875,135005.390625,4485267968.0,5703931904.0,-22.825408935546875,3.11295747756958,-119801.234375,-117981.390625,-132279.875,116000,259841792.0,268398176.0,-1383886720.0,-1425024640.0,-5933123072.0,-6104962560.0,-1186624640.0,-1220992512.0,-1279952256.0,-1325085568.0,-1279952256.0,-1325085568.0,0.0,0.0,20.404417037963867,0.0,20.404417037963867,1658327093,5344
1000000,116,156.84449768066406,171992.625,17438130176.0,18059935744.0,-12.632373809814453,3.6081361770629883,-149397.84375,-147653.390625,-169054.75,117000,262453152.0,271384768.0,-1393981056.0,-1436609664.0,-5967746560.0,-6156172800.0,-1193549312.0,-1231234560.0,-1292100224.0,-1338298240.0,-1292100224.0,-1338298112.0,0.0,0.0,20.437036514282227,0.0,20.437036514282227,1658327113,5365
1000000,117,167.04380798339844,203076.46875,20465260544.0,20188977152.0,-29.587289810180664,4.375984191894531,-177611.796875,-174432.640625,-194032.25,118000,265251296.0,273996352.0,-1409570816.0,-1452941696.0,-5998418944.0,-6203635200.0,-1199683840.0,-1240727040.0,-1306207488.0,-1352666112.0,-1306207488.0,-1352665984.0,0.0,0.0,20.443339586257935,0.0,20.443339586257935,1658327134,5385
1000000,118,170.041259765625,241188.4375,42731429888.0,43394383872.0,-35.27827072143555,4.623219966888428,-213436.1875,-213994.53125,-240992.765625,119000,269444640.0,278718208.0,-1425180032.0,-1469022464.0,-6086612480.0,-6260993024.0,-1217322496.0,-1252198656.0,-1318068608.0,-1366386944.0,-1318068608.0,-1366386944.0,0.0,0.0,20.437451601028442,0.0,20.437451601028442,1658327154,5406
1000000,119,158.2135009765625,199292.78125,5666132480.0,7316352000.0,-17.425506591796875,4.730230808258057,-170876.75,-167735.578125,-204053.84375,120000,272545728.0,281603648.0,-1442675840.0,-1486856448.0,-6163220480.0,-6362641920.0,-1232644096.0,-1272528384.0,-1332488832.0,-1381934848.0,-1332488832.0,-1381934848.0,0.0,0.0,0.13254102681792865,10.0,20.348170042037964,0.08377695083618164,20.431946992874146,1658327175,5426
1000000,120,184.36239624023438,304977.25,194627305472.0,195434315776.0,-62.31855010986328,5.3012824058532715,-266785.3125,-268511.4375,-271909.125,121000,273437696.0,282941088.0,-1456496000.0,-1501197952.0,-6221167616.0,-6415221760.0,-1244233472.0,-1283044352.0,-1346553600.0,-1395964416.0,-1346553728.0,-1395964416.0,0.0,0.0,20.46550941467285,0.0,20.46550941467285,1658327195,5446
1000000,121,130.64889526367188,226020.1875,40410013696.0,42852159488.0,28.580001831054688,5.74250602722168,-192380.75,-195850.625,-217649.5,122000,277804096.0,287234272.0,-1473046400.0,-1519426432.0,-6305643520.0,-6513760256.0,-1261128704.0,-1302752000.0,-1358496640.0,-1408031744.0,-1358496640.0,-1408031744.0,0.0,0.0,20.471068382263184,0.0,20.471068382263184,1658327216,5467
1000000,122,147.1551513671875,246695.9375,234922147840.0,242002214912.0,-0.2816791534423828,6.144116401672363,-218174.28125,-220424.875,-213422.25,123000,278899456.0,288258496.0,-1483907072.0,-1532126976.0,-6331573760.0,-6525299200.0,-1266314752.0,-1305059840.0,-1369670016.0,-1419761664.0,-1369670144.0,-1419761664.0,0.0,0.0,20.418269872665405,0.0,20.418269872665405,1658327236,5487
1000000,123,139.61936950683594,215150.671875,123131281408.0,124859203584.0,13.233291625976562,6.00730562210083,-189945.78125,-189951.78125,-232551.234375,124000,282729152.0,292257024.0,-1500300544.0,-1549515776.0,-6372121088.0,-6580581376.0,-1274424192.0,-1316116224.0,-1381629312.0,-1432839040.0,-1381629440.0,-1432838784.0,0.0,0.0,20.424853086471558,0.0,20.424853086471558,1658327257,5508
1000000,124,152.4789276123047,176962.0,11594831872.0,10666737664.0,-10.080206871032715,6.295374870300293,-150158.328125,-151591.46875,-172738.28125,125000,284859840.0,294872768.0,-1513751168.0,-1562990080.0,-6456729088.0,-6670154240.0,-1291345792.0,-1334030848.0,-1394399616.0,-1447476224.0,-1394399616.0,-1447476224.0,0.0,0.0,20.55815863609314,0.0,20.55815863609314,1658327277,5528
1000000,125,169.14512634277344,364196.3125,133756305408.0,142426324992.0,-45.248695373535156,7.715877056121826,-324616.5625,-322234.9375,-367002.9375,126000,288057664.0,298549632.0,-1529809280.0,-1581689088.0,-6500362240.0,-6733934080.0,-1300072448.0,-1346786816.0,-1407186560.0,-1461010688.0,-1407186432.0,-1461010688.0,0.0,0.0,20.516706705093384,0.0,20.516706705093384,1658327298,5549
1000000,126,191.93408203125,374672.3125,42247401472.0,40766353408.0,-100.16011047363281,9.290992736816406,-327617.6875,-330245.28125,-353265.71875,127000,291097600.0,301630272.0,-1546665088.0,-1596957056.0,-6575685120.0,-6789298176.0,-1315137024.0,-1357859584.0,-1420291456.0,-1474830464.0,-1420291328.0,-1474830464.0,0.0,0.0,20.549149990081787,0.0,20.549149990081787,1658327318,5569
1000000,127,160.62631225585938,293578.375,197519343616.0,193157267456.0,-31.852994918823242,10.356457710266113,-257447.890625,-262872.28125,-239421.0625,128000,295278272.0,306087968.0,-1562928000.0,-1615458944.0,-6624036352.0,-6862785536.0,-1324807296.0,-1372557056.0,-1429648000.0,-1485152896.0,-1429648000.0,-1485152896.0,0.0,0.0,20.438189029693604,0.0,20.438189029693604,1658327339,5590
1000000,128,143.525390625,288362.875,56125108224.0,51251044352.0,8.44454574584961,11.363005638122559,-252540.859375,-250543.390625,-328322.21875,129000,297816704.0,308490560.0,-1580209152.0,-1633241088.0,-6686533632.0,-6912592896.0,-1337306752.0,-1382518528.0,-1440976768.0,-1496508032.0,-1440976768.0,-1496508160.0,0.0,0.0,20.36905264854431,0.0,20.36905264854431,1658327359,5610
1000000,129,164.85650634765625,360790.375,56978096128.0,59819417600.0,-46.596397399902344,13.592135429382324,-309483.875,-314217.0,-375963.375,130000,299068608.0,309871552.0,-1589493888.0,-1643332352.0,-6761251840.0,-6986618880.0,-1352250368.0,-1397323776.0,-1456509312.0,-1513099264.0,-1456509312.0,-1513099264.0,0.0,0.0,0.14080931565811966,10.0,20.35502028465271,0.0993204116821289,20.45434069633484,1658327380,5631
1000000,130,130.09622192382812,252934.59375,206710898688.0,212044677120.0,44.95909118652344,14.292081832885742,-216879.015625,-223531.875,-208003.34375,131000,300550048.0,311439040.0,-1599250304.0,-1652018048.0,-6794203648.0,-7031452160.0,-1358840704.0,-1406290432.0,-1466431104.0,-1523060096.0,-1466431104.0,-1523060096.0,0.0,0.0,20.40393567085266,0.0,20.40393567085266,1658327400,5651
1000000,131,131.15750122070312,338936.65625,25648414720.0,27423528960.0,43.2574577331543,15.34009838104248,-294503.0625,-293204.375,-361629.3125,132000,303330176.0,313591360.0,-1616201216.0,-1667004288.0,-6872663552.0,-7109693440.0,-1374532736.0,-1421938688.0,-1477064320.0,-1534634880.0,-1477064576.0,-1534635008.0,0.0,0.0,20.399500370025635,0.0,20.399500370025635,1658327420,5672
1000000,132,150.56573486328125,316846.25,34479366144.0,32415584256.0,-9.993179321289062,16.486635208129883,-269539.875,-271224.75,-295536.5,133000,309280320.0,319205312.0,-1636451712.0,-1685757952.0,-6937986048.0,-7165724160.0,-1387597184.0,-1433144832.0,-1491507584.0,-1549067264.0,-1491507456.0,-1549067264.0,0.0,0.0,20.40582299232483,0.0,20.40582299232483,1658327441,5692
1000000,133,178.87249755859375,538855.375,515008495616.0,501796143104.0,-91.95780944824219,17.90675163269043,-466842.625,-472321.03125,-515262.53125,134000,313077408.0,324085632.0,-1653909888.0,-1707020160.0,-6983795712.0,-7216572416.0,-1396759168.0,-1443314432.0,-1504598912.0,-1564057856.0,-1504599040.0,-1564057856.0,0.0,0.0,20.471787929534912,0.0,20.471787929534912,1658327461,5713
1000000,134,152.21820068359375,353087.875,35086561280.0,37465522176.0,-15.569870948791504,19.76198959350586,-307601.5,-304325.1875,-383961.8125,135000,316903808.0,328622816.0,-1670512640.0,-1724276736.0,-7040718848.0,-7268895744.0,-1408143744.0,-1453779200.0,-1516802304.0,-1577057664.0,-1516802304.0,-1577057664.0,0.0,0.0,20.62223196029663,0.0,20.62223196029663,1658327482,5733
1000000,135,169.31561279296875,466987.125,218524057600.0,208866721792.0,-69.0282974243164,22.049137115478516,-411937.875,-415483.125,-542475.0,136000,316364480.0,328890528.0,-1677331328.0,-1739704704.0,-7072033280.0,-7338813440.0,-1414406656.0,-1467762688.0,-1527372288.0,-1588988800.0,-1527372288.0,-1588988800.0,0.0,0.0,20.827176094055176,0.0,20.827176094055176,1658327503,5754
1000000,136,165.91754150390625,470678.0,171907072000.0,171321753600.0,-58.948768615722656,22.55801773071289,-410919.0625,-406259.6875,-434808.25,137000,320063616.0,332237856.0,-1694636160.0,-1754003840.0,-7138579456.0,-7397666816.0,-1427715840.0,-1479533312.0,-1539898496.0,-1602329856.0,-1539898624.0,-1602329856.0,0.0,0.0,20.517297983169556,0.0,20.517297983169556,1658327523,5775
1000000,137,123.27019500732422,391557.4375,182317170688.0,177301159936.0,74.94760131835938,23.53230857849121,-341101.09375,-342951.1875,-410373.9375,138000,323257024.0,334949056.0,-1715368192.0,-1773827328.0,-7185462272.0,-7456230400.0,-1437092480.0,-1491246080.0,-1548505984.0,-1612895104.0,-1548505984.0,-1612895232.0,0.0,0.0,20.51188039779663,0.0,20.51188039779663,1658327544,5795
1000000,138,145.29872131347656,594459.5,48069939200.0,50875609088.0,5.576221466064453,26.51370620727539,-521861.59375,-514715.4375,-569026.0,139000,326904576.0,338781632.0,-1728905600.0,-1787413376.0,-7237356544.0,-7505070080.0,-1447471360.0,-1501014016.0,-1561290368.0,-1628123008.0,-1561290368.0,-1628123008.0,0.0,0.0,20.469210624694824,0.0,20.469210624694824,1658327564,5816
1000000,139,156.7816619873047,670554.5,139533041664.0,154903953408.0,-33.68998718261719,31.318140029907227,-578588.875,-578258.75,-681583.5,140000,331111360.0,343572736.0,-1745814400.0,-1807822208.0,-7324920320.0,-7596698624.0,-1464984064.0,-1519339776.0,-1573400832.0,-1640884224.0,-1573400704.0,-1640884224.0,0.0,0.0,0.17506159681822428,10.0,20.510329246520996,0.08676791191101074,20.597097158432007,1658327585,5836
1000000,140,135.79815673828125,607055.75,94054481920.0,103135780864.0,40.592803955078125,37.47834777832031,-547370.75,-542496.25,-599553.375,141000,334569152.0,347896704.0,-1760282624.0,-1823235072.0,-7353068032.0,-7611998208.0,-1470613632.0,-1522399616.0,-1580772608.0,-1649091456.0,-1580772608.0,-1649091456.0,0.0,0.0,20.50683331489563,0.0,20.50683331489563,1658327605,5857
1000000,141,136.64120483398438,753800.6875,461527089152.0,459223465984.0,37.76343536376953,38.303497314453125,-655147.0,-655546.6875,-696612.25,142000,332914688.0,346212480.0,-1762645248.0,-1826998912.0,-7392935936.0,-7677685760.0,-1478587136.0,-1535537152.0,-1592733312.0,-1662593152.0,-1592733312.0,-1662593152.0,0.0,0.0,20.53738498687744,0.0,20.53738498687744,1658327626,5877
1000000,142,148.18038940429688,793329.0,769419247616.0,748250202112.0,-4.381949424743652,40.94670104980469,-696633.375,-688590.5,-787189.625,143000,338324608.0,351694144.0,-1786348416.0,-1851402112.0,-7495073280.0,-7768090624.0,-1499014656.0,-1553618176.0,-1602795264.0,-1674130688.0,-1602795264.0,-1674130688.0,0.0,0.0,20.641734838485718,0.0,20.641734838485718,1658327647,5898
1000000,143,163.38296508789062,930176.875,427978653696.0,423604879360.0,-61.66484451293945,43.118858337402344,-811386.5,-807261.75,-886010.4375,144000,341813504.0,355677632.0,-1800232832.0,-1866232704.0,-7477265920.0,-7796418560.0,-1495453184.0,-1559283712.0,-1611817344.0,-1684845696.0,-1611817344.0,-1684845696.0,0.0,0.0,20.553877115249634,0.0,20.553877115249634,1658327667,5918
1000000,144,132.02017211914062,619479.625,304561979392.0,320818544640.0,56.58130645751953,43.691986083984375,-558606.8125,-560639.25,-665473.375,145000,342747776.0,355974240.0,-1802100736.0,-1868948352.0,-7527779840.0,-7832863744.0,-1505555968.0,-1566572800.0,-1617232000.0,-1691858176.0,-1617232000.0,-1691858176.0,0.0,0.0,20.559849977493286,0.0,20.559849977493286,1658327688,5939
1000000,145,128.70248413085938,637689.3125,418393063424.0,388532764672.0,66.93462371826172,38.788570404052734,-572972.125,-573792.8125,-605152.625,146000,346166560.0,360075264.0,-1825600512.0,-1893930624.0,-7579871232.0,-7885911552.0,-1515974272.0,-1577182336.0,-1629197696.0,-1704551808.0,-1629197696.0,-1704551808.0,0.0,0.0,20.455855131149292,0.0,20.455855131149292,1658327708,5959
1000000,146,162.65765380859375,1034164.5,952509726720.0,931608264704.0,-54.704830169677734,32.91104507446289,-891402.125,-893880.3125,-881620.8125,147000,348183296.0,362421216.0,-1839235456.0,-1908507008.0,-7658698240.0,-7971870720.0,-1531739648.0,-1594374144.0,-1646967168.0,-1723654144.0,-1646967168.0,-1723654144.0,0.0,0.0,20.41464591026306,0.0,20.41464591026306,1658327729,5980
1000000,147,200.10659790039062,1087831.875,688693444608.0,685878935552.0,-190.37973022460938,36.04831314086914,-947297.5625,-948005.875,-1024055.5625,148000,353499232.0,367819456.0,-1860165632.0,-1931168640.0,-7731458048.0,-8064364544.0,-1546291584.0,-1612872960.0,-1655789440.0,-1733956480.0,-1655789568.0,-1733956480.0,0.0,0.0,20.483756065368652,0.0,20.483756065368652,1658327749,6000
1000000,148,136.28253173828125,819289.75,408671420416.0,425064333312.0,39.84502410888672,41.17234420776367,-712384.625,-710874.8125,-779315.5,149000,352949472.0,366927360.0,-1863992576.0,-1933806848.0,-7760214528.0,-8096123392.0,-1552042880.0,-1619224704.0,-1664223872.0,-1741850624.0,-1664223872.0,-1741850624.0,0.0,0.0,20.55737829208374,0.0,20.55737829208374,1658327770,6021
1000000,149,126.9699478149414,807403.6875,1078748708864.0,1072909123584.0,77.4556655883789,47.79745864868164,-710890.3125,-707952.5,-741164.0,150000,355303968.0,369530048.0,-1881427968.0,-1953386496.0,-7804585472.0,-8137143296.0,-1560917120.0,-1627428608.0,-1674146176.0,-1751806848.0,-1674146048.0,-1751806848.0,0.0,0.0,0.15088283446916456,10.0,20.560028553009033,0.08477449417114258,20.644803047180176,1658327790,6042
1000000,150,132.39627075195312,831660.625,242196561920.0,250704281600.0,56.3323974609375,47.341941833496094,-724937.6875,-726543.0625,-853811.25,151000,358948736.0,373539840.0,-1896894848.0,-1969468288.0,-7870121984.0,-8200614400.0,-1574024448.0,-1640122880.0,-1683685632.0,-1763605376.0,-1683685632.0,-1763605504.0,0.0,0.0,20.60796308517456,0.0,20.60796308517456,1658327811,6062
1000000,151,129.91256713867188,873970.875,364404473856.0,382024286208.0,65.34754943847656,45.80093002319336,-756799.375,-757080.375,-854234.5,152000,362811520.0,377490112.0,-1912161920.0,-1988146432.0,-7894077440.0,-8251941888.0,-1578815488.0,-1650388352.0,-1694519552.0,-1776723584.0,-1694519552.0,-1776723584.0,0.0,0.0,20.578362226486206,0.0,20.578362226486206,1658327832,6083
1000000,152,133.9942169189453,639482.8125,40402440192.0,47787966464.0,50.41252899169922,48.238651275634766,-550722.8125,-549577.625,-669223.5,153000,361789696.0,377596736.0,-1916628352.0,-1989814272.0,-7921909760.0,-8252626432.0,-1584381952.0,-1650525312.0,-1702229120.0,-1783951744.0,-1702229120.0,-1783951744.0,0.0,0.0,20.46185278892517,0.0,20.46185278892517,1658327852,6103
1000000,153,139.38284301757812,934813.5,444260483072.0,451819208704.0,29.709274291992188,49.4179801940918,-831366.625,-827647.875,-922467.25,154000,364286240.0,378987136.0,-1926801280.0,-2004009984.0,-7975066624.0,-8333911040.0,-1595013376.0,-1666782208.0,-1712036608.0,-1794234368.0,-1712036608.0,-1794234368.0,0.0,0.0,20.396798610687256,0.0,20.396798610687256,1658327872,6124
1000000,154,137.88082885742188,789667.8125,1159108362240.0,1141514174464.0,36.158538818359375,52.72605895996094,-702346.625,-702631.8125,-726585.125,155000,368434784.0,384129152.0,-1946523648.0,-2026925696.0,-8034125824.0,-8408892416.0,-1606825216.0,-1681778432.0,-1719234816.0,-1802372352.0,-1719234560.0,-1802372352.0,0.0,0.0,20.39882516860962,0.0,20.39882516860962,1658327893,6144
1000000,155,167.53921508789062,969761.5,193202995200.0,199214907392.0,-82.53871154785156,55.62259292602539,-860456.25,-855770.375,-1071332.125,156000,369572576.0,385163968.0,-1952777216.0,-2032337792.0,-8069386240.0,-8441696768.0,-1613877248.0,-1688339328.0,-1731456000.0,-1815651200.0,-1731456000.0,-1815651200.0,0.0,0.0,20.390678644180298,0.0,20.390678644180298,1658327913,6165
1000000,156,166.53106689453125,1298721.125,464883646464.0,462388133888.0,-79.96435546875,59.992164611816406,-1133330.875,-1130655.75,-1281866.5,157000,371771520.0,387688736.0,-1967272832.0,-2046938368.0,-8111584256.0,-8483628032.0,-1622316800.0,-1696725632.0,-1741962112.0,-1825774592.0,-1741962112.0,-1825774848.0,0.0,0.0,20.29151487350464,0.0,20.29151487350464,1658327934,6185
1000000,157,168.21267700195312,1471979.125,975580168192.0,1001317007360.0,-89.73489379882812,68.73423767089844,-1262432.75,-1271594.5,-1433094.0,158000,377012448.0,392376192.0,-1985233920.0,-2064112000.0,-8186909696.0,-8542519808.0,-1637381888.0,-1708503936.0,-1754186752.0,-1838202112.0,-1754186752.0,-1838202112.0,0.0,0.0,20.472076654434204,0.0,20.472076654434204,1658327954,6205
1000000,158,119.07386779785156,1023835.625,518520045568.0,524895813632.0,120.10140991210938,73.7501220703125,-897875.625,-901844.25,-957619.625,159000,375900128.0,393227360.0,-1988626048.0,-2072845568.0,-8215193088.0,-8556070400.0,-1643038592.0,-1711214080.0,-1760077824.0,-1845262720.0,-1760077824.0,-1845262720.0,0.0,0.0,20.3844096660614,0.0,20.3844096660614,1658327974,6226
1000000,159,124.25038146972656,1573174.625,2519998660608.0,2563083337728.0,98.88861083984375,77.23294067382812,-1389503.25,-1392176.0,-1545057.0,160000,381661824.0,398654976.0,-2012701952.0,-2095570944.0,-8216930304.0,-8610048000.0,-1643386112.0,-1722009600.0,-1767895424.0,-1854294272.0,-1767895424.0,-1854294016.0,0.0,0.0,0.32227918572504327,10.0,20.405869722366333,0.08976054191589355,20.495630264282227,1658327995,6246
1000000,160,135.3611602783203,1116257.0,532388315136.0,526012350464.0,49.53038787841797,70.50000762939453,-988770.625,-988261.875,-1126482.125,161000,388570688.0,406197120.0,-2031431296.0,-2119265536.0,-8293253120.0,-8678180864.0,-1658650624.0,-1735636224.0,-1776332160.0,-1865360768.0,-1776332416.0,-1865360768.0,0.0,0.0,20.55884552001953,0.0,20.55884552001953,1658328016,6267
1000000,161,128.5386199951172,1270388.5,325469962240.0,329763323904.0,75.45327758789062,59.56610107421875,-1120976.5,-1121432.375,-1258000.75,162000,388990016.0,406080832.0,-2040476288.0,-2123562368.0,-8301517824.0,-8715572224.0,-1660303616.0,-1743114368.0,-1785079040.0,-1877211520.0,-1785079040.0,-1877211520.0,0.0,0.0,20.467928171157837,0.0,20.467928171157837,1658328036,6287
1000000,162,138.82264709472656,1475244.0,2261214035968.0,2273561280512.0,32.819679260253906,55.339420318603516,-1277827.75,-1284064.0,-1415763.125,163000,390893248.0,408357952.0,-2052635904.0,-2138481024.0,-8399787520.0,-8810460160.0,-1679957504.0,-1762092032.0,-1800026368.0,-1893460992.0,-1800026496.0,-1893460992.0,0.0,0.0,20.622485637664795,0.0,20.622485637664795,1658328057,6308
1000000,163,131.05880737304688,1287697.125,328496807936.0,349736927232.0,66.3050308227539,64.0300064086914,-1140744.125,-1138569.125,-1235717.5,164000,390130336.0,408322880.0,-2061577088.0,-2151795456.0,-8444937216.0,-8845836288.0,-1688987392.0,-1769167232.0,-1804881152.0,-1899646592.0,-1804881280.0,-1899646592.0,0.0,0.0,20.486196756362915,0.0,20.486196756362915,1658328077,6328
1000000,164,161.8238067626953,1571539.75,1351916716032.0,1330161123328.0,-62.97233200073242,69.96918487548828,-1375856.625,-1376548.25,-1543397.5,165000,391676608.0,409038464.0,-2068140288.0,-2155868416.0,-8495144448.0,-8913874944.0,-1699028864.0,-1782775040.0,-1815039616.0,-1911577600.0,-1815039872.0,-1911577472.0,0.0,0.0,20.490074634552002,0.0,20.490074634552002,1658328098,6349
1000000,165,162.21597290039062,1587151.875,2309909118976.0,2246170902528.0,-65.54605102539062,74.27054595947266,-1386388.125,-1382165.625,-1464938.875,166000,396167168.0,413564736.0,-2085620992.0,-2171489024.0,-8551921152.0,-8955676672.0,-1710384256.0,-1791135232.0,-1822736000.0,-1920420224.0,-1822736000.0,-1920420224.0,0.0,0.0,20.334075212478638,0.0,20.334075212478638,1658328118,6369
1000000,166,145.96542358398438,1791206.5,4724845707264.0,4766336286720.0,4.535640716552734,80.16279602050781,-1524461.75,-1530813.75,-1479089.75,167000,401000192.0,419302656.0,-2106350848.0,-2196774912.0,-8563096576.0,-8998109184.0,-1712619264.0,-1799621888.0,-1830228992.0,-1928811776.0,-1830228864.0,-1928811776.0,0.0,0.0,20.423768043518066,0.0,20.423768043518066,1658328138,6390
1000000,167,165.08804321289062,2336173.0,2838178037760.0,2863753330688.0,-82.51058959960938,95.73755645751953,-2018949.375,-2016006.25,-2178783.75,168000,402607200.0,420569504.0,-2109305472.0,-2200238848.0,-8601607168.0,-9017821184.0,-1720321408.0,-1803564160.0,-1838748544.0,-1939197184.0,-1838748544.0,-1939197184.0,0.0,0.0,20.4848153591156,0.0,20.4848153591156,1658328159,6410
1000000,168,122.82943725585938,1665087.25,2918108364800.0,2915921297408.0,112.5711441040039,105.35818481445312,-1480330.375,-1493043.75,-1681096.875,169000,402796480.0,421284416.0,-2119353728.0,-2211312896.0,-8594345984.0,-9019317248.0,-1718869248.0,-1803863424.0,-1839395200.0,-1938791808.0,-1839395456.0,-1938791680.0,0.0,0.0,20.418927431106567,0.0,20.418927431106567,1658328179,6431
1000000,169,152.71926879882812,2442954.75,1141574336512.0,1150847287296.0,-26.515525817871094,103.14822387695312,-2139787.5,-2147365.5,-2488452.25,170000,404468096.0,422850688.0,-2132564224.0,-2225495808.0,-8670486528.0,-9109106688.0,-1734097280.0,-1821821440.0,-1848449920.0,-1949791232.0,-1848449920.0,-1949791232.0,0.0,0.0,0.19173693887936932,10.0,20.474273443222046,0.08177733421325684,20.556050777435303,1658328200,6451
1000000,170,146.55584716796875,2014321.625,3381147205632.0,3438015414272.0,2.075927734375,107.11167907714844,-1760746.75,-1761946.0,-1847322.375,171000,405240640.0,423523584.0,-2138529152.0,-2228750848.0,-8671888384.0,-9105186816.0,-1734377728.0,-1821037312.0,-1852425088.0,-1954315136.0,-1852425088.0,-1954315136.0,0.0,0.0,20.563649892807007,0.0,20.563649892807007,1658328220,6472
1000000,171,162.1749725341797,2152555.0,1680655777792.0,1710846509056.0,-71.59630584716797,111.95005798339844,-1886914.0,-1889290.5,-2140216.75,172000,409704384.0,427857024.0,-2151942656.0,-2244880128.0,-8732867584.0,-9170286592.0,-1746573568.0,-1834057344.0,-1856846464.0,-1959412608.0,-1856846208.0,-1959412608.0,0.0,0.0,20.468456506729126,0.0,20.468456506729126,1658328241,6492
1000000,172,152.5814208984375,2110836.25,698650066944.0,693426323456.0,-26.54037094116211,116.17813110351562,-1858472.625,-1850396.5,-2145491.75,173000,413532032.0,432047424.0,-2168683264.0,-2267419904.0,-8772377600.0,-9214025728.0,-1754475520.0,-1842805120.0,-1865142272.0,-1969793664.0,-1865142528.0,-1969793920.0,0.0,0.0,20.527552366256714,0.0,20.527552366256714,1658328262,6513
1000000,173,179.096923828125,2653137.5,3266319745024.0,3302567182336.0,-154.5418701171875,123.32806396484375,-2348855.25,-2352621.75,-2479585.0,174000,416522688.0,435374208.0,-2177569024.0,-2273746688.0,-8764551168.0,-9202504704.0,-1752910208.0,-1840500864.0,-1869887872.0,-1975366016.0,-1869887872.0,-1975366016.0,0.0,0.0,20.454734325408936,0.0,20.454734325408936,1658328282,6533
1000000,174,124.9723129272461,1443465.75,638648320000.0,663980605440.0,104.8404541015625,116.68601989746094,-1269825.125,-1267284.125,-1475859.5,175000,418663424.0,438483392.0,-2185642752.0,-2285112320.0,-8781630464.0,-9237055488.0,-1756326144.0,-1847411200.0,-1876284416.0,-1981501440.0,-1876284416.0,-1981501056.0,0.0,0.0,20.369157791137695,0.0,20.369157791137695,1658328302,6554
1000000,175,140.37774658203125,2256413.5,6405384830976.0,6401652948992.0,30.957740783691406,107.21157836914062,-1978716.5,-1984038.25,-1997588.25,176000,419191520.0,439004096.0,-2196237056.0,-2298683648.0,-8867696640.0,-9326968832.0,-1773539328.0,-1865393792.0,-1890770304.0,-1996782976.0,-1890770304.0,-1996782976.0,0.0,0.0,20.35431671142578,0.0,20.35431671142578,1658328323,6574
1000000,176,135.52479553222656,2261266.5,1106065752064.0,1078049767424.0,53.919189453125,109.81040954589844,-1952703.5,-1962126.125,-2502543.75,177000,424047488.0,444428928.0,-2211941376.0,-2312502528.0,-8865067008.0,-9317882880.0,-1773013376.0,-1863576576.0,-1895927808.0,-2001893760.0,-1895927680.0,-2001894016.0,0.0,0.0,20.446626901626587,0.0,20.446626901626587,1658328343,6594
1000000,177,159.8574981689453,2376610.25,1093436440576.0,1085558226944.0,-61.26941680908203,117.36243438720703,-2086635.25,-2097516.0,-2426576.5,178000,426781152.0,448078208.0,-2220366848.0,-2326172416.0,-8928963584.0,-9398897664.0,-1785792768.0,-1879779456.0,-1904424576.0,-2010781312.0,-1904424576.0,-2010781312.0,0.0,0.0,20.49287223815918,0.0,20.49287223815918,1658328364,6615
1000000,178,141.0983123779297,2484831.25,7427500539904.0,7466546888704.0,28.431411743164062,123.65676879882812,-2193508.75,-2189618.0,-2607301.0,179000,423516640.0,443753408.0,-2221145856.0,-2324995840.0,-8939068416.0,-9424572416.0,-1787813632.0,-1884914432.0,-1908826368.0,-2016247040.0,-1908826368.0,-2016247040.0,0.0,0.0,20.4813334941864,0.0,20.4813334941864,1658328384,6635
1000000,179,141.83047485351562,2393997.5,3039704645632.0,3064778981376.0,25.362394332885742,135.11509704589844,-2127275.0,-2129961.0,-2272419.75,180000,425833376.0,446187968.0,-2236198656.0,-2337393920.0,-8978432000.0,-9437281280.0,-1795686400.0,-1887456256.0,-1913860096.0,-2022400896.0,-1913860096.0,-2022400384.0,0.0,0.0,0.033432091447136235,10.0,20.511401414871216,0.08477258682250977,20.596174001693726,1658328405,6656
1000000,180,174.19940185546875,3273119.0,1298228576256.0,1340753051648.0,-133.37550354003906,134.7766876220703,-2950067.25,-2947985.5,-3381170.5,181000,427566752.0,447977376.0,-2239881728.0,-2343457536.0,-9013382144.0,-9497860096.0,-1802676480.0,-1899571968.0,-1919030272.0,-2028485504.0,-1919030272.0,-2028485504.0,0.0,0.0,20.482900857925415,0.0,20.482900857925415,1658328425,6677
1000000,181,153.2169189453125,2796996.5,2574120648704.0,2644343259136.0,-29.789796829223633,120.51041412353516,-2472252.5,-2469158.0,-2812507.25,182000,431738976.0,453564768.0,-2250455808.0,-2360254976.0,-9037435904.0,-9534556160.0,-1807487232.0,-1906911232.0,-1924199424.0,-2035910016.0,-1924199424.0,-2035909888.0,0.0,0.0,20.37871479988098,0.0,20.37871479988098,1658328446,6697
1000000,182,131.44003295898438,2043700.5,3009280212992.0,3004139831296.0,72.86854553222656,108.10202026367188,-1802394.875,-1807249.25,-2282654.5,183000,434903872.0,455562432.0,-2266388224.0,-2373832192.0,-9059567616.0,-9561645056.0,-1811913472.0,-1912329088.0,-1932349056.0,-2044810112.0,-1932349312.0,-2044810112.0,0.0,0.0,20.454087734222412,0.0,20.454087734222412,1658328466,6717
1000000,183,121.20120239257812,2193514.0,7626952802304.0,7286054977536.0,120.23887634277344,105.7037353515625,-1894253.0,-1896741.75,-2289741.75,184000,431207360.0,451889600.0,-2264565760.0,-2370051840.0,-9062603776.0,-9524362240.0,-1812520832.0,-1904872448.0,-1936366848.0,-2045825920.0,-1936366848.0,-2045826048.0,0.0,0.0,20.53142476081848,0.0,20.53142476081848,1658328487,6738
1000000,184,150.5878448486328,3116660.0,1706001694720.0,1729190166528.0,-17.03969955444336,115.50103759765625,-2699099.5,-2709365.5,-3150350.0,185000,433775680.0,454611520.0,-2277883904.0,-2386760960.0,-9148292096.0,-9647780864.0,-1829658496.0,-1929556224.0,-1949623680.0,-2058846592.0,-1949623936.0,-2058846592.0,0.0,0.0,20.437986373901367,0.0,20.437986373901367,1658328507,6758
1000000,185,145.04278564453125,2893833.75,2073969033216.0,2118630768640.0,9.486213684082031,127.33444213867188,-2583781.75,-2576306.0,-2832833.5,186000,438501696.0,460026176.0,-2293846272.0,-2402292224.0,-9180347392.0,-9642549248.0,-1836069504.0,-1928509952.0,-1956227072.0,-2065648256.0,-1956227328.0,-2065648256.0,0.0,0.0,20.478668928146362,0.0,20.478668928146362,1658328528,6779
1000000,186,142.28054809570312,3329088.5,4752176840704.0,4736540475392.0,22.910110473632812,128.30206298828125,-2935052.5,-2931952.5,-3242843.75,187000,443110592.0,463901312.0,-2309298944.0,-2414246912.0,-9160275968.0,-9650759680.0,-1832055168.0,-1930151936.0,-1963261184.0,-2072860288.0,-1963261184.0,-2072860544.0,0.0,0.0,20.41512680053711,0.0,20.41512680053711,1658328548,6799
1000000,187,134.8017120361328,2678626.0,2216747859968.0,2203914600448.0,59.056190490722656,126.63996887207031,-2369058.75,-2382183.0,-2622739.5,188000,442444736.0,464009472.0,-2309384704.0,-2414955776.0,-9202345984.0,-9692342272.0,-1840469248.0,-1938468352.0,-1972734592.0,-2082811520.0,-1972734848.0,-2082811520.0,0.0,0.0,20.455047607421875,0.0,20.455047607421875,1658328569,6820
1000000,188,130.82798767089844,2986013.5,2357199896576.0,2400928137216.0,77.90708923339844,123.64349365234375,-2625631.0,-2621213.25,-2866988.5,189000,445338560.0,467508736.0,-2324010240.0,-2433536768.0,-9245378560.0,-9746867200.0,-1849075712.0,-1949373440.0,-1977232640.0,-2087638656.0,-1977232640.0,-2087638656.0,0.0,0.0,20.470722436904907,0.0,20.470722436904907,1658328589,6840
1000000,189,138.92501831054688,3482360.0,8103911227392.0,8125103996928.0,38.50959014892578,117.80088806152344,-3129972.5,-3127772.0,-3455966.5,190000,447088384.0,470108864.0,-2332535296.0,-2449105152.0,-9258348544.0,-9754611712.0,-1851669760.0,-1950922368.0,-1982326784.0,-2093261184.0,-1982326784.0,-2093261184.0,0.0,0.0,0.10486694498718507,10.0,21.326252222061157,0.08082199096679688,21.407074213027954,1658328610,6862
1000000,190,149.83248901367188,3341702.0,11804841345024.0,11951887351808.0,-13.406911849975586,113.66547393798828,-2939206.75,-2938548.5,-3307851.25,191000,445313152.0,468292416.0,-2330003456.0,-2443084544.0,-9361000448.0,-9847634944.0,-1872200192.0,-1969527040.0,-1992331648.0,-2103419520.0,-1992331648.0,-2103419776.0,0.0,0.0,20.470484018325806,0.0,20.470484018325806,1658328631,6882
1000000,191,153.47959899902344,2942383.5,6206603657216.0,6283546591232.0,-30.50848388671875,110.87311553955078,-2611548.0,-2611793.5,-2887039.5,192000,450623296.0,472925152.0,-2347501824.0,-2459929088.0,-9342721024.0,-9844363264.0,-1868544128.0,-1968872704.0,-1996951552.0,-2108682624.0,-1996951552.0,-2108682624.0,0.0,0.0,20.35297727584839,0.0,20.35297727584839,1658328651,6903
1000000,192,126.39167785644531,2136127.5,2943827836928.0,2960671899648.0,96.41513061523438,107.60379028320312,-1884228.25,-1889523.25,-2158241.5,193000,450271904.0,473103872.0,-2351268864.0,-2462808320.0,-9397564416.0,-9908581376.0,-1879512832.0,-1981716224.0,-2005100416.0,-2118941952.0,-2005100160.0,-2118941952.0,0.0,0.0,20.36438751220703,0.0,20.36438751220703,1658328672,6923
1000000,193,149.672607421875,2684883.75,2364310814720.0,2352925638656.0,-12.58358383178711,110.87185668945312,-2377967.75,-2390966.0,-2519474.25,194000,453380096.0,475642240.0,-2362445568.0,-2472639232.0,-9438488576.0,-9919707136.0,-1887697664.0,-1983941376.0,-2007976320.0,-2122828416.0,-2007976320.0,-2122828416.0,0.0,0.0,20.351329565048218,0.0,20.351329565048218,1658328692,6943
1000000,194,171.30665588378906,2534556.5,1625377734656.0,1608072822784.0,-113.6085205078125,107.1218490600586,-2198512.0,-2194674.25,-2400442.75,195000,453698944.0,476736768.0,-2366789120.0,-2482043136.0,-9502511104.0,-10005768192.0,-1900502272.0,-2001153664.0,-2022792448.0,-2140331648.0,-2022792448.0,-2140331648.0,0.0,0.0,20.395217418670654,0.0,20.395217418670654,1658328712,6964
1000000,195,158.83180236816406,3325546.25,2028651020288.0,1957147705344.0,-55.592384338378906,109.78852081298828,-2941505.25,-2943759.5,-3252384.5,196000,458553728.0,481884224.0,-2383278848.0,-2496999168.0,-9502383104.0,-10025517056.0,-1900476672.0,-2005103360.0,-2026842112.0,-2145684352.0,-2026842112.0,-2145684352.0,0.0,0.0,20.500473499298096,0.0,20.500473499298096,1658328733,6984
1000000,196,123.05646514892578,2939915.0,4251996651520.0,4192680542208.0,114.06683349609375,117.21305084228516,-2588796.75,-2597863.5,-3001561.0,197000,453477888.0,478021632.0,-2382865408.0,-2500111104.0,-9497234432.0,-10042612736.0,-1899446912.0,-2008522496.0,-2032690432.0,-2152019968.0,-2032690432.0,-2152019968.0,0.0,0.0,20.4859836101532,0.0,20.4859836101532,1658328753,7005
1000000,197,149.38360595703125,2660404.0,3711358205952.0,3769062391808.0,-11.61349868774414,130.61410522460938,-2316169.25,-2308898.5,-2631697.5,198000,456600416.0,480182912.0,-2392846592.0,-2510850816.0,-9598500864.0,-10108002304.0,-1919700224.0,-2021600512.0,-2042043008.0,-2162558720.0,-2042043008.0,-2162558720.0,0.0,0.0,20.414738416671753,0.0,20.414738416671753,1658328774,7025
1000000,198,105.35713195800781,2585902.75,1786262716416.0,1729966112768.0,208.12826538085938,148.1067657470703,-2258760.75,-2261754.25,-2892919.5,199000,461085888.0,482830336.0,-2406235392.0,-2518128128.0,-9553564672.0,-10098785280.0,-1910712960.0,-2019757056.0,-2041250176.0,-2163193856.0,-2041250176.0,-2163193856.0,0.0,0.0,20.421895503997803,0.0,20.421895503997803,1658328794,7046
1000000,199,138.69375610351562,3139996.75,5455856795648.0,5552840638464.0,42.043670654296875,157.85765075683594,-2786423.5,-2788026.0,-3210455.25,200000,465016064.0,487203136.0,-2417117952.0,-2528237824.0,-9599538176.0,-10156286976.0,-1919907712.0,-2031257344.0,-2049369088.0,-2172104704.0,-2049368960.0,-2172104448.0,0.0,0.0,0.18585906013335948,10.0,20.45386838912964,0.0797872543334961,20.533655643463135,1658328815,7066
1000000,200,124.06380462646484,3469179.5,4134806224896.0,4173222117376.0,115.35057067871094,152.80992126464844,-3085551.5,-3083606.25,-3565970.0,201000,463497344.0,486261088.0,-2416405248.0,-2529101824.0,-9592868864.0,-10139323392.0,-1918573696.0,-2027864704.0,-2049717248.0,-2172329984.0,-2049717248.0,-2172330496.0,0.0,0.0,20.44123673439026,0.0,20.44123673439026,1658328835,7087
1000000,201,156.09149169921875,4042980.75,7926280355840.0,7988083949568.0,-45.16530227661133,143.7201385498047,-3630430.75,-3625730.0,-3974516.25,202000,464613440.0,488828736.0,-2424516608.0,-2541327616.0,-9663518720.0,-10197566464.0,-1932703744.0,-2039513216.0,-2061995264.0,-2184750848.0,-2061995264.0,-2184750848.0,0.0,0.0,20.373860359191895,0.0,20.373860359191895,1658328856,7107
1000000,202,131.9711456298828,2430566.25,817439965184.0,817122902016.0,73.13960266113281,129.8802490234375,-2149829.0,-2156473.75,-2416587.0,203000,471622496.0,493783456.0,-2443483648.0,-2557300224.0,-9664041984.0,-10217407488.0,-1932808448.0,-2043481472.0,-2065982080.0,-2188083712.0,-2065982080.0,-2188083712.0,0.0,0.0,20.31251096725464,0.0,20.31251096725464,1658328876,7127
1000000,203,170.66213989257812,3774549.5,8286722064384.0,8489559130112.0,-114.12617492675781,124.35698699951172,-3325601.75,-3323098.0,-3787413.5,204000,472973440.0,497156480.0,-2455124736.0,-2574022656.0,-9794103296.0,-10340938752.0,-1958820736.0,-2068187776.0,-2084077568.0,-2209157120.0,-2084077568.0,-2209157120.0,0.0,0.0,20.49367880821228,0.0,20.49367880821228,1658328897,7148
1000000,204,166.80929565429688,4305183.0,4963700834304.0,5047021207552.0,-96.03667449951172,127.49271392822266,-3758968.75,-3754008.25,-4312551.5,205000,470268256.0,493956704.0,-2459718400.0,-2576968448.0,-9836397568.0,-10365631488.0,-1967279488.0,-2073126272.0,-2097292928.0,-2224262400.0,-2097292928.0,-2224262400.0,0.0,0.0,20.604506731033325,0.0,20.604506731033325,1658328917,7168
1000000,205,166.4538116455078,3421013.0,12975687598080.0,13063003570176.0,-94.59011840820312,129.32017517089844,-3021167.25,-3017216.25,-3422151.0,206000,474284416.0,498919744.0,-2477511936.0,-2600481536.0,-9921753088.0,-10482891776.0,-1984350720.0,-2096578432.0,-2108476288.0,-2237295104.0,-2108476288.0,-2237295360.0,0.0,0.0,20.43481993675232,0.0,20.43481993675232,1658328938,7189
1000000,206,179.46726989746094,4075858.5,21909892759552.0,21557304885248.0,-157.569580078125,128.14749145507812,-3600322.5,-3597904.0,-4082125.5,207000,472234432.0,497135104.0,-2470960384.0,-2590174464.0,-9915700224.0,-10472919040.0,-1983140096.0,-2094583808.0,-2115179392.0,-2245428736.0,-2115179392.0,-2245428736.0,0.0,0.0,20.406488180160522,0.0,20.406488180160522,1658328958,7209
1000000,207,141.09820556640625,2747231.5,3712343867392.0,3653503549440.0,28.604469299316406,127.32424926757812,-2390789.0,-2402801.5,-2651052.0,208000,475477312.0,500083872.0,-2490247168.0,-2607962368.0,-9916689408.0,-10495438848.0,-1983337856.0,-2099087872.0,-2120456064.0,-2251629312.0,-2120455808.0,-2251629312.0,0.0,0.0,20.48113203048706,0.0,20.48113203048706,1658328978,7230
1000000,208,127.03887939453125,2898860.5,5622512222208.0,5355436769280.0,96.904296875,128.33570861816406,-2581907.5,-2568300.25,-2713972.5,209000,477035424.0,501855168.0,-2486207232.0,-2606327808.0,-9932662784.0,-10495855616.0,-1986532480.0,-2099171072.0,-2128805888.0,-2260093952.0,-2128806144.0,-2260094208.0,0.0,0.0,20.449115753173828,0.0,20.449115753173828,1658328999,7250
1000000,209,159.32589721679688,4571368.0,25674261725184.0,25958094471168.0,-60.58984375,136.4084014892578,-3987706.25,-3975154.5,-4353087.0,210000,475535808.0,500938880.0,-2491536896.0,-2617796608.0,-9995986944.0,-10592681984.0,-1999197440.0,-2118536448.0,-2142883200.0,-2275284224.0,-2142883200.0,-2275284224.0,0.0,0.0,0.08888677389344213,10.0,20.450789213180542,0.07879900932312012,20.529588222503662,1658329019,7271
1000000,210,167.06747436523438,3140724.0,3721566617600.0,3688927592448.0,-101.80548095703125,159.67828369140625,-2736185.0,-2732721.0,-3387041.5,211000,483648352.0,507699424.0,-2520190976.0,-2640266240.0,-10114918400.0,-10676187136.0,-2022983680.0,-2135237376.0,-2154913024.0,-2288827392.0,-2154913024.0,-2288827392.0,0.0,0.0,20.412034273147583,0.0,20.412034273147583,1658329040,7291
1000000,211,116.15470123291016,2706558.5,4909332692992.0,5072596500480.0,161.5477294921875,188.17123413085938,-2377751.5,-2382398.5,-2706259.75,212000,484142848.0,505995904.0,-2516486912.0,-2634156544.0,-10019087360.0,-10602190848.0,-2003817472.0,-2120438272.0,-2152704768.0,-2286850048.0,-2152704768.0,-2286850048.0,0.0,0.0,20.52687978744507,0.0,20.52687978744507,1658329060,7312
1000000,212,155.56410217285156,4031431.5,12421383061504.0,12287127584768.0,-46.076683044433594,217.0668182373047,-3548944.5,-3538623.75,-3747867.0,213000,488742176.0,513787392.0,-2533785088.0,-2655307008.0,-10150626304.0,-10715695104.0,-2030125312.0,-2143139072.0,-2164624640.0,-2299739136.0,-2164624640.0,-2299738880.0,0.0,0.0,20.43733501434326,0.0,20.43733501434326,1658329081,7332
1000000,213,163.54026794433594,4518725.0,13935624323072.0,14279101120512.0,-89.98416137695312,230.5140838623047,-3958930.5,-3953447.5,-3885722.0,214000,487280768.0,513132192.0,-2536231424.0,-2664634112.0,-10191532032.0,-10768252928.0,-2038306304.0,-2153650688.0,-2176702464.0,-2312536576.0,-2176702464.0,-2312536576.0,0.0,0.0,20.45889925956726,0.0,20.45889925956726,1658329101,7353
1000000,214,161.64801025390625,4678295.5,19210931535872.0,18936676483072.0,-80.77926635742188,248.31297302246094,-4118211.25,-4121184.5,-4403189.0,215000,488851168.0,514178784.0,-2549574400.0,-2674486016.0,-10248680448.0,-10793391104.0,-2049736064.0,-2158678272.0,-2184010240.0,-2320581120.0,-2184009728.0,-2320581120.0,0.0,0.0,20.38500428199768,0.0,20.38500428199768,1658329122,7373
1000000,215,138.75576782226562,3829577.25,5157464047616.0,5178799423488.0,45.349151611328125,244.8678436279297,-3342739.5,-3324098.0,-3950206.5,216000,493497344.0,518875168.0,-2568020736.0,-2696354560.0,-10273712128.0,-10852759552.0,-2054742400.0,-2170551808.0,-2190097152.0,-2328096768.0,-2190096896.0,-2328096512.0,0.0,0.0,20.607205152511597,0.0,20.607205152511597,1658329142,7394
1000000,216,134.34124755859375,4061784.5,4305829494784.0,4385940439040.0,70.02742004394531,252.6331787109375,-3546674.5,-3546287.0,-4338945.0,217000,490280288.0,516045056.0,-2564397824.0,-2691259648.0,-10311302144.0,-10916899840.0,-2062260480.0,-2183379968.0,-2198284800.0,-2339290368.0,-2198284800.0,-2339290368.0,0.0,0.0,20.662711143493652,0.0,20.662711143493652,1658329163,7414
1000000,217,135.44073486328125,3280723.5,10673246437376.0,10860767477760.0,64.82633972167969,272.64422607421875,-2866587.0,-2868787.75,-3203407.5,218000,494823744.0,521150656.0,-2576787968.0,-2705923584.0,-10325931008.0,-10928130048.0,-2065186176.0,-2185626112.0,-2204575232.0,-2346526976.0,-2204574976.0,-2346526976.0,0.0,0.0,20.5459406375885,0.0,20.5459406375885,1658329184,7435
1000000,218,155.15643310546875,4298563.5,6292795555840.0,6413177847808.0,-46.21723937988281,288.9784851074219,-3780744.25,-3775604.5,-4411512.5,219000,498040224.0,525156896.0,-2586217216.0,-2716252416.0,-10368920576.0,-10952453120.0,-2073784064.0,-2190490624.0,-2211233280.0,-2353702144.0,-2211233536.0,-2353702144.0,0.0,0.0,20.551488637924194,0.0,20.551488637924194,1658329204,7455
1000000,219,165.27984619140625,5325443.0,15088983474176.0,15179864604672.0,-103.55504608154297,288.5831604003906,-4635182.0,-4640997.5,-5225314.0,220000,499677888.0,525784960.0,-2599777024.0,-2731127296.0,-10409332736.0,-11030318080.0,-2081866624.0,-2206063616.0,-2220593664.0,-2363194112.0,-2220593664.0,-2363193856.0,0.0,0.0,0.20165354830612547,10.0,20.474863529205322,0.10372400283813477,20.578587532043457,1658329225,7476
1000000,220,123.50452423095703,5205392.0,12646814318592.0,12763498807296.0,134.9462890625,312.15557861328125,-4525388.0,-4540264.5,-5504107.0,221000,507842336.0,534736448.0,-2618509568.0,-2751891456.0,-10324706304.0,-10942371840.0,-2064941312.0,-2188474368.0,-2218567680.0,-2361106688.0,-2218567680.0,-2361106944.0,0.0,0.0,20.3890962600708,0.0,20.3890962600708,1658329245,7496
1000000,221,165.1085205078125,6923096.0,10754000420864.0,10834938953728.0,-106.13960266113281,351.1832275390625,-6056231.0,-6050442.0,-6721057.0,222000,499402208.0,524911456.0,-2612017664.0,-2741038848.0,-10460803072.0,-11060531200.0,-2092160640.0,-2212106240.0,-2231713536.0,-2375043840.0,-2231713536.0,-2375043840.0,0.0,0.0,20.48231291770935,0.0,20.48231291770935,1658329266,7517
1000000,222,158.20326232910156,4626338.5,4279154245632.0,4260025335808.0,-66.99922180175781,395.57257080078125,-4042754.75,-4040616.25,-4683557.0,223000,504107552.0,531035840.0,-2622730240.0,-2757321216.0,-10506476544.0,-11128714240.0,-2101295360.0,-2225742848.0,-2231649024.0,-2373520128.0,-2231649024.0,-2373520128.0,0.0,0.0,20.481696605682373,0.0,20.481696605682373,1658329286,7537
1000000,223,135.36810302734375,4573427.0,24235053416448.0,24186269466624.0,69.91563415527344,407.7605895996094,-4019488.25,-4020897.5,-4337619.5,224000,502532928.0,527724736.0,-2622464768.0,-2754888192.0,-10429315072.0,-11045193728.0,-2085862912.0,-2209038848.0,-2232075008.0,-2373556480.0,-2232075008.0,-2373556480.0,0.0,0.0,20.626028060913086,0.0,20.626028060913086,1658329307,7558
1000000,224,145.28839111328125,5353547.0,6313102278656.0,6366002413568.0,10.266338348388672,402.6352844238281,-4744741.0,-4742184.5,-5223474.5,225000,503583424.0,531373920.0,-2634177280.0,-2772802816.0,-10498845696.0,-11108005888.0,-2099769216.0,-2221601280.0,-2239459072.0,-2380919552.0,-2239459072.0,-2380919552.0,0.0,0.0,20.55225443840027,0.0,20.55225443840027,1658329327,7579
1000000,225,155.38687133789062,5645129.0,17073299259392.0,17061933744128.0,-49.64703369140625,372.2661437988281,-5007583.0,-5010471.0,-5725510.0,226000,513353312.0,538087680.0,-2657628160.0,-2788726784.0,-10508776448.0,-11129544704.0,-2101755264.0,-2225908992.0,-2240014336.0,-2381350656.0,-2240014336.0,-2381350656.0,0.0,0.0,20.519765377044678,0.0,20.519765377044678,1658329348,7599
1000000,226,152.27554321289062,5856996.0,4570149289984.0,4655771811840.0,-31.066402435302734,360.9586486816406,-5179140.5,-5178891.5,-6151070.5,227000,506862080.0,530765632.0,-2647954944.0,-2773135872.0,-10536093696.0,-11179491328.0,-2107218816.0,-2235898368.0,-2245100544.0,-2386895104.0,-2245100288.0,-2386895104.0,0.0,0.0,20.647331476211548,0.0,20.647331476211548,1658329369,7620
1000000,227,174.75729370117188,6196586.0,11410184601600.0,11288697634816.0,-162.61119079589844,350.1358337402344,-5486116.0,-5492572.0,-6423025.5,228000,513409120.0,540051456.0,-2664370432.0,-2799530240.0,-10617358336.0,-11228052480.0,-2123471616.0,-2245610496.0,-2252619520.0,-2395980288.0,-2252619520.0,-2395980288.0,0.0,0.0,20.473705530166626,0.0,20.473705530166626,1658329389,7640
1000000,228,147.50393676757812,4883729.0,49839647752192.0,49720747622400.0,-2.9256820678710938,332.15576171875,-4303346.0,-4299056.0,-3879347.5,229000,511889856.0,538232064.0,-2665871104.0,-2798555136.0,-10596368384.0,-11234984960.0,-2119273600.0,-2246996992.0,-2256894976.0,-2401495040.0,-2256895232.0,-2401495040.0,0.0,0.0,20.382034063339233,0.0,20.382034063339233,1658329409,7661
1000000,229,146.8622283935547,4807544.0,20264624586752.0,19912405811200.0,0.802642822265625,339.0294494628906,-4241225.0,-4237827.0,-4336088.5,230000,519633728.0,545406976.0,-2682261504.0,-2812255488.0,-10553196544.0,-11208501248.0,-2110639232.0,-2241700352.0,-2256072704.0,-2401292800.0,-2256072704.0,-2401292800.0,0.0,0.0,0.1244076960850938,10.0,20.289520025253296,0.09774065017700195,20.387260675430298,1658329430,7681
1000000,230,162.1319122314453,6157018.5,41935741911040.0,41676148047872.0,-88.39839935302734,344.4170227050781,-5426882.5,-5425249.0,-5095851.5,231000,516013664.0,542653440.0,-2675823616.0,-2810246912.0,-10584170496.0,-11225866240.0,-2116834048.0,-2245173248.0,-2260207616.0,-2405898240.0,-2260207360.0,-2405898240.0,0.0,0.0,20.443214178085327,0.0,20.443214178085327,1658329450,7702
1000000,231,143.18002319335938,4857774.5,6941430513664.0,6778584563712.0,22.14631462097168,329.4747314453125,-4261541.5,-4265007.5,-4512244.0,232000,520953472.0,549872000.0,-2693487360.0,-2838364928.0,-10646169600.0,-11287271424.0,-2129233920.0,-2257454336.0,-2268380928.0,-2415105024.0,-2268380928.0,-2415105280.0,0.0,0.0,20.383102416992188,0.0,20.383102416992188,1658329471,7722
1000000,232,125.23121643066406,4283942.5,6620224421888.0,6722336849920.0,126.21238708496094,329.5935363769531,-3763115.75,-3768424.5,-4474931.5,233000,517016192.0,544336256.0,-2688292864.0,-2824199424.0,-10578800640.0,-11221729280.0,-2115760128.0,-2244345856.0,-2266317824.0,-2413048064.0,-2266317824.0,-2413047808.0,0.0,0.0,20.387213945388794,0.0,20.387213945388794,1658329491,7742
1000000,233,111.41204833984375,4392614.0,4656749608960.0,4582502563840.0,206.88912963867188,334.775390625,-3844607.5,-3841081.25,-4561626.0,234000,519848384.0,546807488.0,-2695428864.0,-2831285504.0,-10627343360.0,-11244056576.0,-2125468672.0,-2248811264.0,-2273337088.0,-2421035008.0,-2273337344.0,-2421035008.0,0.0,0.0,20.59854555130005,0.0,20.59854555130005,1658329512,7763
1000000,234,154.485107421875,5426329.5,28879792111616.0,28729241763840.0,-43.67913818359375,342.22186279296875,-4749128.0,-4756897.0,-5219892.0,235000,521622944.0,549516224.0,-2709690112.0,-2847378688.0,-10715896832.0,-11329007616.0,-2143179392.0,-2265801472.0,-2282874624.0,-2432319488.0,-2282874624.0,-2432319488.0,0.0,0.0,20.44619059562683,0.0,20.44619059562683,1658329532,7783
1000000,235,163.9600830078125,7116565.0,16980452048896.0,17143045292032.0,-99.46087646484375,352.2740478515625,-6264463.5,-6268362.0,-6723450.0,236000,519304832.0,547852672.0,-2706256640.0,-2848541184.0,-10728912896.0,-11397322752.0,-2145782528.0,-2279464448.0,-2287525120.0,-2437718016.0,-2287525120.0,-2437718016.0,0.0,0.0,20.41997766494751,0.0,20.41997766494751,1658329553,7804
1000000,236,163.47579956054688,6140589.0,11722032152576.0,11722141204480.0,-96.86204528808594,357.4709167480469,-5454568.0,-5458747.0,-5929383.0,237000,521121312.0,547347520.0,-2715957504.0,-2852084480.0,-10780824576.0,-11408478208.0,-2156164864.0,-2281695744.0,-2294094080.0,-2445252352.0,-2294093824.0,-2445252352.0,0.0,0.0,20.452507495880127,0.0,20.452507495880127,1658329573,7824
1000000,237,150.97860717773438,5910453.5,19435398103040.0,19353703546880.0,-23.124366760253906,334.3462829589844,-5201305.0,-5190347.0,-5469388.0,238000,526772512.0,554284096.0,-2731352832.0,-2872305664.0,-10773200896.0,-11406620672.0,-2154640128.0,-2281324032.0,-2295928832.0,-2447010816.0,-2295928832.0,-2447011072.0,0.0,0.0,20.415279150009155,0.0,20.415279150009155,1658329593,7845
1000000,238,173.78271484375,5971070.0,3507427475456.0,3451998175232.0,-155.39059448242188,330.92816162109375,-5273766.5,-5265892.5,-5854604.0,239000,532257344.0,558547520.0,-2751784960.0,-2889664512.0,-10846796800.0,-11522285568.0,-2169359360.0,-2304457216.0,-2304955648.0,-2456953088.0,-2304955392.0,-2456952832.0,0.0,0.0,20.31266736984253,0.0,20.31266736984253,1658329614,7865
1000000,239,139.51739501953125,5196945.0,16508677783552.0,16278849847296.0,43.407493591308594,330.6712341308594,-4521251.0,-4528742.0,-4971106.0,240000,522781344.0,550107008.0,-2742473472.0,-2876820224.0,-10855555072.0,-11502781440.0,-2171110912.0,-2300556288.0,-2309676800.0,-2460634112.0,-2309676800.0,-2460633856.0,0.0,0.0,0.17124143838882447,10.0,20.4874165058136,0.08975982666015625,20.577176332473755,1658329634,7886
1000000,240,143.5178985595703,5488143.0,28931633709056.0,28967918632960.0,20.286895751953125,339.0187683105469,-4792111.5,-4791994.5,-5125532.5,241000,531537792.0,558869248.0,-2753264896.0,-2891336192.0,-10836451328.0,-11486730240.0,-2167290368.0,-2297346048.0,-2314619392.0,-2465624832.0,-2314619392.0,-2465625088.0,0.0,0.0,20.43382430076599,0.0,20.43382430076599,1658329655,7906
1000000,241,130.41748046875,5372995.0,10324776321024.0,10213548621824.0,96.86083984375,344.1719055175781,-4715871.0,-4728122.5,-5188654.0,242000,526956480.0,554583872.0,-2750813696.0,-2892806656.0,-10869351424.0,-11515465728.0,-2173870336.0,-2303093248.0,-2317062144.0,-2468608768.0,-2317062144.0,-2468609024.0,0.0,0.0,20.515204191207886,0.0,20.515204191207886,1658329675,7927
1000000,242,179.33824157714844,6206517.0,3719307722752.0,3780886659072.0,-188.19256591796875,336.80438232421875,-5457557.0,-5441129.0,-6952300.5,243000,527799584.0,556606464.0,-2747493120.0,-2890134528.0,-10951380992.0,-11571376128.0,-2190276096.0,-2314275328.0,-2322022400.0,-2473667840.0,-2322022400.0,-2473667840.0,0.0,0.0,20.42413902282715,0.0009975433349609375,20.42513656616211,1658329696,7947
1000000,243,145.33975219726562,5726115.0,9009701584896.0,8917668069376.0,9.670326232910156,338.54949951171875,-5062173.5,-5057240.5,-5795573.0,244000,529835200.0,557958400.0,-2759745280.0,-2906540544.0,-10904226816.0,-11576739840.0,-2180845312.0,-2315347968.0,-2321741568.0,-2474947840.0,-2321741568.0,-2474947840.0,0.0,0.0,20.38716411590576,0.0,20.38716411590576,1658329716,7968
1000000,244,184.04693603515625,6271969.0,30846962630656.0,30912532185088.0,-216.51480102539062,345.2740783691406,-5503871.0,-5501013.0,-5732203.0,245000,535831104.0,562650496.0,-2781690368.0,-2921140736.0,-11002571776.0,-11643179008.0,-2200514304.0,-2328635904.0,-2333630208.0,-2488570368.0,-2333630464.0,-2488570112.0,0.0,0.0,20.270243644714355,0.0,20.270243644714355,1658329737,7988
1000000,245,163.4647979736328,5570048.0,7751293992960.0,7786175397888.0,-96.81232452392578,357.7932434082031,-4933214.5,-4928065.0,-5379817.0,246000,540444480.0,568181312.0,-2784762368.0,-2920823552.0,-10925568000.0,-11580196864.0,-2185113600.0,-2316039424.0,-2326724352.0,-2479969024.0,-2326724096.0,-2479969024.0,0.0,0.0,20.430609703063965,0.0,20.430609703063965,1658329757,8008
1000000,246,145.35745239257812,5321889.0,13531523055616.0,13556860846080.0,9.584726333618164,342.1686706542969,-4705291.0,-4706894.0,-4882770.0,247000,534068320.0,563222336.0,-2777126144.0,-2925770496.0,-10959071232.0,-11656251392.0,-2191814144.0,-2331250176.0,-2336920576.0,-2490173440.0,-2336920320.0,-2490173440.0,0.0,0.0,20.419576406478882,0.0,20.419576406478882,1658329777,8029
1000000,247,151.28952026367188,6110596.5,12228407328768.0,11913576579072.0,-24.859146118164062,328.752685546875,-5406278.0,-5400454.0,-6069253.0,248000,540453952.0,570283968.0,-2799186688.0,-2944364288.0,-10964244480.0,-11635537920.0,-2192848896.0,-2327107584.0,-2339191296.0,-2491956480.0,-2339191040.0,-2491956480.0,0.0,0.0,20.353585958480835,0.0,20.353585958480835,1658329798,8049
1000000,248,144.9908447265625,6660319.0,5124689756160.0,5043124699136.0,11.611444473266602,323.52978515625,-5875010.5,-5893234.0,-6720759.0,249000,541208000.0,569805056.0,-2796528896.0,-2940916992.0,-10957268992.0,-11624500224.0,-2191453696.0,-2324900096.0,-2343086848.0,-2494966272.0,-2343086848.0,-2494966272.0,0.0,0.0,20.542263507843018,0.0,20.542263507843018,1658329818,8070
1000000,249,149.41583251953125,5343264.0,23155175325696.0,23552765984768.0,-13.896072387695312,314.8410949707031,-4703123.0,-4701680.0,-5071590.5,250000,542111424.0,570609664.0,-2812402432.0,-2952922880.0,-11057894400.0,-11721926656.0,-2211578880.0,-2344385280.0,-2355759616.0,-2507328256.0,-2355759616.0,-2507328256.0,0.0,0.0,0.18540233717249338,10.0,20.521392822265625,0.09833812713623047,20.619730949401855,1658329839,8090
1000000,250,154.05772399902344,6101361.0,19882083090432.0,19710980653056.0,-40.736976623535156,321.1680603027344,-5336150.5,-5333626.0,-5680717.5,251000,543785856.0,574140672.0,-2811771392.0,-2957535232.0,-11079248896.0,-11698147328.0,-2215849728.0,-2339629568.0,-2361657344.0,-2512717824.0,-2361657600.0,-2512717824.0,0.0,0.0,20.473540782928467,0.0,20.473540782928467,1658329859,8111
1000000,251,140.43865966796875,5808415.0,13013589426176.0,13267118325760.0,38.171417236328125,336.1719055175781,-5124641.0,-5130352.0,-5520621.0,252000,545143936.0,574162560.0,-2821591552.0,-2967077376.0,-11107319808.0,-11771830272.0,-2221464064.0,-2354365952.0,-2371212288.0,-2523201280.0,-2371212544.0,-2523201280.0,0.0,0.0,20.534607648849487,0.0,20.534607648849487,1658329880,8131
1000000,252,179.17599487304688,6258855.0,22312644509696.0,22019938713600.0,-185.19898986816406,316.02166748046875,-5561765.0,-5575502.0,-5988137.0,253000,534008032.0,563104128.0,-2804790016.0,-2954439424.0,-11175756800.0,-11825901568.0,-2235151360.0,-2365180416.0,-2380587008.0,-2534178816.0,-2380587008.0,-2534178816.0,0.0,0.0,20.429873943328857,0.0,20.429873943328857,1658329900,8152
1000000,253,138.94699096679688,5928218.0,9682667175936.0,9814065283072.0,45.46317672729492,283.0118408203125,-5241681.0,-5239577.5,-5911563.0,254000,548817344.0,577080192.0,-2835762176.0,-2980140288.0,-11082395648.0,-11741995008.0,-2216479232.0,-2348399104.0,-2378894592.0,-2531927040.0,-2378894592.0,-2531927040.0,0.0,0.0,20.531792402267456,0.0,20.531792402267456,1658329921,8172
1000000,254,133.74185180664062,4710791.5,10484652703744.0,10527616008192.0,73.97671508789062,264.99688720703125,-4136341.75,-4134917.0,-4425081.0,255000,550068736.0,580884992.0,-2840817408.0,-2992371712.0,-11142016000.0,-11797411840.0,-2228403200.0,-2359482368.0,-2389518336.0,-2543977216.0,-2389518080.0,-2543977216.0,0.0,0.0,20.46560835838318,0.0,20.46560835838318,1658329941,8193
