ZeyuZhang1901/offline_CQL_LTR/experiment_output/default_2022_07_19_11_22_23-s-42--7128548fd2474483beb69e9ea767615d/progress.csv
env_steps,epoch,sac/log_pi,sac/policy_loss,sac/qf1_loss,sac/qf2_loss,sac/alpha_loss,sac/alpha,sac/average_qf1,sac/average_qf2,sac/average_target_q,sac/total_steps,sac/cql/cql_std_q1,sac/cql/cql_std_q2,sac/cql/cql_q1_rand,sac/cql/cql_q2_rand,sac/cql/cql_min_qf1_loss,sac/cql/cql_min_qf2_loss,sac/cql/cql_qf1_diff,sac/cql/cql_qf2_diff,sac/cql/cql_q1_current_actions,sac/cql/cql_q2_current_actions,sac/cql/cql_q1_next_actions,sac/cql/cql_q2_next_actions,sac/cql/alpha_prime_loss,sac/cql/alpha_prime,average_return,average_traj_length,rollout_time,train_time,eval_time,epoch_time,_timestamp,_runtime
1000,0,-17.929412841796875,100.49690246582031,612.3101196289062,652.1104736328125,-48.01466369628906,0.7474241256713867,-60.456787109375,-62.419883728027344,-70.79777526855469,1000,3484.697265625,3519.0712890625,-18313.619140625,-18470.240234375,-78865.9453125,-79287.8828125,-15773.189453125,-15857.576171875,-17933.47265625,-18043.25,-17933.466796875,-18043.248046875,0.0,0.0,0.14055207975694622,10.0,2.527919054031372,19.63416337966919,0.0937502384185791,22.25583267211914,1658202114,1175
2000,1,139.03271484375,206.73431396484375,3567.12353515625,3702.808349609375,-3.3151354789733887,0.6596189141273499,-75.2109375,-54.59070587158203,-77.29464721679688,2000,21807.8984375,22083.40234375,-117401.1015625,-118450.3984375,-514546.0,-517418.4375,-102909.203125,-103483.6875,-111493.625,-112152.6796875,-111493.625,-112152.6796875,0.0,0.0,1.4940342903137207,19.56023406982422,0.0,21.05426836013794,1658202135,1196
3000,2,213.42147827148438,1106.751708984375,103688.890625,102912.8671875,20.558818817138672,0.733798623085022,-592.4285888671875,-575.816162109375,-701.0360717773438,3000,60927.1328125,61827.140625,-328508.6875,-332214.28125,-1439363.5,-1452436.5,-287872.6875,-290487.3125,-308594.78125,-311589.75,-308594.75,-311589.75,0.0,0.0,1.5107617378234863,19.71933388710022,0.0,21.230095624923706,1658202156,1218
4000,3,291.37884521484375,4192.2529296875,1257609.75,1247765.375,-4.288226127624512,1.0301467180252075,-2804.991455078125,-2822.19482421875,-3054.777587890625,4000,121798.859375,123872.328125,-660962.125,-670238.125,-2878363.0,-2916363.0,-575672.625,-583272.625,-619099.3125,-626375.0625,-619099.375,-626375.125,0.0,0.0,1.4735004901885986,19.799972772598267,0.0,21.273473262786865,1658202177,1239
5000,4,320.60504150390625,8626.16015625,7248349.0,7229773.0,-68.51912689208984,1.483915090560913,-6221.71484375,-6225.162109375,-7108.521484375,5000,201947.3125,206415.1875,-1096224.25,-1115540.25,-4781685.0,-4833713.0,-956337.0,-966742.625,-1021717.0,-1037746.1875,-1021717.0,-1037746.1875,0.0,0.0,1.5626497268676758,19.801456212997437,0.0,21.364105939865112,1658202199,1260
6000,5,297.956787109375,13690.9873046875,17642408.0,17475620.0,-111.373291015625,2.0912928581237793,-10308.076171875,-10349.109375,-11863.259765625,6000,289529.96875,295890.625,-1577889.75,-1608664.75,-6852295.5,-6995404.0,-1370459.125,-1399080.75,-1459630.625,-1485734.0,-1459630.625,-1485734.0,0.0,0.0,1.5791807174682617,19.777339458465576,0.0,21.356520175933838,1658202220,1282
7000,6,308.75384521484375,23022.21484375,95834344.0,91592880.0,-169.1743621826172,2.84588885307312,-18456.12109375,-18413.13671875,-19849.396484375,7000,368153.625,379110.125,-2007229.625,-2059843.875,-8654690.0,-8872987.0,-1730938.0,-1774597.375,-1867491.0,-1911517.625,-1867491.25,-1911517.625,0.0,0.0,1.5471959114074707,19.861189365386963,0.0,21.408385276794434,1658202242,1303
8000,7,301.7500305175781,31357.5546875,88764208.0,89985392.0,-207.14703369140625,3.813666820526123,-25031.9453125,-25132.07421875,-28684.255859375,8000,447335.4375,462606.25,-2438882.5,-2513360.75,-10563255.0,-10841055.0,-2112651.0,-2168211.0,-2262786.75,-2324937.75,-2262786.75,-2324937.75,0.0,0.0,1.4309577941894531,19.859211683273315,0.0,21.29016947746277,1658202263,1324
9000,8,264.44061279296875,38637.625,187849056.0,185600528.0,-189.82290649414062,5.034586429595947,-31590.25390625,-31685.162109375,-36275.5390625,9000,520870.5625,539503.5,-2840137.25,-2930217.75,-12212079.0,-12562370.0,-2442415.75,-2512474.0,-2635083.25,-2717228.25,-2635083.25,-2717228.25,0.0,0.0,1.4260461330413818,19.760669708251953,0.0,21.186715841293335,1658202284,1346
10000,9,261.4981689453125,51418.37890625,236864528.0,234844592.0,-215.10411071777344,6.54478645324707,-42555.25,-42471.546875,-47615.0,10000,594471.25,616363.125,-3239308.5,-3345223.0,-13867445.0,-14316335.0,-2773489.0,-2863267.0,-3005514.0,-3102819.75,-3005514.25,-3102819.75,0.0,0.0,0.14965327750010426,10.0,1.4459688663482666,19.80189871788025,0.08944296836853027,21.337310552597046,1658202305,1367
11000,10,246.19349670410156,60057.9140625,343539072.0,342859776.0,-211.96826171875,8.473275184631348,-50011.46875,-50066.2109375,-56217.4921875,11000,664230.75,687808.9375,-3644638.5,-3767965.75,-15635128.0,-16117535.0,-3127025.5,-3223507.0,-3383752.0,-3497278.0,-3383752.0,-3497278.5,0.0,0.0,1.4615039825439453,19.78909134864807,0.0,21.250595331192017,1658202327,1388
12000,11,229.8861846923828,69410.359375,537848576.0,536486560.0,-198.0229034423828,10.90361499786377,-57448.66015625,-57447.68359375,-65907.125,12000,741397.125,767125.6875,-4053878.5,-4183602.5,-17381782.0,-17878052.0,-3476356.5,-3575610.25,-3773178.0,-3892716.75,-3773177.75,-3892717.25,0.0,0.0,1.3700459003448486,19.802875757217407,0.0,21.172921657562256,1658202348,1409
13000,12,210.4634552001953,82823.9453125,757556096.0,756412224.0,-167.26609802246094,13.952081680297852,-69234.1640625,-69262.5703125,-76593.078125,13000,817747.25,843829.375,-4477408.0,-4612119.5,-19070480.0,-19686202.0,-3814096.0,-3937240.5,-4180736.0,-4302651.5,-4180735.75,-4302651.5,0.0,0.0,1.4187591075897217,19.794151782989502,0.0,21.212910890579224,1658202369,1431
14000,13,198.41360473632812,92286.625,1163054208.0,1162376192.0,-147.4772186279297,17.60965919494629,-76470.28125,-76643.171875,-86633.578125,14000,902313.25,931424.8125,-4907479.5,-5056821.5,-20807492.0,-21402930.0,-4161498.5,-4280586.0,-4564999.5,-4690165.5,-4564999.5,-4690165.5,0.0,0.0,1.4778492450714111,19.934378623962402,0.0,21.412227869033813,1658202391,1452
15000,14,180.7509307861328,105534.296875,1058707648.0,1059627840.0,-103.7057876586914,21.59967613220215,-88501.0703125,-88450.53125,-99161.671875,15000,974046.75,1001610.125,-5308221.0,-5446635.5,-22407216.0,-22880592.0,-4481443.0,-4576118.5,-4904631.5,-5022880.0,-4904631.5,-5022879.5,0.0,0.0,1.5525965690612793,19.876912593841553,0.0,21.429509162902832,1658202412,1474
16000,15,166.95660400390625,116683.828125,1421598976.0,1414662400.0,-64.87860107421875,25.8156795501709,-98875.6015625,-98815.7734375,-112685.25,16000,1028875.375,1057997.75,-5619098.5,-5770424.0,-23676900.0,-24257220.0,-4735380.0,-4851444.0,-5193159.5,-5309569.5,-5193159.5,-5309569.5,0.0,0.0,1.510237216949463,19.94464135169983,0.0,21.454878568649292,1658202433,1495
17000,16,154.10781860351562,119555.1640625,1261570560.0,1263279232.0,-24.189865112304688,30.062522888183594,-101061.9140625,-100794.828125,-114075.234375,17000,1096119.0,1124855.0,-5964323.0,-6113761.5,-25102220.0,-25695264.0,-5020444.0,-5139053.0,-5515337.5,-5635981.0,-5515337.0,-5635981.5,0.0,0.0,1.5107460021972656,19.91738486289978,0.0,21.428130865097046,1658202455,1516
18000,17,153.34869384765625,129994.59375,1525124864.0,1521150848.0,-22.337390899658203,33.73096466064453,-109408.640625,-109416.625,-122639.296875,18000,1158151.5,1186603.0,-6309289.5,-6456464.0,-26588484.0,-27142942.0,-5317697.0,-5428588.5,-5825024.5,-5961889.5,-5825024.0,-5961889.5,0.0,0.0,1.540342092514038,19.8808331489563,0.0,21.421175241470337,1658202476,1538
19000,18,152.00436401367188,138890.8125,2413564928.0,2418337536.0,-18.047151565551758,36.828731536865234,-116960.1484375,-116934.609375,-133549.53125,19000,1222045.625,1250380.25,-6651482.5,-6793809.5,-28054664.0,-28592496.0,-5610933.0,-5718499.0,-6146981.5,-6287563.0,-6146981.5,-6287563.5,0.0,0.0,1.5510473251342773,19.79886245727539,0.0009982585906982422,21.350908041000366,1658202498,1559
20000,19,145.50393676757812,144401.90625,1846870016.0,1847056640.0,5.504976272583008,39.63267517089844,-121652.8046875,-121697.265625,-138677.3125,20000,1277622.5,1309298.0,-6980598.5,-7130064.0,-29406916.0,-30019924.0,-5881383.0,-6003985.0,-6446784.5,-6590877.0,-6446784.0,-6590877.0,0.0,0.0,0.120986145322276,10.0,1.4403553009033203,19.818360805511475,0.07579803466796875,21.334514141082764,1658202519,1581
21000,20,150.82041931152344,157143.34375,1627290112.0,1642676736.0,-14.224626541137695,41.40148162841797,-132446.4375,-132278.46875,-148081.34375,21000,1350157.0,1380898.125,-7342137.5,-7490385.5,-30739316.0,-31246370.0,-6147863.0,-6249274.0,-6775664.0,-6924999.5,-6775664.0,-6924999.5,0.0,0.0,1.4367530345916748,19.72067880630493,0.0,21.157431840896606,1658202540,1602
22000,21,150.27749633789062,170404.90625,2451765760.0,2439287552.0,-12.4625825881958,44.81155776977539,-142954.5,-143096.84375,-161936.359375,22000,1420552.5,1450836.625,-7718712.0,-7890133.5,-32149738.0,-32959950.0,-6429947.5,-6591990.0,-7127729.0,-7276189.0,-7127729.5,-7276190.5,0.0,0.0,1.3860278129577637,19.793118000030518,0.0,21.17914581298828,1658202561,1623
23000,22,154.55038452148438,190406.984375,2006961152.0,2000656640.0,-29.106380462646484,47.22641372680664,-159916.984375,-160010.71875,-178929.96875,23000,1473276.375,1506217.5,-8054797.5,-8224531.5,-33572432.0,-34314480.0,-6714486.0,-6862896.0,-7461094.5,-7613293.0,-7461094.5,-7613293.0,0.0,0.0,1.466259241104126,19.843984842300415,0.0,21.31024408340454,1658202583,1644
24000,23,155.3824005126953,204988.5,2418398208.0,2410729472.0,-32.76026153564453,49.810001373291016,-173077.09375,-173216.03125,-191380.625,24000,1559237.25,1594719.25,-8454222.0,-8625677.0,-35108176.0,-35769156.0,-7021635.0,-7153831.0,-7787448.0,-7939015.5,-7787441.5,-7939014.5,0.0,0.0,1.4734079837799072,20.921442985534668,0.0,22.394850969314575,1658202605,1667
25000,24,145.43556213378906,185338.28125,3461702400.0,3443092736.0,6.122871398925781,50.088687896728516,-158797.28125,-158901.078125,-178554.53125,25000,1633319.25,1667943.0,-8784733.0,-8966791.0,-36572072.0,-37300304.0,-7314414.0,-7460061.0,-7987784.0,-8129590.5,-7987779.5,-8129598.5,0.0,0.0,1.4711291790008545,19.913516521453857,0.0,21.384645700454712,1658202626,1688
26000,25,148.66015625,214408.46875,6505456128.0,6477494272.0,-6.604439735412598,53.41887664794922,-181029.0625,-180755.546875,-197843.34375,26000,1667592.625,1700173.75,-9109660.0,-9288903.0,-38020596.0,-38797992.0,-7604119.0,-7759598.0,-8380250.5,-8538807.0,-8380254.5,-8538799.0,0.0,0.0,1.4927113056182861,19.884376525878906,0.0,21.377087831497192,1658202648,1710
27000,26,147.08177185058594,226604.78125,3299894784.0,3295965696.0,-0.3289806842803955,55.86290740966797,-191228.671875,-191376.84375,-222511.375,27000,1738830.75,1778152.5,-9470585.0,-9666253.0,-39477264.0,-40221336.0,-7895453.0,-8044267.0,-8676239.0,-8849561.0,-8676238.0,-8849553.0,0.0,0.0,1.6110544204711914,19.877965450286865,0.0,21.489019870758057,1658202669,1731
28000,27,143.760009765625,218138.4375,4251838208.0,4251805184.0,13.09792709350586,56.97306823730469,-185175.484375,-185220.125,-209156.3125,28000,1799666.0,1841368.125,-9784312.0,-10004195.0,-40648280.0,-41564488.0,-8129656.0,-8312898.0,-8946949.0,-9128018.0,-8946936.0,-9128016.0,0.0,0.0,1.5612401962280273,19.842936992645264,0.0,21.40417718887329,1658202691,1752
29000,28,152.49191284179688,242843.734375,4849080832.0,4869648384.0,-22.33718490600586,58.39781188964844,-206007.984375,-205926.25,-231103.515625,29000,1871347.375,1911575.75,-10172394.0,-10381687.0,-42147568.0,-43082408.0,-8429514.0,-8616482.0,-9260004.0,-9444006.0,-9260005.0,-9444010.0,0.0,0.0,1.5189383029937744,19.839966297149658,0.0,21.358904600143433,1658202712,1774
30000,29,148.54168701171875,239292.3125,5952215040.0,5972852736.0,-6.3102240562438965,59.9245491027832,-202641.65625,-202666.140625,-229902.71875,30000,1924264.375,1966422.75,-10441440.0,-10655092.0,-43359896.0,-44257576.0,-8671979.0,-8851515.0,-9548033.0,-9732710.0,-9548027.0,-9732713.0,0.0,0.0,0.13868528250330056,10.0,1.502450942993164,19.843186855316162,0.08477306365966797,21.430410861968994,1658202734,1795
31000,30,147.81695556640625,249248.3125,6482968576.0,6496726016.0,-3.3745059967041016,62.21022033691406,-211757.421875,-211866.53125,-233993.0,31000,1990074.125,2030482.0,-10785227.0,-11008819.0,-44673424.0,-45748104.0,-8934685.0,-9149621.0,-9849489.0,-10039616.0,-9849496.0,-10039612.0,0.0,0.0,1.5848588943481445,19.833797931671143,0.0,21.418656826019287,1658202755,1817
32000,31,144.6566162109375,260902.953125,5644327424.0,5651488768.0,9.759024620056152,64.36063385009766,-221456.15625,-221398.65625,-253315.046875,32000,2069632.75,2114162.0,-11167661.0,-11387240.0,-46218360.0,-46968196.0,-9243672.0,-9393639.0,-10145776.0,-10335227.0,-10145775.0,-10335231.0,0.0,0.0,1.5456914901733398,19.8353111743927,0.0,21.38100266456604,1658202776,1838
33000,32,147.9774169921875,263283.65625,5758679040.0,5769745408.0,-4.088245868682861,65.54058837890625,-224547.4375,-224500.6875,-253727.21875,33000,2134214.5,2177604.5,-11580896.0,-11808867.0,-48041520.0,-48930512.0,-9608304.0,-9786102.0,-10511703.0,-10713278.0,-10511695.0,-10713274.0,0.0,0.0,1.4581375122070312,19.721704483032227,0.0,21.179841995239258,1658202798,1859
34000,33,145.97677612304688,258171.0625,5781548032.0,5793952256.0,4.3024373054504395,67.00489807128906,-220416.265625,-220088.40625,-254815.234375,34000,2200278.25,2245349.5,-11956154.0,-12185209.0,-49444836.0,-50410996.0,-9888967.0,-10082199.0,-10823079.0,-11034530.0,-10823073.0,-11034542.0,0.0,0.0,1.3970191478729248,19.7574942111969,0.0,21.154513359069824,1658202819,1880
35000,34,147.24996948242188,285333.625,7204478976.0,7233625088.0,-1.0593841075897217,69.27304077148438,-243119.546875,-242635.9375,-267280.1875,35000,2237588.0,2284157.0,-12226128.0,-12467360.0,-50821836.0,-51727728.0,-10164367.0,-10345546.0,-11133234.0,-11349681.0,-11133219.0,-11349679.0,0.0,0.0,1.4120509624481201,19.83139419555664,0.0,21.24344515800476,1658202840,1902
36000,35,144.10084533691406,282667.1875,6764449280.0,6741531136.0,12.342991828918457,70.6288833618164,-241410.8125,-241570.53125,-275226.625,36000,2333136.0,2388660.0,-12612293.0,-12879090.0,-52155156.0,-53028980.0,-10431031.0,-10605796.0,-11459699.0,-11685587.0,-11459700.0,-11685584.0,0.0,0.0,1.4007673263549805,19.82430124282837,0.0,21.22506856918335,1658202861,1923
37000,36,149.42318725585938,298696.375,9017539584.0,9074191360.0,-10.328721046447754,70.98261260986328,-255999.75,-255952.71875,-290511.25,37000,2394828.5,2443529.25,-12955576.0,-13205671.0,-53289680.0,-54322512.0,-10657936.0,-10864502.0,-11676847.0,-11898101.0,-11676837.0,-11898096.0,0.0,0.0,1.4094758033752441,19.891063451766968,0.0,21.300539255142212,1658202883,1944
38000,37,148.6801300048828,302871.3125,7252715520.0,7182620672.0,-7.198513031005859,72.56546783447266,-260116.9375,-260453.984375,-293048.6875,38000,2435651.5,2492346.5,-13238427.0,-13510423.0,-54752248.0,-55726792.0,-10950450.0,-11145358.0,-12002469.0,-12237325.0,-12002464.0,-12237317.0,0.0,0.0,1.3856596946716309,19.890992164611816,0.0,21.276651859283447,1658202904,1966
39000,38,145.5953826904297,293328.0625,9761831936.0,9764005888.0,6.116018295288086,77.80592346191406,-247724.03125,-247552.125,-270888.09375,39000,2529333.75,2577110.5,-13655651.0,-13904269.0,-56247008.0,-57171568.0,-11249402.0,-11434314.0,-12357685.0,-12596248.0,-12357680.0,-12596250.0,0.0,0.0,1.4988019466400146,19.83262014389038,0.0,21.331422090530396,1658202925,1987
40000,39,147.5628662109375,301727.9375,14353651712.0,14293775360.0,-2.4580163955688477,78.80754089355469,-256345.875,-256104.25,-280933.75,40000,2581290.0,2632617.75,-13959784.0,-14206631.0,-57393540.0,-58292160.0,-11478708.0,-11658432.0,-12611106.0,-12837619.0,-12611110.0,-12837637.0,0.0,0.0,0.07094276383985931,10.0,1.542123556137085,19.82716655731201,0.08479833602905273,21.45408844947815,1658202947,2008
41000,40,148.95953369140625,310331.625,11388851200.0,11458408448.0,-8.592442512512207,80.2322769165039,-264529.125,-264371.5,-301676.9375,41000,2641337.5,2690681.0,-14295970.0,-14557954.0,-58836832.0,-59740392.0,-11767366.0,-11948078.0,-12865138.0,-13106520.0,-12865122.0,-13106525.0,0.0,0.0,1.5992474555969238,19.879436254501343,0.0,21.478683710098267,1658202968,2030
42000,41,146.50469970703125,331281.75,9176766464.0,9112863744.0,2.1874709129333496,82.80628204345703,-282413.0,-282941.9375,-319764.4375,42000,2719542.5,2767235.0,-14725581.0,-14987687.0,-60495872.0,-61620844.0,-12099174.0,-12324169.0,-13200900.0,-13456565.0,-13200859.0,-13456557.0,0.0,0.0,1.5501148700714111,19.910159826278687,0.0,21.460274696350098,1658202990,2051
43000,42,150.34103393554688,339608.21875,11676211200.0,11698216960.0,-14.763055801391602,82.98826599121094,-290195.6875,-290571.21875,-327341.5,43000,2785863.75,2839041.0,-15063411.0,-15322544.0,-61713276.0,-62583860.0,-12342655.0,-12516772.0,-13444723.0,-13706738.0,-13444730.0,-13706739.0,0.0,0.0,1.5253474712371826,19.913307905197144,0.0,21.438655376434326,1658203011,2073
44000,43,149.74266052246094,322243.625,10697172992.0,10657736704.0,-12.181156158447266,84.89132690429688,-274846.59375,-274881.9375,-309512.65625,44000,2846139.75,2894751.5,-15334114.0,-15617615.0,-63078740.0,-64196064.0,-12615748.0,-12839213.0,-13661563.0,-13932709.0,-13661567.0,-13932688.0,0.0,0.0,1.4952237606048584,19.99052095413208,0.0,21.48574471473694,1658203033,2094
45000,44,144.57888793945312,296217.5625,7487479808.0,7465225728.0,10.798805236816406,86.51032257080078,-251194.9375,-250922.34375,-285603.5625,45000,2924503.25,2983319.25,-15619165.0,-15910621.0,-63901120.0,-65017808.0,-12780224.0,-13003562.0,-13901347.0,-14172776.0,-13901360.0,-14172768.0,0.0,0.0,1.4913725852966309,19.930877208709717,0.0,21.422249794006348,1658203054,2116
46000,45,148.50489807128906,322828.59375,13194843136.0,13086316544.0,-6.785234451293945,90.81000518798828,-272405.375,-272400.25,-306737.625,46000,2974843.0,3029990.5,-15938851.0,-16237546.0,-65411964.0,-66600104.0,-13082393.0,-13320021.0,-14273283.0,-14560823.0,-14273264.0,-14560835.0,0.0,0.0,1.4702808856964111,19.943750381469727,0.0,21.414031267166138,1658203076,2137
47000,46,146.60650634765625,328560.25,11899235328.0,11906617344.0,1.7811594009399414,92.44149780273438,-279421.28125,-279381.0625,-315881.4375,47000,3071304.0,3127141.5,-16416096.0,-16717738.0,-66943816.0,-68189072.0,-13388763.0,-13637815.0,-14556651.0,-14853533.0,-14556655.0,-14853507.0,0.0,0.0,1.5995185375213623,19.885629415512085,0.0,21.485147953033447,1658203097,2159
48000,47,143.49703979492188,323560.65625,11951243264.0,11935310848.0,15.952281951904297,95.00652313232422,-274762.5625,-274629.1875,-316687.375,48000,3121885.5,3182312.0,-16673423.0,-17000622.0,-67644008.0,-69177888.0,-13528802.0,-13835577.0,-14734293.0,-15012184.0,-14734299.0,-15012165.0,0.0,0.0,1.385526180267334,19.788926601409912,0.0,21.174452781677246,1658203118,2180
49000,48,142.9568328857422,317750.75,4887758848.0,4864349184.0,18.494495391845703,96.95661163330078,-271113.6875,-271621.09375,-309724.375,49000,3206768.0,3259921.5,-17096822.0,-17378598.0,-69695912.0,-70730744.0,-13939182.0,-14146149.0,-15095699.0,-15384874.0,-15095699.0,-15384880.0,0.0,0.0,1.4129741191864014,19.736096620559692,0.0,21.149070739746094,1658203139,2201
50000,49,151.65472412109375,361812.375,8150623232.0,8121011200.0,-21.497276306152344,101.33018493652344,-305610.9375,-305926.5,-345792.34375,50000,3256995.5,3322788.0,-17489252.0,-17789966.0,-71360496.0,-72527920.0,-14272100.0,-14505584.0,-15572402.0,-15869787.0,-15572403.0,-15869781.0,0.0,0.0,0.37730086524436696,10.0,1.4150733947753906,19.81572151184082,0.07679104804992676,21.307585954666138,1658203161,2222
51000,50,142.32933044433594,348109.75,9797805056.0,9738124288.0,21.627044677734375,102.55573272705078,-294771.8125,-294709.375,-336027.1875,51000,3334243.25,3397373.0,-17823564.0,-18128488.0,-72601688.0,-73713848.0,-14520338.0,-14742770.0,-15788024.0,-16088557.0,-15788007.0,-16088589.0,0.0,0.0,1.4528944492340088,19.81574511528015,0.0,21.26863956451416,1658203182,2244
52000,51,147.4481964111328,357923.625,13767176192.0,13847949312.0,-2.0916028022766113,106.34864044189453,-302696.09375,-302222.96875,-336600.9375,52000,3340101.25,3402392.5,-18093134.0,-18397560.0,-74238760.0,-75339912.0,-14847752.0,-15067982.0,-16132477.0,-16413027.0,-16132458.0,-16413011.0,0.0,0.0,1.5023539066314697,19.807018280029297,0.0,21.309372186660767,1658203203,2265
53000,52,144.9122314453125,372031.03125,14715785216.0,14779013120.0,9.787818908691406,108.65519714355469,-314996.375,-314427.0625,-362409.8125,53000,3465698.5,3531641.5,-18607524.0,-18920078.0,-75842416.0,-77271288.0,-15168483.0,-15454258.0,-16486543.0,-16793860.0,-16486551.0,-16793870.0,0.0,0.0,1.6171257495880127,20.085953950881958,0.0,21.70307970046997,1658203225,2287
54000,53,151.755615234375,412851.25,16170975232.0,16131817472.0,-22.374401092529297,110.48057556152344,-351135.375,-351326.03125,-394529.6875,54000,3524644.0,3586868.5,-18974878.0,-19299896.0,-77339312.0,-78562864.0,-15467862.0,-15712573.0,-16790644.0,-17091894.0,-16790632.0,-17091904.0,0.0,0.0,1.607558250427246,19.94698166847229,0.0,21.554539918899536,1658203247,2308
55000,54,149.7416534423828,412959.6875,14257626112.0,14186706944.0,-12.988506317138672,114.146484375,-349762.5625,-349670.34375,-398170.375,55000,3583464.5,3646896.0,-19239478.0,-19555094.0,-78432608.0,-79734016.0,-15686521.0,-15946804.0,-17091354.0,-17391376.0,-17091360.0,-17391358.0,0.0,0.0,1.5431208610534668,19.966814041137695,0.0,21.509934902191162,1658203268,2330
56000,55,147.44039916992188,402529.75,16515792896.0,16525394944.0,-2.098254442214966,117.27863311767578,-338014.28125,-338067.875,-379846.375,56000,3681149.5,3750603.0,-19744496.0,-20084468.0,-80208960.0,-81612272.0,-16041792.0,-16322455.0,-17393024.0,-17716180.0,-17393038.0,-17716172.0,0.0,0.0,1.4870109558105469,19.88162326812744,0.0,21.36863422393799,1658203289,2351
57000,56,144.52960205078125,417890.9375,14314311680.0,14261248000.0,11.859045028686523,121.56340789794922,-352592.1875,-352792.4375,-401929.0,57000,3751400.25,3821087.5,-20062868.0,-20436414.0,-81496984.0,-83198976.0,-16299397.0,-16639795.0,-17760264.0,-18092798.0,-17760288.0,-18092772.0,0.0,0.0,1.5306730270385742,19.88653826713562,0.0,21.417211294174194,1658203311,2373
58000,57,149.99676513671875,451285.75,20600760320.0,20444542976.0,-14.45391845703125,124.35769653320312,-382785.9375,-382699.28125,-435464.125,58000,3880945.25,3953082.5,-20642644.0,-20994212.0,-83656992.0,-84673104.0,-16731399.0,-16934620.0,-18139204.0,-18489810.0,-18139162.0,-18489814.0,0.0,0.0,1.4723625183105469,19.744956970214844,0.0,21.21731948852539,1658203332,2394
59000,58,146.9627685546875,460861.96875,21144952832.0,21288482816.0,0.17963504791259766,124.61121368408203,-392751.9375,-392107.0625,-436256.1875,59000,3902738.5,3970598.25,-20897242.0,-21233806.0,-84563768.0,-85860872.0,-16912754.0,-17172174.0,-18378082.0,-18744470.0,-18378084.0,-18744478.0,0.0,0.0,1.4580836296081543,19.878631830215454,0.0,21.33671545982361,1658203354,2415
60000,59,145.5626220703125,456783.375,14237562880.0,14275311616.0,6.947469234466553,125.64295196533203,-388765.6875,-388686.0625,-449575.625,60000,4016551.5,4073639.0,-21343984.0,-21682810.0,-85728800.0,-87538576.0,-17145760.0,-17507716.0,-18587952.0,-18946510.0,-18587966.0,-18946494.0,0.0,0.0,0.11338007306896003,10.0,1.4535212516784668,19.948524951934814,0.08084654808044434,21.482892751693726,1658203375,2437
61000,60,146.15855407714844,463457.75,26487128064.0,26585583616.0,4.0942063331604,129.7574920654297,-391411.625,-391056.625,-450202.4375,61000,4056082.5,4130875.5,-21666006.0,-22045558.0,-87599880.0,-89406280.0,-17519976.0,-17881256.0,-19007044.0,-19401806.0,-19007056.0,-19401790.0,0.0,0.0,1.4545562267303467,19.940544843673706,0.0,21.395101070404053,1658203396,2458
62000,61,146.9429931640625,487850.0625,25156272128.0,25144406016.0,0.2789754867553711,133.3718719482422,-413911.375,-413863.9375,-469150.875,62000,4121089.5,4201987.0,-22002318.0,-22422694.0,-88827936.0,-90675400.0,-17765588.0,-18135080.0,-19207162.0,-19574724.0,-19207174.0,-19574744.0,0.0,0.0,1.3786306381225586,19.94754648208618,0.0,21.32617712020874,1658203418,2479
63000,62,146.36004638671875,493992.25,34590781440.0,34429337600.0,3.128516674041748,132.77920532226562,-419783.34375,-419584.1875,-465566.9375,63000,4200453.0,4263693.0,-22411748.0,-22776202.0,-90034464.0,-91663880.0,-18006892.0,-18332776.0,-19552132.0,-19944438.0,-19552138.0,-19944406.0,0.0,0.0,1.4163267612457275,19.968154191970825,0.0,21.384480953216553,1658203439,2501
64000,63,147.23060607910156,512253.0,26374606848.0,26335535104.0,-1.1335794925689697,136.40260314941406,-433360.4375,-432487.5,-488222.3125,64000,4263885.0,4321306.5,-22802462.0,-23149960.0,-91777440.0,-93509920.0,-18355488.0,-18701984.0,-19912974.0,-20308736.0,-19912990.0,-20308752.0,0.0,0.0,1.5326128005981445,19.95891833305359,0.0,21.491531133651733,1658203461,2522
65000,64,147.64508056640625,505049.71875,17191792640.0,17248684032.0,-3.165553092956543,135.2576904296875,-431257.625,-431461.5625,-486347.9375,65000,4383262.0,4461936.0,-23266772.0,-23626246.0,-93363720.0,-94834240.0,-18672744.0,-18966848.0,-20181534.0,-20574730.0,-20181536.0,-20574730.0,0.0,0.0,1.5343480110168457,19.951960802078247,0.0,21.486308813095093,1658203482,2544
66000,65,148.91864013671875,520062.8125,32079575040.0,32042952704.0,-9.453195571899414,137.97369384765625,-442098.375,-442114.4375,-497053.5625,66000,4430331.0,4496007.5,-23435940.0,-23779594.0,-94262336.0,-95381720.0,-18852468.0,-19076344.0,-20467266.0,-20844234.0,-20467248.0,-20844222.0,0.0,0.0,1.5778603553771973,19.974897384643555,0.0,21.552757740020752,1658203504,2565
67000,66,148.7655029296875,555330.375,17885945856.0,17888399360.0,-8.753474235534668,142.321533203125,-470339.1875,-470590.4375,-542331.5,67000,4486556.5,4547338.5,-23954846.0,-24251744.0,-96450632.0,-97485024.0,-19290126.0,-19497004.0,-20966176.0,-21368896.0,-20966154.0,-21368864.0,0.0,0.0,1.4773523807525635,19.804566383361816,0.0,21.28191876411438,1658203525,2587
68000,67,146.94854736328125,549295.625,23832324096.0,23697573888.0,0.2562751770019531,145.69569396972656,-466535.96875,-467473.0,-528853.375,68000,4613346.5,4662108.5,-24499636.0,-24783568.0,-97947776.0,-99393280.0,-19589556.0,-19878656.0,-21278374.0,-21686072.0,-21278374.0,-21686070.0,0.0,0.0,1.4797472953796387,19.73089075088501,0.0,21.21063804626465,1658203546,2608
69000,68,151.71578979492188,568739.0,35490701312.0,35608236032.0,-23.515857696533203,146.44207763671875,-482987.75,-483674.5,-543607.8125,69000,4642147.5,4713789.5,-24810736.0,-25180132.0,-99937984.0,-101844576.0,-19987596.0,-20368916.0,-21695814.0,-22122790.0,-21695822.0,-22122752.0,0.0,0.0,1.567594289779663,19.940463542938232,0.0,21.508057832717896,1658203568,2629
70000,69,147.4568634033203,542351.25,30840684544.0,30853857280.0,-2.287158966064453,149.3396453857422,-462054.4375,-462088.25,-526569.375,70000,4744423.5,4813596.0,-25180948.0,-25573948.0,-100940304.0,-102682720.0,-20188060.0,-20536544.0,-21894392.0,-22321602.0,-21894418.0,-22321630.0,0.0,0.0,0.10669215687277497,10.0,1.430262565612793,19.914772510528564,0.07880616188049316,21.42384123802185,1658203589,2651
71000,70,144.9075164794922,556566.125,38744907776.0,38763986944.0,10.48501968383789,150.0244598388672,-477338.5,-477445.53125,-543951.25,71000,4819099.0,4890972.5,-25554662.0,-25933768.0,-102329272.0,-103810072.0,-20465854.0,-20762014.0,-22122218.0,-22555578.0,-22122210.0,-22555574.0,0.0,0.0,1.4884142875671387,19.85994052886963,0.0,21.348354816436768,1658203611,2672
72000,71,148.44346618652344,563657.3125,42313003008.0,42381623296.0,-7.241281986236572,150.8968963623047,-479800.375,-480096.5,-555775.6875,72000,4897497.5,4964834.0,-25908450.0,-26297134.0,-103397920.0,-105351872.0,-20679584.0,-21070374.0,-22381638.0,-22802438.0,-22381646.0,-22802414.0,0.0,0.0,1.4106957912445068,19.84031629562378,0.0,21.251012086868286,1658203632,2693
73000,72,149.2081298828125,571480.375,49072234496.0,49004486656.0,-11.137080192565918,155.0351104736328,-483389.5,-483455.65625,-526120.375,73000,4989801.0,5057503.5,-26369492.0,-26759124.0,-105075400.0,-106830432.0,-21015080.0,-21366086.0,-22824208.0,-23269110.0,-22824200.0,-23269082.0,0.0,0.0,1.4497945308685303,19.963828325271606,0.0,21.413622856140137,1658203653,2715
74000,73,143.8580322265625,581818.5,30224281600.0,30291331072.0,15.914713859558105,158.41299438476562,-494813.84375,-494788.46875,-562069.5,74000,5049380.5,5105163.0,-26795232.0,-27114868.0,-107315376.0,-108869264.0,-21463076.0,-21773852.0,-23195632.0,-23662990.0,-23195654.0,-23663018.0,0.0,0.0,1.483543872833252,19.957542419433594,0.0,21.441086292266846,1658203675,2736
75000,74,148.67442321777344,612564.25,35976204288.0,35915517952.0,-8.49109172821045,159.33822631835938,-520352.0,-520386.96875,-581209.0,75000,5131290.0,5212778.0,-27173380.0,-27655038.0,-108701480.0,-110756712.0,-21740296.0,-22151342.0,-23440082.0,-23876332.0,-23440078.0,-23876352.0,0.0,0.0,1.3795278072357178,20.14643144607544,0.0,21.525959253311157,1658203696,2758
76000,75,151.6504669189453,638228.75,40265768960.0,40254828544.0,-23.726520538330078,164.34490966796875,-540774.125,-541233.8125,-621286.0625,76000,5197228.0,5285414.0,-27596448.0,-28022240.0,-110138088.0,-111577504.0,-22027618.0,-22315500.0,-23807728.0,-24268192.0,-23807736.0,-24268190.0,0.0,0.0,1.5441689491271973,19.926318645477295,0.0,21.470487594604492,1658203718,2779
77000,76,149.48574829101562,657550.625,58136936448.0,57698668544.0,-12.695954322814941,165.25892639160156,-563970.3125,-563925.75,-614428.625,77000,5295321.0,5368644.0,-28074304.0,-28485860.0,-111670360.0,-113534600.0,-22334072.0,-22706920.0,-24180526.0,-24628886.0,-24180502.0,-24628864.0,0.0,0.0,1.523200511932373,19.864484310150146,0.0,21.38768482208252,1658203739,2801
78000,77,148.01034545898438,617695.75,26686697472.0,26571544576.0,-5.163742542266846,165.81027221679688,-525798.3125,-526540.1875,-589920.0,78000,5368616.0,5428743.0,-28411684.0,-28808970.0,-113130768.0,-115109368.0,-22626154.0,-23021874.0,-24343604.0,-24772654.0,-24343604.0,-24772666.0,0.0,0.0,1.4733684062957764,19.885710954666138,0.0,21.359079360961914,1658203761,2822
79000,78,146.12942504882812,605836.875,18968956928.0,18942769152.0,4.457021713256836,167.26123046875,-515631.8125,-515576.875,-582065.5,79000,5412627.5,5495702.0,-28636110.0,-29081396.0,-113778552.0,-115367720.0,-22755710.0,-23073544.0,-24486278.0,-24919968.0,-24486308.0,-24919978.0,0.0,0.0,1.628227710723877,19.924964427947998,0.0,21.553192138671875,1658203782,2844
80000,79,148.62075805664062,619413.0625,24925562880.0,24745494528.0,-8.313699722290039,168.9313201904297,-530220.4375,-530077.5,-594601.75,80000,5517340.0,5592345.0,-29140134.0,-29515034.0,-116108032.0,-117780968.0,-23221606.0,-23556194.0,-24914162.0,-25361776.0,-24914126.0,-25361758.0,0.0,0.0,0.0,10.0,1.426039218902588,19.84976291656494,0.08530926704406738,21.361111402511597,1658203803,2865
81000,80,153.38363647460938,621894.125,37623537664.0,37530296320.0,-32.74557113647461,168.94993591308594,-530188.9375,-530679.9375,-600624.875,81000,5591685.0,5637189.5,-29461054.0,-29772246.0,-116345520.0,-118063800.0,-23269104.0,-23612760.0,-25072992.0,-25515712.0,-25072986.0,-25515696.0,0.0,0.0,1.5372233390808105,19.88481903076172,0.0,21.42204236984253,1658203825,2887
82000,81,149.240966796875,621000.5,26982543360.0,26942771200.0,-11.52938461303711,171.5421142578125,-527630.5,-527604.75,-590344.0,82000,5603601.5,5678635.0,-29642510.0,-30043738.0,-118269488.0,-119459000.0,-23653898.0,-23891800.0,-25375750.0,-25821348.0,-25375726.0,-25821326.0,0.0,0.0,1.5381755828857422,19.85707449913025,0.0,21.39525008201599,1658203846,2908
83000,82,147.7174072265625,628841.875,43746975744.0,43566129152.0,-3.7015557289123535,174.11195373535156,-534665.25,-534772.0,-613475.4375,83000,5727631.5,5814344.0,-30223424.0,-30616224.0,-120180544.0,-121587072.0,-24036108.0,-24317414.0,-25827086.0,-26296516.0,-25827102.0,-26296484.0,0.0,0.0,1.4006681442260742,19.930006504058838,0.0,21.330674648284912,1658203868,2929
84000,83,146.84799194335938,671971.25,30036539392.0,30098272256.0,0.788844108581543,179.42132568359375,-569393.1875,-569536.0,-631684.5,84000,5747566.0,5847678.0,-30396756.0,-30847534.0,-120877824.0,-122871984.0,-24175564.0,-24574396.0,-26112554.0,-26571742.0,-26112570.0,-26571740.0,0.0,0.0,1.4867496490478516,19.934811115264893,0.0,21.421560764312744,1658203889,2951
85000,84,150.52780151367188,650700.6875,52688760832.0,52676042752.0,-18.34439468383789,181.25872802734375,-550037.75,-550247.75,-610743.875,85000,5916887.5,5998715.0,-31023706.0,-31445428.0,-122228656.0,-124141616.0,-24445732.0,-24828324.0,-26327334.0,-26812112.0,-26327318.0,-26812102.0,0.0,0.0,1.4159507751464844,19.873106956481934,0.0,21.289057731628418,1658203910,2972
86000,85,142.1259765625,652545.375,29279281152.0,28977672192.0,25.445409774780273,185.04759216308594,-554306.625,-554768.625,-634833.3125,86000,5900052.0,5991012.5,-31176294.0,-31616228.0,-124001856.0,-125049032.0,-24800372.0,-25009806.0,-26569750.0,-27048574.0,-26569734.0,-27048576.0,0.0,0.0,1.403548240661621,19.809852838516235,0.0,21.213401079177856,1658203932,2993
87000,86,143.26171875,648376.875,33109680128.0,32842684416.0,19.579660415649414,188.22149658203125,-546277.875,-545844.0625,-625163.1875,87000,6077634.0,6164609.0,-31782134.0,-32237574.0,-126002176.0,-127708408.0,-25200436.0,-25541682.0,-27104678.0,-27618502.0,-27104660.0,-27618484.0,0.0,0.0,1.4271926879882812,19.804845809936523,0.0,21.232038497924805,1658203953,3014
88000,87,148.66864013671875,703506.0625,40753127424.0,40814600192.0,-8.74665641784668,189.01368713378906,-596183.3125,-596564.5,-671055.5,88000,6081565.5,6173700.0,-32118266.0,-32585428.0,-127883360.0,-129691744.0,-25576672.0,-25938348.0,-27521360.0,-28056326.0,-27521358.0,-28056294.0,0.0,0.0,1.4318389892578125,19.7642080783844,0.0,21.196047067642212,1658203974,3036
89000,88,141.69329833984375,698874.875,26992234496.0,26888642560.0,27.94629669189453,193.6832275390625,-592554.0,-592962.3125,-671268.75,89000,6217362.0,6336439.0,-32442176.0,-32983540.0,-128026720.0,-129805600.0,-25605344.0,-25961120.0,-27695910.0,-28177702.0,-27695904.0,-28177696.0,0.0,0.0,1.492142915725708,19.87797474861145,0.0,21.370117664337158,1658203995,3057
90000,89,148.673828125,674824.3125,54907346944.0,54889259008.0,-8.793479919433594,191.2427215576172,-576317.25,-576101.9375,-652420.5,90000,6316010.0,6430942.5,-32893418.0,-33426624.0,-129648352.0,-131633768.0,-25929670.0,-26326754.0,-27883136.0,-28389146.0,-27883120.0,-28389082.0,0.0,0.0,0.1305584281289461,10.0,1.5017352104187012,19.69859027862549,0.08776545524597168,21.28809094429016,1658204017,3078
91000,90,143.00686645507812,665467.375,47333974016.0,47221874688.0,21.066692352294922,195.53488159179688,-564293.5,-563779.125,-635288.0,91000,6412377.0,6516151.5,-33424046.0,-33943984.0,-131442288.0,-133690888.0,-26288458.0,-26738178.0,-28213530.0,-28760062.0,-28213524.0,-28760070.0,0.0,0.0,1.566075325012207,19.81658434867859,0.0,21.382659673690796,1658204038,3100
92000,91,149.43783569335938,710941.8125,51780476928.0,51608055808.0,-12.907913208007812,199.30381774902344,-599120.3125,-598788.0,-693606.125,92000,6415314.0,6507845.5,-33680392.0,-34135868.0,-133658640.0,-135539184.0,-26731728.0,-27107836.0,-28752246.0,-29321968.0,-28752206.0,-29322058.0,0.0,0.0,1.5491394996643066,19.924879550933838,0.0,21.474019050598145,1658204060,3121
93000,92,155.3050537109375,789720.625,65205977088.0,65200504832.0,-44.06584167480469,201.52499389648438,-671914.75,-671959.25,-750406.4375,93000,6453364.5,6543907.0,-34159120.0,-34596732.0,-135439904.0,-136840944.0,-27087982.0,-27368188.0,-29108026.0,-29654902.0,-29108014.0,-29654934.0,0.0,0.0,1.5096545219421387,20.1736056804657,0.0,21.683260202407837,1658204081,3143
94000,93,147.93533325195312,732731.75,31701823488.0,31775635456.0,-4.98359489440918,206.059326171875,-619829.875,-619998.9375,-709016.5,94000,6599418.0,6699992.5,-34624392.0,-35131848.0,-136679632.0,-139444848.0,-27335926.0,-27888970.0,-29337392.0,-29845264.0,-29337350.0,-29845274.0,0.0,0.0,1.45090651512146,19.861791849136353,0.0,21.312698364257812,1658204103,3164
95000,94,144.97314453125,757334.375,71893737472.0,71708311552.0,10.836775779724121,209.8902587890625,-644540.75,-644453.0625,-725144.875,95000,6745887.5,6876395.0,-35129400.0,-35723068.0,-137507312.0,-139494640.0,-27501462.0,-27898928.0,-29663204.0,-30182260.0,-29663166.0,-30182286.0,0.0,0.0,1.5528841018676758,19.843382120132446,0.0,21.396266222000122,1658204124,3186
96000,95,144.28839111328125,767531.375,58933993472.0,58312441856.0,14.508892059326172,210.7532501220703,-653178.125,-653444.3125,-743748.375,96000,6805788.0,6936075.5,-35625264.0,-36191496.0,-140404816.0,-142321504.0,-28080962.0,-28464300.0,-30144558.0,-30694944.0,-30144532.0,-30694944.0,0.0,0.0,1.3810021877288818,19.730889558792114,0.0,21.111891746520996,1658204145,3207
97000,96,145.50143432617188,764310.1875,46668345344.0,46603132928.0,8.017329216003418,210.60446166992188,-651813.0,-652636.5,-743958.375,97000,6891772.0,7019390.0,-36008368.0,-36566364.0,-140946240.0,-143507184.0,-28189248.0,-28701436.0,-30412468.0,-30980212.0,-30412474.0,-30980126.0,0.0,0.0,1.387956142425537,19.854602336883545,0.0,21.242558479309082,1658204166,3228
98000,97,146.51766967773438,754466.75,59099971584.0,59103211520.0,2.584221839904785,212.22903442382812,-639721.6875,-639736.9375,-718226.6875,98000,6962666.5,7057970.0,-36414644.0,-36954048.0,-143097104.0,-145362240.0,-28619422.0,-29072448.0,-30927492.0,-31559142.0,-30927514.0,-31559136.0,0.0,0.0,1.4006648063659668,19.854609727859497,0.0,21.255274534225464,1658204188,3249
99000,98,147.09896850585938,767403.125,60520153088.0,60504133632.0,-0.531191349029541,214.24388122558594,-654402.75,-653987.3125,-756483.5,99000,7087156.0,7229332.0,-36954220.0,-37625288.0,-144860352.0,-147723552.0,-28972072.0,-29544712.0,-31178996.0,-31832868.0,-31179014.0,-31832884.0,0.0,0.0,1.3559000492095947,19.768382787704468,0.0,21.124282836914062,1658204209,3270
100000,99,148.26434326171875,789657.375,83791855616.0,83374571520.0,-6.785971164703369,214.25808715820312,-671491.875,-671213.125,-755716.375,100000,7142876.0,7257676.0,-37347084.0,-37898420.0,-145896512.0,-148199296.0,-29179302.0,-29639860.0,-31409108.0,-32051334.0,-31409120.0,-32051354.0,0.0,0.0,0.29717579566730834,10.0,1.368056297302246,19.939735412597656,0.07679557800292969,21.384587287902832,1658204230,3292
101000,100,150.95455932617188,796110.125,76911378432.0,76753993728.0,-21.29613494873047,218.15664672851562,-675562.5,-676045.0,-755697.4375,101000,7238770.0,7362970.0,-37664276.0,-38276928.0,-148157584.0,-150610368.0,-29631518.0,-30122072.0,-31731120.0,-32381630.0,-31731126.0,-32381658.0,0.0,0.0,1.4189798831939697,19.893805980682373,0.0,21.312785863876343,1658204252,3313
102000,101,148.68466186523438,853610.0,52815978496.0,52840382464.0,-9.10123348236084,221.9442596435547,-724722.5,-725757.625,-807314.6875,102000,7366439.0,7490731.5,-38345184.0,-38977648.0,-149684448.0,-151896656.0,-29936888.0,-30379330.0,-32293226.0,-32970964.0,-32293198.0,-32970992.0,0.0,0.0,1.4371650218963623,19.92928671836853,0.0,21.366451740264893,1658204273,3335
103000,102,145.32296752929688,832728.5,50115665920.0,49661722624.0,9.09990406036377,227.28369140625,-705301.5625,-705831.0,-798385.625,103000,7426583.5,7571195.0,-38759152.0,-39409760.0,-151742624.0,-153961856.0,-30348524.0,-30792372.0,-32609232.0,-33239406.0,-32609198.0,-33239382.0,0.0,0.0,1.6103384494781494,19.926945209503174,0.0,21.537283658981323,1658204295,3356
104000,103,150.8988800048828,874003.75,95817015296.0,96051150848.0,-21.210357666015625,230.4658203125,-738659.375,-739059.75,-833183.375,104000,7564727.0,7716673.5,-39280348.0,-39858772.0,-154029040.0,-155907632.0,-30805808.0,-31181526.0,-33125588.0,-33786928.0,-33125652.0,-33787008.0,0.0,0.0,1.5652477741241455,19.835214376449585,0.0,21.40046215057373,1658204316,3378
105000,104,146.2568359375,862832.625,57961639936.0,57851609088.0,4.057523727416992,235.0291748046875,-736164.625,-736376.5,-822498.75,105000,7571223.5,7723589.0,-39707188.0,-40400352.0,-155665776.0,-158776144.0,-31133154.0,-31755230.0,-33561916.0,-34288020.0,-33561856.0,-34288028.0,0.0,0.0,1.4960501194000244,19.821927785873413,0.0,21.317977905273438,1658204337,3399
106000,105,148.57131958007812,905848.375,60550504448.0,60617588736.0,-8.60275650024414,238.60891723632812,-769425.5,-768998.375,-867561.5,106000,7772485.0,7935913.0,-40369784.0,-41039672.0,-157423376.0,-160112624.0,-31484676.0,-32022524.0,-33908172.0,-34640328.0,-33908216.0,-34640352.0,0.0,0.0,1.47757887840271,19.93890881538391,0.0,21.41648769378662,1658204359,3420
107000,106,148.57040405273438,900111.875,80853680128.0,80456122368.0,-8.645612716674805,245.99893188476562,-759421.0,-758181.875,-868451.75,107000,7829084.0,7977706.0,-40768360.0,-41472968.0,-159649152.0,-162400224.0,-31929832.0,-32480046.0,-34462100.0,-35198024.0,-34462100.0,-35198044.0,0.0,0.0,1.4437365531921387,19.963454246520996,0.0,21.407190799713135,1658204380,3442
108000,107,150.62562561035156,938748.75,85895897088.0,85997920256.0,-20.005393981933594,249.08033752441406,-795949.875,-796540.625,-914684.375,108000,7944468.0,8092601.5,-41412764.0,-42160648.0,-162356864.0,-165049216.0,-32471372.0,-33009844.0,-35043540.0,-35809764.0,-35043520.0,-35809792.0,0.0,0.0,1.4064581394195557,19.936947345733643,0.0,21.3434054851532,1658204401,3463
109000,108,152.3557586669922,967359.0625,62765834240.0,62799400960.0,-29.552631378173828,249.11647033691406,-821286.125,-821340.375,-949906.0,109000,8155359.0,8284296.0,-42125872.0,-42789036.0,-163718176.0,-166653248.0,-32743636.0,-33330648.0,-35344844.0,-36112536.0,-35344896.0,-36112596.0,0.0,0.0,1.4176957607269287,19.958009958267212,0.0,21.37570571899414,1658204423,3485
110000,109,150.74783325195312,958647.375,64322134016.0,64581443584.0,-20.776538848876953,255.6021270751953,-812784.875,-813369.625,-912829.0625,110000,8044700.0,8191456.0,-42157800.0,-42815096.0,-166080480.0,-168518848.0,-33216096.0,-33703768.0,-35677684.0,-36462632.0,-35677708.0,-36462632.0,0.0,0.0,0.18991654955347886,10.0,1.4106495380401611,19.963183641433716,0.07679486274719238,21.45062804222107,1658204444,3506
111000,110,144.98085021972656,951052.0,72256618496.0,72230649856.0,11.220593452453613,259.0658264160156,-807243.125,-807222.125,-894392.125,111000,8191478.5,8335142.0,-42671620.0,-43403048.0,-166419744.0,-169405056.0,-33283948.0,-33881012.0,-35838316.0,-36574108.0,-35838348.0,-36574088.0,0.0,0.0,1.448972463607788,20.06997513771057,0.0,21.51894760131836,1658204466,3528
112000,111,145.00010681152344,1005719.625,98023800832.0,97741307904.0,11.102696418762207,257.657958984375,-855333.375,-854392.375,-974444.5,112000,8391086.0,8559026.0,-43519880.0,-44235228.0,-169027216.0,-171978896.0,-33805444.0,-34395780.0,-36431072.0,-37194336.0,-36431060.0,-37194392.0,0.0,0.0,1.4003450870513916,19.937148809432983,0.0,21.337493896484375,1658204487,3549
113000,112,149.38217163085938,1014818.0,91809120256.0,91566931968.0,-13.236950874328613,258.9580078125,-860939.875,-860138.0625,-973739.375,113000,8500278.0,8646864.0,-44196844.0,-45002140.0,-172082736.0,-175189664.0,-34416548.0,-35037932.0,-37089580.0,-37898304.0,-37089644.0,-37898300.0,0.0,0.0,1.3860177993774414,19.850128650665283,0.0,21.236146450042725,1658204508,3570
114000,113,140.84454345703125,961952.0,86924279808.0,86443917312.0,34.213623046875,259.3744812011719,-820877.9375,-821739.5,-920029.875,114000,8586471.0,8757350.0,-44472280.0,-45267628.0,-172430160.0,-175865280.0,-34486032.0,-35173056.0,-37025212.0,-37825644.0,-37025228.0,-37825708.0,0.0,0.0,1.4019672870635986,19.755258798599243,0.0,21.157226085662842,1658204530,3591
115000,114,145.5283966064453,1037800.9375,89017417728.0,88565014528.0,8.17416000366211,258.41229248046875,-893358.5625,-894206.125,-1004907.5625,115000,8611580.0,8802386.0,-44839588.0,-45655180.0,-173485280.0,-176785152.0,-34697056.0,-35357032.0,-37354316.0,-38130068.0,-37354360.0,-38130108.0,0.0,0.0,1.4665310382843018,19.776503086090088,0.0,21.24303412437439,1658204551,3613
116000,115,145.20208740234375,1005604.375,86175531008.0,85901770752.0,10.024892807006836,263.9736022949219,-858651.375,-858390.3125,-947489.8125,116000,8833666.0,8995890.0,-45572332.0,-46435776.0,-176916720.0,-180375168.0,-35383344.0,-36075032.0,-37933248.0,-38787436.0,-37933292.0,-38787456.0,0.0,0.0,1.5374057292938232,19.9477641582489,0.0,21.485169887542725,1658204572,3634
117000,116,151.51690673828125,1052778.0,96325574656.0,96370245632.0,-25.268234252929688,268.8472595214844,-889901.875,-891313.875,-1021513.625,117000,8828800.0,8984158.0,-45773984.0,-46570048.0,-178321360.0,-180723776.0,-35664272.0,-36144756.0,-38198652.0,-39037988.0,-38198652.0,-39037964.0,0.0,0.0,1.6178927421569824,19.817691802978516,0.0,21.435584545135498,1658204594,3655
118000,117,149.4862060546875,1024872.875,109096042496.0,108081709056.0,-13.900945663452148,268.06512451171875,-874189.5,-873971.125,-993327.875,118000,9098438.0,9275702.0,-46622492.0,-47516700.0,-180233456.0,-183683232.0,-36046692.0,-36736648.0,-38641784.0,-39509848.0,-38641820.0,-39509836.0,0.0,0.0,1.555680751800537,19.838303089141846,0.0,21.393983840942383,1658204615,3677
119000,118,149.08628845214844,1053573.25,131085312000.0,130538323968.0,-11.682921409606934,270.3851013183594,-895294.5,-895118.375,-994056.0,119000,9103154.0,9256020.0,-46911660.0,-47728020.0,-180912608.0,-184355232.0,-36182520.0,-36871048.0,-38899968.0,-39737500.0,-38900008.0,-39737576.0,0.0,0.0,1.462071418762207,19.836493015289307,0.0,21.298564434051514,1658204637,3698
120000,119,152.06814575195312,1098843.5,109703200768.0,109097934848.0,-28.43148422241211,273.0975341796875,-934416.375,-934710.75,-1062521.625,120000,9357999.0,9504741.0,-47888160.0,-48702424.0,-183788720.0,-187185568.0,-36757744.0,-37437112.0,-39455104.0,-40337480.0,-39455124.0,-40337484.0,0.0,0.0,0.15104348387302685,10.0,1.5441882610321045,19.91339683532715,0.0868539810180664,21.54443907737732,1658204658,3720
121000,120,146.99774169921875,1080367.125,106748059648.0,106584227840.0,0.012674808502197266,277.44329833984375,-920800.125,-920752.5625,-1014167.125,121000,9436465.0,9575680.0,-48188128.0,-48963188.0,-185108128.0,-188720928.0,-37021624.0,-37744184.0,-39791372.0,-40714076.0,-39791284.0,-40714048.0,0.0,0.0,1.4253077507019043,19.923072338104248,0.0,21.348380088806152,1658204679,3741
122000,121,149.76962280273438,1107010.5,105139699712.0,104546811904.0,-15.61629867553711,281.0244140625,-941954.5,-941284.25,-1053800.375,122000,9521071.0,9702746.0,-48728348.0,-49533172.0,-188104976.0,-190745472.0,-37620996.0,-38149096.0,-40297076.0,-41196780.0,-40296956.0,-41196832.0,0.0,0.0,1.3824570178985596,19.86175274848938,0.0,21.24420976638794,1658204701,3762
123000,122,148.9744873046875,1064157.5,101623070720.0,101564088320.0,-11.125871658325195,280.0035705566406,-901686.125,-901873.5625,-1027850.8125,123000,9449753.0,9635079.0,-48981836.0,-49852476.0,-190314048.0,-193373024.0,-38062808.0,-38674604.0,-40588956.0,-41480564.0,-40589024.0,-41480564.0,0.0,0.0,1.3985824584960938,19.79615545272827,0.0,21.194737911224365,1658204722,3784
124000,123,146.86712646484375,1083947.75,95966781440.0,96362225664.0,0.7506260871887207,284.1429748535156,-925331.3125,-926042.125,-1048003.375,124000,9673820.0,9895317.0,-49555104.0,-50486772.0,-191081472.0,-193719392.0,-38216296.0,-38743880.0,-40931412.0,-41817844.0,-40931384.0,-41817824.0,0.0,0.0,1.5399563312530518,19.84375834465027,0.0,21.38371467590332,1658204743,3805
125000,124,150.55006408691406,1110890.5,130387492864.0,130095456256.0,-20.051124572753906,283.7511291503906,-945100.5625,-944549.875,-1066101.75,125000,9894693.0,10074906.0,-50567904.0,-51469536.0,-193214800.0,-196795920.0,-38642960.0,-39359184.0,-41399816.0,-42325476.0,-41399816.0,-42325408.0,0.0,0.0,1.4364159107208252,19.839802503585815,0.0,21.27621841430664,1658204765,3826
126000,125,152.52195739746094,1070471.5,114933366784.0,115029860352.0,-31.166522979736328,282.6219787597656,-910606.0625,-911274.5,-1010451.125,126000,10078201.0,10226199.0,-51104768.0,-51984264.0,-195989920.0,-199688096.0,-39197984.0,-39937620.0,-41759280.0,-42729076.0,-41759292.0,-42729064.0,0.0,0.0,1.454322338104248,19.85459280014038,0.0,21.30891513824463,1658204786,3848
127000,126,146.84085083007812,1104119.0,55110033408.0,55248244736.0,0.9045639038085938,294.0799865722656,-935689.625,-936726.9375,-1035410.625,127000,9884208.0,10077420.0,-51169992.0,-52098280.0,-197911120.0,-201250752.0,-39582224.0,-40250152.0,-42290308.0,-43292088.0,-42290248.0,-43291996.0,0.0,0.0,1.493913173675537,19.797271966934204,0.0,21.29118514060974,1658204807,3869
128000,127,146.47532653808594,1114986.0,109029261312.0,109105602560.0,2.9855613708496094,296.0177001953125,-944440.75,-943591.125,-1070251.5,128000,10123174.0,10294787.0,-52000528.0,-52887552.0,-200308080.0,-203346528.0,-40061616.0,-40669304.0,-42798176.0,-43765908.0,-42798132.0,-43765792.0,0.0,0.0,1.5073225498199463,19.92276358604431,0.0,21.430086135864258,1658204829,3890
129000,128,144.28077697753906,1080655.0,116038131712.0,115417358336.0,15.468564987182617,295.48052978515625,-917441.1875,-916286.8125,-1027487.3125,129000,10151164.0,10329448.0,-52181948.0,-53067516.0,-201434896.0,-205036544.0,-40286980.0,-41007308.0,-43026600.0,-43986012.0,-43026604.0,-43985856.0,0.0,0.0,1.629946231842041,19.889605045318604,0.0,21.519551277160645,1658204850,3912
130000,129,145.05218505859375,1088440.75,66870345728.0,66950291456.0,11.098895072937012,298.3200378417969,-924688.6875,-925337.9375,-1054346.25,130000,10274869.0,10488064.0,-52596844.0,-53552776.0,-201393088.0,-205055744.0,-40278616.0,-41011148.0,-43186624.0,-44104796.0,-43186668.0,-44104828.0,0.0,0.0,0.0,10.0,1.6386849880218506,20.161089181900024,0.08477282524108887,21.884546995162964,1658204872,3934
131000,130,142.70359802246094,1143550.375,84937572352.0,84745961472.0,24.528034210205078,301.5603332519531,-973676.0625,-973346.0,-1098615.5,131000,10392608.0,10643992.0,-53198752.0,-54245004.0,-203403824.0,-207023904.0,-40680764.0,-41404780.0,-43611996.0,-44518888.0,-43611976.0,-44519004.0,0.0,0.0,1.5502474308013916,20.021060466766357,0.0,21.57130789756775,1658204894,3955
132000,131,142.37277221679688,1103011.0,95998197760.0,94689574912.0,26.446327209472656,303.49798583984375,-942581.9375,-942000.1875,-1069155.875,132000,10578215.0,10731138.0,-53740700.0,-54671240.0,-204725728.0,-208897296.0,-40945144.0,-41779460.0,-44136076.0,-45063468.0,-44136092.0,-45063492.0,0.0,0.0,1.485497236251831,19.878475189208984,0.0,21.363972425460815,1658204915,3977
133000,132,148.14785766601562,1144639.25,138187227136.0,137640361984.0,-6.573624610900879,307.01739501953125,-973087.5,-973823.5625,-1100372.25,133000,10616959.0,10829979.0,-54488988.0,-55508732.0,-209192288.0,-212689888.0,-41838456.0,-42537976.0,-44767796.0,-45721456.0,-44767776.0,-45721496.0,0.0,0.0,1.481680154800415,19.76538872718811,0.0,21.247068881988525,1658204936,3998
134000,133,147.98641967773438,1149362.75,108700016640.0,108342231040.0,-5.660935401916504,310.72100830078125,-973705.875,-974112.0625,-1101171.375,134000,10849888.0,11058368.0,-55324084.0,-56378524.0,-211040016.0,-214413920.0,-42208004.0,-42882784.0,-45057344.0,-46076780.0,-45057292.0,-46076872.0,0.0,0.0,1.4026598930358887,19.774417400360107,0.0,21.177077293395996,1658204958,4019
135000,134,146.10595703125,1144776.5,115248676864.0,115243155456.0,5.139898777008057,313.9073486328125,-964475.5,-964742.8125,-1098501.0,135000,10765784.0,11019570.0,-55127820.0,-56247596.0,-211923232.0,-215381840.0,-42384648.0,-43076368.0,-45385372.0,-46288732.0,-45385268.0,-46288552.0,0.0,0.0,1.4807641506195068,19.799676656723022,0.0,21.28044080734253,1658204979,4040
136000,135,148.45919799804688,1153430.375,125295624192.0,125136568320.0,-8.410500526428223,318.54095458984375,-973472.625,-973801.9375,-1109227.25,136000,11071290.0,11244387.0,-56489652.0,-57441504.0,-216426848.0,-221002240.0,-43285368.0,-44200448.0,-46501696.0,-47567968.0,-46501788.0,-47567940.0,0.0,0.0,1.4205219745635986,19.786928176879883,0.0,21.20745015144348,1658205000,4062
137000,136,153.14801025390625,1229182.75,191880331264.0,190935416832.0,-35.52047348022461,322.97100830078125,-1036713.8125,-1036841.5,-1149263.75,137000,11175920.0,11389044.0,-57086772.0,-58037832.0,-219667200.0,-223096768.0,-43933440.0,-44619352.0,-47018060.0,-48108768.0,-47018104.0,-48108820.0,0.0,0.0,1.3902835845947266,19.85687518119812,0.0,21.247158765792847,1658205021,4083
138000,137,145.35064697265625,1213826.375,119764910080.0,119425277952.0,9.54777717590332,326.61737060546875,-1032210.125,-1031638.375,-1145043.25,138000,11339018.0,11560888.0,-57651488.0,-58684844.0,-221302784.0,-224836448.0,-44260556.0,-44967288.0,-47283080.0,-48343556.0,-47283084.0,-48343468.0,0.0,0.0,1.3661768436431885,19.881715774536133,0.0,21.24789261817932,1658205043,4104
139000,138,151.5235595703125,1253416.75,117395398656.0,116932296704.0,-26.199302673339844,327.5806579589844,-1065963.625,-1066142.375,-1189438.125,139000,11647158.0,11837309.0,-59006964.0,-59952028.0,-225337360.0,-228791664.0,-45067472.0,-45758332.0,-48243720.0,-49449724.0,-48243736.0,-49449744.0,0.0,0.0,1.435934066772461,20.080516815185547,0.0,21.516450881958008,1658205064,4126
140000,139,147.07388305664062,1269615.0,106959044608.0,106564165632.0,-0.4298391342163086,336.4049072265625,-1075423.25,-1076842.375,-1240574.0,140000,11538198.0,11750387.0,-58686292.0,-59691124.0,-223606432.0,-228026400.0,-44721288.0,-45605280.0,-48069036.0,-49056956.0,-48068884.0,-49056832.0,0.0,0.0,0.20665592532584562,10.0,1.6017491817474365,19.79112958908081,0.09773921966552734,21.490617990493774,1658205086,4147
141000,140,149.95950317382812,1256946.25,133571035136.0,134000787456.0,-17.196914672851562,333.871337890625,-1070824.5,-1071244.75,-1196857.25,141000,11677423.0,11873798.0,-59509340.0,-60519072.0,-226824960.0,-231108080.0,-45364992.0,-46221616.0,-48581888.0,-49602352.0,-48581816.0,-49602328.0,0.0,0.0,1.644538402557373,19.876662492752075,0.0,21.52120089530945,1658205107,4169
142000,141,142.15264892578125,1210897.0,141499301888.0,140527861760.0,28.22878074645996,338.1697082519531,-1027687.75,-1027617.0,-1152807.5,142000,11806145.0,12015550.0,-59836340.0,-60766732.0,-227550784.0,-230519760.0,-45510156.0,-46103952.0,-48544188.0,-49473552.0,-48544236.0,-49473516.0,0.0,0.0,1.4315686225891113,19.783315896987915,0.0,21.214884519577026,1658205128,4190
143000,142,143.00827026367188,1203386.75,107488788480.0,106220273664.0,23.328048706054688,345.1917419433594,-1019483.25,-1019801.5,-1159058.75,143000,12015598.0,12267012.0,-60858332.0,-62023720.0,-231301760.0,-234689040.0,-46260352.0,-46937808.0,-49315276.0,-50348032.0,-49315204.0,-50348056.0,0.0,0.0,1.4497439861297607,19.787696838378906,0.0,21.237440824508667,1658205150,4211
144000,143,151.34974670410156,1319856.75,176089661440.0,175380267008.0,-25.398326873779297,343.4461364746094,-1126390.75,-1126878.875,-1290947.0,144000,12075633.0,12255418.0,-61307292.0,-62342988.0,-234664560.0,-238540016.0,-46932912.0,-47708004.0,-50100840.0,-51168780.0,-50100752.0,-51168652.0,0.0,0.0,1.5535399913787842,19.851224660873413,0.0,21.404764652252197,1658205171,4233
145000,144,147.66842651367188,1288983.875,151328587776.0,149842460672.0,-3.913712978363037,348.9978942871094,-1093742.125,-1093758.0,-1205243.0,145000,12103818.0,12341650.0,-61758028.0,-62854092.0,-236437632.0,-239369856.0,-47287528.0,-47873972.0,-50490012.0,-51544476.0,-50490044.0,-51544396.0,0.0,0.0,1.5500209331512451,19.769081592559814,0.0,21.31910252571106,1658205192,4254
146000,145,141.61453247070312,1185408.5,101276762112.0,100838719488.0,31.624658584594727,355.03509521484375,-997534.0625,-997482.0,-1144278.75,146000,12325748.0,12504398.0,-62419432.0,-63404520.0,-238856080.0,-242630256.0,-47771216.0,-48526052.0,-50942372.0,-52056540.0,-50942444.0,-52056532.0,0.0,0.0,1.4724540710449219,19.83672261238098,0.0,21.309176683425903,1658205214,4275
147000,146,146.30682373046875,1293947.75,165865390080.0,166326747136.0,4.079957485198975,359.9645080566406,-1095688.0,-1095703.5,-1219372.625,147000,12394493.0,12674234.0,-62936460.0,-64203852.0,-239973088.0,-243579280.0,-47994616.0,-48715856.0,-51225788.0,-52278604.0,-51225900.0,-52278812.0,0.0,0.0,1.3923227787017822,19.841858386993408,0.0,21.23418116569519,1658205235,4297
148000,147,147.25262451171875,1306705.0,92073132032.0,92037136384.0,-1.4897880554199219,363.9895935058594,-1110307.0,-1109827.125,-1249893.0,148000,12536952.0,12821597.0,-63605324.0,-64917000.0,-242910224.0,-247057472.0,-48582044.0,-49411496.0,-51839488.0,-52961784.0,-51839520.0,-52961800.0,0.0,0.0,1.4190423488616943,19.853190183639526,0.0,21.27223253250122,1658205256,4318
149000,148,145.59371948242188,1299372.625,161061666816.0,159948406784.0,8.297415733337402,365.1155090332031,-1097969.375,-1097771.0,-1238241.25,149000,12671066.0,12903450.0,-64582796.0,-65754228.0,-247223184.0,-251888608.0,-49444636.0,-50377720.0,-52748080.0,-54072276.0,-52748072.0,-54072136.0,0.0,0.0,1.463439702987671,19.879774808883667,0.0,21.343214511871338,1658205278,4339
150000,149,150.18228149414062,1438536.75,136378761216.0,136054284288.0,-18.871986389160156,376.28289794921875,-1219299.375,-1219362.125,-1388899.125,150000,12840425.0,13084913.0,-65202720.0,-66383676.0,-248363664.0,-252353184.0,-49672732.0,-50470636.0,-53189236.0,-54413116.0,-53189108.0,-54412892.0,0.0,0.0,0.07668091432418264,10.0,1.407984733581543,19.782639503479004,0.07541990280151367,21.26604413986206,1658205299,4361
151000,150,146.06881713867188,1354551.0,160179191808.0,160711606272.0,5.514461994171143,373.1426696777344,-1149951.0,-1149871.5,-1316538.75,151000,13156973.0,13415532.0,-66315316.0,-67729096.0,-251318784.0,-257618560.0,-50263756.0,-51523712.0,-53885908.0,-55189684.0,-53885928.0,-55189576.0,0.0,0.0,1.4439313411712646,19.831588745117188,0.0,21.275520086288452,1658205320,4382
152000,151,143.66770935058594,1359399.25,212748861440.0,212203798528.0,19.797414779663086,380.3388366699219,-1149932.875,-1149218.75,-1337193.0,152000,13256405.0,13485856.0,-66913580.0,-68162344.0,-254032656.0,-258656640.0,-50806532.0,-51731328.0,-54286024.0,-55595916.0,-54285896.0,-55595860.0,0.0,0.0,1.387613296508789,19.672446250915527,0.0,21.060059547424316,1658205341,4403
153000,152,148.7793731689453,1433258.875,186280116224.0,185266061312.0,-10.575689315795898,381.2685241699219,-1217000.75,-1217459.75,-1363031.5,153000,13196276.0,13440394.0,-67097992.0,-68224896.0,-255906176.0,-260040336.0,-51181236.0,-52008068.0,-54772384.0,-56123272.0,-54772360.0,-56123260.0,0.0,0.0,1.4734179973602295,19.84319233894348,0.0,21.31661033630371,1658205363,4424
154000,153,148.75320434570312,1448848.875,204869697536.0,205022003200.0,-10.42738151550293,382.8544006347656,-1230444.0,-1231394.25,-1375714.75,154000,13278206.0,13554836.0,-67619320.0,-68880208.0,-257639968.0,-262414480.0,-51527992.0,-52482896.0,-55190700.0,-56481256.0,-55190656.0,-56481244.0,0.0,0.0,1.5850369930267334,19.829684257507324,0.0,21.414721250534058,1658205384,4446
155000,154,139.06671142578125,1352933.125,115593682944.0,114655420416.0,47.293373107910156,388.1461486816406,-1146878.75,-1148068.0,-1303550.5,155000,13569452.0,13781296.0,-68069560.0,-69253864.0,-257091648.0,-261462688.0,-51418328.0,-52292536.0,-55028160.0,-56288040.0,-55028268.0,-56287968.0,0.0,0.0,1.5192890167236328,19.92472505569458,0.0,21.444014072418213,1658205405,4467
156000,155,146.1440887451172,1431867.5,152838078464.0,152534286336.0,5.108414649963379,390.9024963378906,-1212239.75,-1213173.25,-1365490.5,156000,13635152.0,13924070.0,-69081256.0,-70359248.0,-261930368.0,-266022640.0,-52386072.0,-53204528.0,-55826508.0,-57091496.0,-55826484.0,-57091400.0,0.0,0.0,1.6697824001312256,19.972699642181396,0.0,21.642482042312622,1658205427,4489
157000,156,147.46676635742188,1458359.5,245901475840.0,245089042432.0,-2.7925710678100586,396.5264587402344,-1233281.125,-1232773.875,-1391887.5,157000,13885898.0,14172604.0,-69659624.0,-70951872.0,-264579520.0,-269441152.0,-52915904.0,-53888228.0,-56611188.0,-57782188.0,-56611200.0,-57782100.0,0.0,0.0,1.5170624256134033,19.906986474990845,0.0,21.424048900604248,1658205449,4510
158000,157,148.44155883789062,1541606.625,185700712448.0,185116360704.0,-8.60445785522461,391.0529479980469,-1315595.625,-1316377.75,-1442833.625,158000,13840633.0,14111737.0,-70258752.0,-71497664.0,-267373360.0,-271807936.0,-53474672.0,-54361584.0,-57029056.0,-58260648.0,-57028904.0,-58260636.0,0.0,0.0,1.4540135860443115,19.937106370925903,0.0,21.391119956970215,1658205470,4532
159000,158,145.3290252685547,1444227.5,81322041344.0,81377263616.0,10.014881134033203,400.7872009277344,-1221410.25,-1221683.75,-1389707.375,159000,13987162.0,14264852.0,-70834776.0,-72140552.0,-268566336.0,-273165568.0,-53713268.0,-54633116.0,-57517500.0,-58672796.0,-57517512.0,-58672924.0,0.0,0.0,1.4369027614593506,19.90413475036621,0.0,21.34103751182556,1658205491,4553
160000,159,145.0902099609375,1437511.625,113443872768.0,113796349952.0,11.458900451660156,403.4667053222656,-1211220.0,-1210396.5,-1390782.75,160000,14219132.0,14500090.0,-71721384.0,-73091784.0,-271501056.0,-276345888.0,-54300208.0,-55269176.0,-57944648.0,-59123412.0,-57944616.0,-59123276.0,0.0,0.0,0.030203923146777,10.0,1.429293155670166,19.917307138442993,0.07679510116577148,21.42339539527893,1658205513,4574
161000,160,146.1475067138672,1482720.25,253704880128.0,252318154752.0,5.114489555358887,403.2184143066406,-1253150.75,-1254419.0,-1435082.625,161000,14197024.0,14451777.0,-71910824.0,-73096256.0,-272431008.0,-276410976.0,-54486200.0,-55282196.0,-58099404.0,-59190848.0,-58099572.0,-59190760.0,0.0,0.0,1.4370362758636475,19.814861059188843,0.0,21.25189733505249,1658205534,4596
162000,161,143.19866943359375,1455742.75,185940967424.0,186503774208.0,22.861469268798828,409.1391296386719,-1235738.75,-1236406.75,-1414491.25,162000,14569756.0,14889183.0,-73435800.0,-74939200.0,-278721728.0,-283577568.0,-55744344.0,-56715512.0,-59170856.0,-60439388.0,-59170728.0,-60439468.0,0.0,0.0,1.3645832538604736,19.862908363342285,0.0,21.22749161720276,1658205555,4617
163000,162,144.09375,1446358.75,129774829568.0,128592543744.0,17.503868103027344,412.7434387207031,-1226009.125,-1227350.875,-1366639.25,163000,14759644.0,15047767.0,-73633832.0,-74866688.0,-277988896.0,-281236864.0,-55597780.0,-56247376.0,-59091424.0,-60207836.0,-59091476.0,-60207944.0,0.0,0.0,1.364530324935913,19.909268856048584,0.0,21.273799180984497,1658205577,4638
164000,163,144.93862915039062,1480055.25,267874074624.0,268126584832.0,12.441267013549805,417.9866638183594,-1251885.75,-1250798.75,-1387792.75,164000,14780771.0,15080916.0,-74529688.0,-75973712.0,-282532096.0,-287986304.0,-56506416.0,-57597264.0,-60066568.0,-61284160.0,-60066460.0,-61284072.0,0.0,0.0,1.3947086334228516,19.873841762542725,0.0,21.268550395965576,1658205598,4659
165000,164,145.28729248046875,1484005.25,197913608192.0,197495390208.0,10.360474586486816,423.78179931640625,-1257844.0,-1256856.25,-1413039.5,165000,14966074.0,15297736.0,-75271288.0,-76690000.0,-284765632.0,-289196896.0,-56953128.0,-57839380.0,-60496348.0,-61651980.0,-60496232.0,-61651980.0,0.0,0.0,1.371527910232544,19.90655279159546,0.0,21.278080701828003,1658205619,4681
166000,165,142.76626586914062,1495309.25,207493120000.0,205095698432.0,25.628610610961914,425.5672302246094,-1273148.75,-1273137.125,-1464386.125,166000,14993757.0,15409674.0,-75640456.0,-77090112.0,-284836000.0,-288827168.0,-56967200.0,-57765432.0,-60526080.0,-61664396.0,-60526004.0,-61664412.0,0.0,0.0,1.4425277709960938,19.962023735046387,0.0,21.40455150604248,1658205641,4702
167000,166,147.62646484375,1492777.25,165232885760.0,164674306048.0,-3.789895534515381,423.9598693847656,-1267588.625,-1267273.5,-1421958.75,167000,15362283.0,15665870.0,-76818512.0,-78123392.0,-288964896.0,-293601344.0,-57792980.0,-58720268.0,-61378684.0,-62608028.0,-61378780.0,-62607988.0,0.0,0.0,1.6059021949768066,19.949714422225952,0.0,21.55561661720276,1658205662,4724
168000,167,140.7840576171875,1438514.5,186619166720.0,187247132672.0,37.656585693359375,427.5440368652344,-1213988.5,-1212953.875,-1377335.25,168000,15138098.0,15488174.0,-76499296.0,-77941176.0,-290852352.0,-294732928.0,-58170468.0,-58946584.0,-61667764.0,-62838400.0,-61667816.0,-62838364.0,0.0,0.0,1.540400743484497,19.872082948684692,0.0,21.41248369216919,1658205684,4745
169000,168,145.27554321289062,1501604.25,170893344768.0,171207786496.0,10.4718017578125,433.78411865234375,-1264828.875,-1264230.25,-1436384.75,169000,15780482.0,16101910.0,-78422056.0,-79730880.0,-294034656.0,-298084864.0,-58806932.0,-59616972.0,-62456936.0,-63692980.0,-62456908.0,-63692864.0,0.0,0.0,1.586078405380249,19.905772924423218,0.0,21.491851329803467,1658205705,4767
170000,169,143.73263549804688,1522609.0,181768929280.0,181726101504.0,19.838756561279297,433.45599365234375,-1288646.0,-1288307.75,-1473066.5,170000,15618028.0,15975809.0,-77995032.0,-79382496.0,-291655424.0,-295988640.0,-58331088.0,-59197728.0,-61970764.0,-63037204.0,-61970764.0,-63036940.0,0.0,0.0,0.0,10.0,1.4788706302642822,19.88487935066223,0.08477425575256348,21.448524236679077,1658205727,4788
171000,170,148.98301696777344,1598480.25,229849858048.0,229415288832.0,-12.062514305114746,438.2938537597656,-1359982.75,-1360458.125,-1524749.0,171000,15845833.0,16135629.0,-79017400.0,-80125632.0,-294667648.0,-297851712.0,-58933532.0,-59570344.0,-62696108.0,-63801632.0,-62696084.0,-63801564.0,0.0,0.0,1.5047802925109863,19.904412031173706,0.0,21.409192323684692,1658205748,4810
172000,171,148.28823852539062,1534183.25,174495629312.0,173152370688.0,-7.8290205001831055,435.8417053222656,-1301103.375,-1301414.375,-1480082.25,172000,16120122.0,16382508.0,-79819968.0,-81088888.0,-298446816.0,-302010944.0,-59689364.0,-60402192.0,-63162856.0,-64303484.0,-63162688.0,-64303348.0,0.0,0.0,1.4920392036437988,19.93047571182251,0.0,21.42251491546631,1658205769,4831
173000,172,145.51950073242188,1530791.375,192487112704.0,193546944512.0,8.989425659179688,433.5111389160156,-1300166.0,-1300488.0,-1460883.25,173000,16189403.0,16616498.0,-80587224.0,-82143624.0,-299326048.0,-303149600.0,-59865208.0,-60629920.0,-63648892.0,-64749544.0,-63648820.0,-64749480.0,0.0,0.0,1.4639670848846436,20.0181303024292,0.000997304916381836,21.483094692230225,1658205791,4853
174000,173,148.02450561523438,1631941.875,339870875648.0,337757241344.0,-6.236018180847168,440.016845703125,-1382254.75,-1383042.25,-1548568.0,174000,16128798.0,16573898.0,-80828952.0,-82565656.0,-304185280.0,-307631648.0,-60837056.0,-61526332.0,-64364892.0,-65435356.0,-64364872.0,-65435356.0,0.0,0.0,1.4213755130767822,19.87951922416687,0.0,21.300894737243652,1658205812,4874
175000,174,146.56478881835938,1652591.0,344559648768.0,345396412416.0,2.653890609741211,444.89569091796875,-1406560.25,-1406550.5,-1552618.75,175000,16473488.0,16812152.0,-82307416.0,-83875032.0,-307395808.0,-312589792.0,-61479160.0,-62517960.0,-65385384.0,-66614412.0,-65385132.0,-66614420.0,0.0,0.0,1.443863868713379,19.979228258132935,0.0,21.423092126846313,1658205834,4895
176000,175,147.06906127929688,1480210.25,221160701952.0,219669643264.0,-0.42049598693847656,441.1628723144531,-1254844.25,-1254898.5,-1391294.875,176000,16627762.0,16973616.0,-82429184.0,-83903272.0,-306955648.0,-311835648.0,-61391128.0,-62367128.0,-65035424.0,-66173900.0,-65035468.0,-66173964.0,0.0,0.0,1.4203476905822754,19.949811697006226,0.0,21.3701593875885,1658205855,4917
177000,176,144.18875122070312,1498365.5,192114032640.0,191588106240.0,17.19025230407715,452.5240783691406,-1265558.75,-1266035.75,-1427744.125,177000,16657750.0,16954772.0,-82718504.0,-84239224.0,-309186880.0,-314515552.0,-61837376.0,-62903112.0,-65550796.0,-66615180.0,-65550752.0,-66615028.0,0.0,0.0,1.3945939540863037,20.003048419952393,0.0,21.397642374038696,1658205876,4938
178000,177,147.43177795410156,1555890.25,230107185152.0,231370129408.0,-2.6457738876342773,458.3189697265625,-1306394.125,-1305772.25,-1515980.5,178000,16798168.0,17087778.0,-83858192.0,-85389880.0,-314018752.0,-320092288.0,-62803748.0,-64018456.0,-66709416.0,-67959168.0,-66709468.0,-67959072.0,0.0,0.0,1.440032720565796,19.966968059539795,0.0,21.40700078010559,1658205898,4959
179000,178,140.24778747558594,1516946.875,293248892928.0,292163321856.0,41.372833251953125,458.1948547363281,-1280472.125,-1279572.25,-1459818.75,179000,17024258.0,17327306.0,-84137704.0,-85544608.0,-313930848.0,-318276768.0,-62786168.0,-63655352.0,-66626356.0,-67823768.0,-66626356.0,-67823632.0,0.0,0.0,1.6275708675384521,20.036734580993652,0.0,21.664305448532104,1658205920,4981
180000,179,146.24966430664062,1595739.75,260554768384.0,258527576064.0,4.5943708419799805,456.25579833984375,-1348693.75,-1347631.625,-1520853.875,180000,17281726.0,17622180.0,-85489560.0,-87073984.0,-317613472.0,-322010208.0,-63522696.0,-64402040.0,-67367096.0,-68553216.0,-67366912.0,-68553104.0,0.0,0.0,0.144037207687203,10.0,1.5513038635253906,19.844260215759277,0.10132431983947754,21.496888399124146,1658205941,5003
181000,180,148.0724639892578,1588181.5,182984523776.0,181982789632.0,-6.5961809158325195,468.9508361816406,-1333626.5,-1334362.0,-1550206.0,181000,17482368.0,17768488.0,-86167248.0,-87390168.0,-320368704.0,-324378240.0,-64073740.0,-64875648.0,-67827880.0,-69036968.0,-67827776.0,-69037240.0,0.0,0.0,1.5433690547943115,19.928166151046753,0.0,21.471535205841064,1658205963,5024
182000,181,149.77468872070312,1675915.0,324556357632.0,322509963264.0,-17.099315643310547,474.6651611328125,-1411579.375,-1413438.5,-1592375.75,182000,17495496.0,17905902.0,-86609808.0,-88415464.0,-323588000.0,-329060512.0,-64717600.0,-65812104.0,-68627088.0,-69852120.0,-68627176.0,-69852048.0,0.0,0.0,1.4127295017242432,19.911897897720337,0.0,21.32462739944458,1658205984,5045
183000,182,149.51382446289062,1655748.75,285371367424.0,284973236224.0,-15.479232788085938,472.327392578125,-1402662.75,-1402700.625,-1619932.0,183000,17651202.0,18000968.0,-87184840.0,-88738712.0,-324869792.0,-328243328.0,-64973960.0,-65648664.0,-68957368.0,-70224952.0,-68957272.0,-70225104.0,0.0,0.0,1.5810637474060059,19.87781262397766,0.0,21.458876371383667,1658206005,5067
184000,183,152.1448516845703,1724935.875,332585435136.0,332232622080.0,-31.785085678100586,482.0411682128906,-1461193.625,-1461947.375,-1600321.125,184000,17894812.0,18306912.0,-88270224.0,-89956200.0,-327866624.0,-332685280.0,-65573328.0,-66537056.0,-69590488.0,-70761784.0,-69590608.0,-70761840.0,0.0,0.0,1.4531469345092773,19.88054394721985,0.0,21.333690881729126,1658206027,5088
185000,184,151.33421325683594,1727652.5,401244356608.0,398710669312.0,-26.738283157348633,477.7638244628906,-1469226.25,-1468087.625,-1635264.25,185000,17900584.0,18293972.0,-88570464.0,-90254288.0,-329422912.0,-333126592.0,-65884584.0,-66625320.0,-69768216.0,-70839504.0,-69768376.0,-70839312.0,0.0,0.0,1.4705536365509033,19.904354572296143,0.0,21.374908208847046,1658206048,5110
186000,185,149.9227294921875,1703897.0,338223038464.0,338040258560.0,-18.026416778564453,477.0767822265625,-1442495.625,-1443996.375,-1592053.75,186000,18067872.0,18434932.0,-89567872.0,-91271440.0,-333318400.0,-338805248.0,-66663680.0,-67761048.0,-70659832.0,-71866536.0,-70659688.0,-71866256.0,0.0,0.0,1.4378654956817627,20.02231764793396,0.0,21.460183143615723,1658206070,5131
187000,186,145.63662719726562,1546029.75,239876767744.0,238797520896.0,8.410579681396484,477.6736145019531,-1299188.25,-1299850.75,-1464787.75,187000,18224884.0,18621068.0,-89764536.0,-91435832.0,-333223392.0,-337635264.0,-66644676.0,-67527056.0,-70476944.0,-71668504.0,-70476824.0,-71668288.0,0.0,0.0,1.4039812088012695,19.843812942504883,0.0,21.247794151306152,1658206091,5152
188000,187,143.57858276367188,1649136.0,218951172096.0,218599653376.0,21.237564086914062,496.327880859375,-1385598.375,-1386965.75,-1561410.625,188000,18207812.0,18539386.0,-90028368.0,-91613840.0,-333990528.0,-339915904.0,-66798108.0,-67983184.0,-71013200.0,-72249824.0,-71013392.0,-72249800.0,0.0,0.0,1.3655354976654053,19.964886903762817,0.0,21.330422401428223,1658206112,5174
189000,188,144.51123046875,1569321.375,242204508160.0,240607756288.0,15.445907592773438,495.8446044921875,-1317563.75,-1316324.25,-1540618.0,189000,18327506.0,18776936.0,-90643432.0,-92393944.0,-336231648.0,-339186816.0,-67246328.0,-67837360.0,-71279808.0,-72324784.0,-71279872.0,-72324904.0,0.0,0.0,1.4438893795013428,19.739609241485596,0.0,21.18349862098694,1658206133,5195
190000,189,148.8199005126953,1738752.625,212594327552.0,211900366848.0,-11.309557914733887,499.88824462890625,-1474570.75,-1475762.5,-1656828.125,190000,19096132.0,19424232.0,-93231808.0,-94829552.0,-343906400.0,-348941184.0,-68781280.0,-69788240.0,-72749960.0,-73959720.0,-72749904.0,-73959480.0,0.0,0.0,0.18288931279934278,10.0,1.4000959396362305,19.934779405593872,0.08075594902038574,21.41563129425049,1658206155,5216
191000,190,153.03529357910156,1745026.125,321037991936.0,317675798528.0,-37.614097595214844,508.95513916015625,-1471994.75,-1471249.875,-1668305.625,191000,18532272.0,18993018.0,-92672664.0,-94461456.0,-346561760.0,-351220832.0,-69312352.0,-70244168.0,-73429536.0,-74612880.0,-73429456.0,-74612536.0,0.0,0.0,1.5692145824432373,19.907654762268066,0.0,21.476869344711304,1658206176,5238
192000,191,155.39791870117188,1840292.0,228467589120.0,228949000192.0,-52.333900451660156,508.6557312011719,-1551947.25,-1550886.125,-1762053.125,192000,19110428.0,19480510.0,-94110504.0,-95783792.0,-349446336.0,-355091968.0,-69889264.0,-71018392.0,-74132280.0,-75391696.0,-74132288.0,-75391712.0,0.0,0.0,1.5871574878692627,21.168184995651245,0.0,22.755342483520508,1658206199,5261
193000,192,151.23158264160156,1785459.125,273668489216.0,272744955904.0,-26.39830207824707,512.042236328125,-1502505.875,-1502433.25,-1659502.25,193000,19189332.0,19498150.0,-94650000.0,-96140728.0,-352018112.0,-356175840.0,-70403624.0,-71235168.0,-74644792.0,-75924544.0,-74644776.0,-75924248.0,0.0,0.0,1.5077428817749023,19.91656231880188,0.0,21.424305200576782,1658206220,5282
194000,193,149.98138427734375,1766559.375,247415308288.0,245345353728.0,-18.61396026611328,514.6118774414062,-1482400.125,-1481390.25,-1684224.0,194000,19486252.0,19843872.0,-96025920.0,-97742144.0,-356795072.0,-362335712.0,-71359016.0,-72467144.0,-75698328.0,-76947344.0,-75698152.0,-76947288.0,0.0,0.0,1.5256426334381104,20.01884961128235,0.0,21.54449224472046,1658206242,5304
195000,194,149.08895874023438,1709067.5,230047301632.0,229719900160.0,-13.046043395996094,515.543701171875,-1441480.5,-1440701.625,-1647691.0,195000,19451076.0,19901118.0,-95570560.0,-97460352.0,-354132224.0,-358244032.0,-70826448.0,-71648808.0,-74995240.0,-76000952.0,-74995096.0,-76000856.0,0.0,0.0,1.5054523944854736,19.979686737060547,0.0,21.48513913154602,1658206264,5325
196000,195,153.34312438964844,1797188.0,377156763648.0,376824168448.0,-39.62849807739258,516.7097778320312,-1514982.125,-1513461.5,-1722806.5,196000,19816472.0,20290380.0,-97139608.0,-98995960.0,-360306720.0,-364969536.0,-72061344.0,-72993904.0,-76175376.0,-77332528.0,-76175336.0,-77332240.0,0.0,0.0,1.4873113632202148,19.973353624343872,0.0,21.460664987564087,1658206285,5347
197000,196,142.77865600585938,1652727.375,146848120832.0,147128057856.0,26.39299774169922,519.1943359375,-1388282.625,-1385896.875,-1571549.75,197000,19484554.0,19888208.0,-96358104.0,-98037056.0,-359074176.0,-362299136.0,-71814832.0,-72459824.0,-75953616.0,-76932992.0,-75953696.0,-76932904.0,0.0,0.0,1.431722640991211,19.82381534576416,0.0,21.25553798675537,1658206306,5368
198000,197,148.47845458984375,1802733.625,259391848448.0,259047161856.0,-9.269563674926758,528.3468627929688,-1518649.75,-1516182.0,-1740673.25,198000,19712584.0,20115446.0,-97030144.0,-98668280.0,-359733568.0,-363793856.0,-71946712.0,-72758768.0,-76515864.0,-77514664.0,-76515760.0,-77514744.0,0.0,0.0,1.4221768379211426,19.739377975463867,0.0,21.16155481338501,1658206327,5389
199000,198,146.08714294433594,1760540.25,298846388224.0,298118479872.0,5.724667072296143,529.0968627929688,-1479666.5,-1480106.5,-1657806.5,199000,19942784.0,20386940.0,-98241520.0,-100021712.0,-364161760.0,-369367808.0,-72832352.0,-73873560.0,-77160744.0,-78173960.0,-77160904.0,-78174088.0,0.0,0.0,1.4198963642120361,19.772311210632324,0.0,21.19220757484436,1658206349,5410
200000,199,146.1199951171875,1819921.75,329757229056.0,326984925184.0,5.526163578033447,533.6467895507812,-1539895.5,-1539802.5,-1747963.5,200000,19960922.0,20357564.0,-98805400.0,-100645608.0,-368854400.0,-372437760.0,-73770880.0,-74487552.0,-78269384.0,-79321656.0,-78269456.0,-79321320.0,0.0,0.0,0.16883505762306478,10.0,1.4888858795166016,19.860265493392944,0.07679581642150879,21.425947189331055,1658206370,5432
201000,200,149.75164794921875,1778352.5,252457369600.0,251155251200.0,-17.277294158935547,533.202392578125,-1496966.25,-1498816.0,-1698589.25,201000,19974846.0,20500164.0,-98390984.0,-100357248.0,-366049408.0,-368675488.0,-73209880.0,-73735096.0,-77423472.0,-78201624.0,-77423616.0,-78201464.0,0.0,0.0,1.431919813156128,19.889193534851074,0.0,21.321113348007202,1658206391,5453
202000,201,146.70358276367188,1720422.625,315204108288.0,313980551168.0,1.8574373722076416,526.5161743164062,-1454037.5,-1454315.0,-1627794.0,202000,20449298.0,20849080.0,-100839832.0,-102559816.0,-375676736.0,-380108480.0,-75135344.0,-76021696.0,-79405296.0,-80421976.0,-79405360.0,-80421840.0,0.0,0.0,1.4575810432434082,19.891222715377808,0.0,21.348803758621216,1658206413,5474
203000,202,142.47210693359375,1738085.625,313129041920.0,310990012416.0,28.386716842651367,528.1085815429688,-1464391.0,-1464437.25,-1678515.125,203000,20304750.0,20830118.0,-100026712.0,-102079352.0,-370427456.0,-374141504.0,-74085488.0,-74828304.0,-78438592.0,-79288240.0,-78438904.0,-79288704.0,0.0,0.0,1.5900993347167969,19.88438129425049,0.0,21.474480628967285,1658206434,5496
204000,203,143.24758911132812,1716035.25,329717055488.0,329747922944.0,23.548934936523438,531.4859008789062,-1444309.125,-1445103.5,-1593861.75,204000,20860238.0,21289848.0,-102450520.0,-104232128.0,-377672992.0,-381319424.0,-75534600.0,-76263888.0,-79693288.0,-80786264.0,-79693304.0,-80786272.0,0.0,0.0,1.6228663921356201,19.953755855560303,0.0,21.576622247695923,1658206456,5518
205000,204,150.17893981933594,1740046.75,288128761856.0,287530483712.0,-20.00079345703125,540.0428466796875,-1456954.0,-1457153.25,-1655125.625,205000,20864072.0,21389252.0,-102413264.0,-104424088.0,-377086592.0,-380563264.0,-75417320.0,-76112656.0,-79684344.0,-80574328.0,-79684536.0,-80574232.0,0.0,0.0,1.5568211078643799,19.943421602249146,0.0,21.500242710113525,1658206477,5539
206000,205,145.4021759033203,1621527.125,143649193984.0,144687874048.0,10.055519104003906,540.9110107421875,-1357809.75,-1357375.875,-1562005.25,206000,21073742.0,21589464.0,-102672552.0,-104494736.0,-378214432.0,-380411968.0,-75642888.0,-76082392.0,-79660960.0,-80381032.0,-79661248.0,-80380920.0,0.0,0.0,1.481391429901123,19.915852546691895,0.0,21.397243976593018,1658206499,5560
207000,206,143.1961669921875,1649539.375,240923131904.0,242570133504.0,23.950925827026367,542.69189453125,-1387316.25,-1385375.125,-1537985.5,207000,20914596.0,21343156.0,-102750808.0,-104585576.0,-378593280.0,-382475168.0,-75718656.0,-76495032.0,-79881256.0,-80793848.0,-79881352.0,-80793792.0,0.0,0.0,1.5867078304290771,19.89047384262085,0.0,21.477181673049927,1658206520,5582
208000,207,144.63851928710938,1848319.5,379953807360.0,377546801152.0,14.910884857177734,552.3604736328125,-1569490.75,-1569222.25,-1768474.75,208000,21264524.0,21823848.0,-103780688.0,-105951296.0,-380026560.0,-384122848.0,-76005312.0,-76824568.0,-80876632.0,-81655288.0,-80876888.0,-81655296.0,0.0,0.0,1.5310466289520264,19.811434745788574,0.0,21.3424813747406,1658206542,5603
209000,208,145.20762634277344,1835024.0,374581952512.0,373852766208.0,11.327375411987305,555.4494018554688,-1541244.75,-1540674.0,-1726725.125,209000,21599884.0,22148740.0,-104636984.0,-106753016.0,-382272928.0,-386123040.0,-76454584.0,-77224608.0,-80949064.0,-81800792.0,-80948992.0,-81800680.0,0.0,0.0,1.4304556846618652,19.981877326965332,0.0,21.412333011627197,1658206563,5625
210000,209,155.43896484375,1895909.75,317149118464.0,315387969536.0,-53.328758239746094,555.2086791992188,-1590435.5,-1592253.75,-1804262.375,210000,21414546.0,21982622.0,-105543488.0,-107573392.0,-389533504.0,-394379456.0,-77906704.0,-78875888.0,-82515672.0,-83682840.0,-82515728.0,-83682784.0,0.0,0.0,0.0,10.0,1.4616804122924805,19.899661779403687,0.07479977607727051,21.436141967773438,1658206585,5646
211000,210,147.93670654296875,1931899.875,207147106304.0,207413116928.0,-5.948631763458252,572.7727661132812,-1625980.875,-1627593.25,-1847338.375,211000,21985760.0,22541104.0,-106894736.0,-109159272.0,-392027904.0,-396440352.0,-78405584.0,-79288072.0,-83312856.0,-84305360.0,-83312680.0,-84305424.0,0.0,0.0,1.4708375930786133,19.877381563186646,0.0,21.34821915626526,1658206606,5668
212000,211,148.06442260742188,1899514.375,356764188672.0,358015631360.0,-6.7698259353637695,578.3261108398438,-1599280.125,-1600260.5,-1810573.0,212000,22134100.0,22682420.0,-107838184.0,-110110528.0,-396973504.0,-401702400.0,-79394704.0,-80340480.0,-83988696.0,-84974352.0,-83988672.0,-84974368.0,0.0,0.0,1.3835110664367676,19.872154235839844,0.0,21.25566530227661,1658206627,5689
213000,212,151.34725952148438,1929708.5,383060344832.0,381125918720.0,-27.65876007080078,579.6104125976562,-1626071.5,-1624240.375,-1869036.625,213000,22262452.0,22819622.0,-108535040.0,-110630928.0,-399567840.0,-404209280.0,-79913568.0,-80841856.0,-84541408.0,-85589336.0,-84541240.0,-85589320.0,0.0,0.0,1.3770697116851807,19.844883680343628,0.0,21.22195339202881,1658206648,5710
214000,213,149.93284606933594,1843385.375,193323040768.0,193169096704.0,-18.64924430847168,577.5244750976562,-1548773.875,-1549569.0,-1765387.5,214000,22218872.0,22774036.0,-109038144.0,-111000064.0,-401819360.0,-405154112.0,-80363872.0,-81030824.0,-84982696.0,-85993936.0,-84982752.0,-85994000.0,0.0,0.0,1.3988587856292725,19.891270637512207,0.0,21.29012942314148,1658206670,5731
215000,214,148.44093322753906,1983776.75,529261166592.0,526178844672.0,-9.181806564331055,585.2964477539062,-1672224.5,-1671336.25,-1863304.25,215000,22548358.0,23079154.0,-109464744.0,-111592856.0,-401115776.0,-404267264.0,-80223152.0,-80853456.0,-84785728.0,-85672088.0,-84785608.0,-85671904.0,0.0,0.0,1.5094716548919678,19.970556497573853,0.0,21.48002815246582,1658206691,5753
216000,215,149.21102905273438,1921925.5,198865879040.0,199391477760.0,-14.085573196411133,584.4110107421875,-1618127.5,-1616816.375,-1811371.25,216000,22540240.0,23190884.0,-109452072.0,-111747000.0,-402975680.0,-406068480.0,-80595136.0,-81213696.0,-84921040.0,-85657784.0,-84920856.0,-85657360.0,0.0,0.0,1.5944738388061523,19.90075659751892,0.0,21.495230436325073,1658206713,5774
217000,216,150.85720825195312,1980371.25,618330193920.0,619137597440.0,-24.590831756591797,587.1478271484375,-1670284.5,-1670480.0,-1860614.5,217000,22986508.0,23603412.0,-110968760.0,-113237112.0,-404276320.0,-408263072.0,-80855264.0,-81652616.0,-85617520.0,-86378048.0,-85617432.0,-86377832.0,0.0,0.0,1.6522216796875,19.827516555786133,0.0,21.479738235473633,1658206734,5796
218000,217,153.04623413085938,1993966.5,271717335040.0,269736951808.0,-38.48255157470703,580.9759521484375,-1680510.625,-1680600.5,-1934593.375,218000,22828502.0,23435800.0,-111600384.0,-113892176.0,-409698496.0,-413564640.0,-81939696.0,-82712928.0,-86656360.0,-87392912.0,-86656488.0,-87392872.0,0.0,0.0,1.5443463325500488,19.93781304359436,0.0,21.48215937614441,1658206756,5817
219000,218,148.38107299804688,1917552.125,290731327488.0,292483039232.0,-8.793476104736328,582.3572387695312,-1614474.25,-1614454.25,-1818196.25,219000,23219262.0,23705316.0,-112530560.0,-114562904.0,-410475520.0,-413938944.0,-82095104.0,-82787792.0,-86862136.0,-87674000.0,-86862064.0,-87674000.0,0.0,0.0,1.4303786754608154,19.932871103286743,0.0,21.36324977874756,1658206777,5839
220000,219,144.54330444335938,1757066.375,338148098048.0,340178501632.0,15.623449325561523,577.9983520507812,-1476831.5,-1477143.75,-1648944.5,220000,23647560.0,24276132.0,-113131064.0,-115229240.0,-409860096.0,-413468544.0,-81972016.0,-82693712.0,-86334480.0,-86978392.0,-86334488.0,-86978480.0,0.0,0.0,nan,10.0,1.4609837532043457,19.902956247329712,0.0857706069946289,21.449710607528687,1658206799,5860
221000,220,144.850341796875,1753216.75,279313842176.0,278018916352.0,13.661794662475586,575.5686645507812,-1471865.125,-1472059.375,-1676595.75,221000,23136182.0,23837202.0,-112304040.0,-114543800.0,-410303712.0,-412780544.0,-82060744.0,-82556112.0,-86464952.0,-86937560.0,-86465064.0,-86937416.0,0.0,0.0,1.447948694229126,20.02093815803528,0.0,21.468886852264404,1658206820,5882
222000,221,145.8568115234375,1715143.125,269834190848.0,270331822080.0,7.2548370361328125,570.2650756835938,-1440595.0,-1439814.0,-1648912.5,222000,23222684.0,23897876.0,-112455448.0,-114884072.0,-410432640.0,-411885248.0,-82086528.0,-82377048.0,-86053440.0,-86406400.0,-86053368.0,-86406408.0,0.0,0.0,1.4533257484436035,20.18714213371277,0.0,21.640467882156372,1658206842,5903
223000,222,151.03402709960938,1846928.25,336977362944.0,333840187392.0,-25.660078048706055,578.778564453125,-1550747.25,-1549182.625,-1750458.625,223000,23915724.0,24540524.0,-115219624.0,-117631512.0,-419902016.0,-422496672.0,-83980400.0,-84499336.0,-88264104.0,-88934456.0,-88264208.0,-88934424.0,0.0,0.0,1.4828097820281982,20.026978254318237,0.0,21.509788036346436,1658206863,5925
224000,223,148.11572265625,1876396.25,281314459648.0,282537263104.0,-7.106366157531738,583.6693725585938,-1574297.625,-1575166.75,-1770452.125,224000,23601200.0,24191144.0,-114744472.0,-116812184.0,-419410496.0,-421920320.0,-83882096.0,-84384064.0,-88436240.0,-89019688.0,-88436216.0,-89019800.0,0.0,0.0,1.444068193435669,19.921264171600342,0.0,21.36533236503601,1658206885,5946
225000,224,143.85037231445312,1734761.5,311964827648.0,311881596928.0,20.08116912841797,587.4090576171875,-1448403.0,-1448660.0,-1663132.25,225000,23959688.0,24598324.0,-116078544.0,-118221504.0,-424774112.0,-426756224.0,-84954824.0,-85351248.0,-89232776.0,-89714440.0,-89232776.0,-89714264.0,0.0,0.0,1.3702991008758545,19.939939260482788,0.0,21.310238361358643,1658206906,5968
226000,225,151.01809692382812,1921679.5,376638144512.0,377502072832.0,-25.626296997070312,588.5850219726562,-1613642.75,-1616049.75,-1801434.125,226000,24252036.0,24890656.0,-116802392.0,-119147064.0,-425256192.0,-428103840.0,-85051240.0,-85620768.0,-89757976.0,-90183128.0,-89758016.0,-90183632.0,0.0,0.0,1.3851583003997803,19.893874168395996,0.0,21.279032468795776,1658206927,5989
227000,226,145.70809936523438,1824318.375,354652651520.0,354339192832.0,8.254779815673828,595.656494140625,-1527092.25,-1525784.125,-1797002.75,227000,24395278.0,25105344.0,-117432552.0,-119702272.0,-427652544.0,-427587872.0,-85530512.0,-85517576.0,-89966248.0,-90246008.0,-89966144.0,-90245984.0,0.0,0.0,1.3979501724243164,19.774911403656006,0.0,21.172861576080322,1658206948,6010
228000,227,147.18785095214844,1869493.5,370110562304.0,368183934976.0,-1.2000675201416016,594.781494140625,-1575984.25,-1575042.25,-1741003.125,228000,24632374.0,25242442.0,-118751080.0,-121137464.0,-434880256.0,-437539264.0,-86976048.0,-87507856.0,-91846568.0,-92292888.0,-91846424.0,-92292944.0,0.0,0.0,1.6489136219024658,19.84389090538025,0.0,21.492804527282715,1658206970,6032
229000,228,153.79385375976562,1945971.25,324223041536.0,323485433856.0,-43.428810119628906,597.2671508789062,-1626517.0,-1626182.875,-1837504.625,229000,24488442.0,25240238.0,-119187792.0,-121787048.0,-437948640.0,-439963200.0,-87589728.0,-87992640.0,-92298376.0,-92657864.0,-92298456.0,-92657528.0,0.0,0.0,1.5227103233337402,19.86500906944275,0.0,21.38771939277649,1658206991,6053
230000,229,154.32176208496094,2065374.5,278617325568.0,278461317120.0,-46.85107421875,601.1710815429688,-1739074.5,-1740495.5,-1952158.0,230000,25081192.0,25704008.0,-120922136.0,-123399144.0,-441605696.0,-444246432.0,-88321136.0,-88849288.0,-93105336.0,-93586112.0,-93105024.0,-93585816.0,0.0,0.0,0.14866406318763256,10.0,1.5096487998962402,19.838138103485107,0.08477544784545898,21.432562351226807,1658207013,6074
231000,230,146.40396118164062,1834876.375,184642437120.0,186480099328.0,3.823136806488037,610.53857421875,-1535242.25,-1535932.0,-1780987.25,231000,25191010.0,25772722.0,-120889688.0,-123158144.0,-439304160.0,-441994720.0,-87860832.0,-88398944.0,-92734272.0,-93227360.0,-92734184.0,-93227368.0,0.0,0.0,1.502291202545166,19.889577627182007,0.0,21.391868829727173,1658207034,6096
232000,231,153.6508331298828,2044712.0,418302984192.0,414946492416.0,-42.681495666503906,612.4446411132812,-1714622.5,-1715135.125,-1964108.125,232000,25011968.0,25697948.0,-121888568.0,-124222800.0,-449558016.0,-451684160.0,-89911600.0,-90336832.0,-94659816.0,-95247064.0,-94659952.0,-95247152.0,0.0,0.0,1.4128849506378174,19.883190631866455,0.0,21.296075582504272,1658207055,6117
233000,232,150.6068115234375,1955447.25,179779780608.0,178244435968.0,-23.13983917236328,611.3035278320312,-1643884.0,-1644767.625,-1847183.25,233000,25441504.0,26128432.0,-122146984.0,-124599168.0,-444976960.0,-447164992.0,-88995392.0,-89433000.0,-93888064.0,-94167192.0,-93888192.0,-94167168.0,0.0,0.0,1.5112159252166748,19.88467526435852,0.0,21.395891189575195,1658207077,6138
234000,233,143.32321166992188,1895457.0,406817472512.0,407194697728.0,23.585933685302734,610.8399658203125,-1598681.0,-1599586.0,-1788691.0,234000,25177104.0,25881896.0,-121989608.0,-124334296.0,-445931072.0,-447635008.0,-89186216.0,-89527000.0,-93824784.0,-94244888.0,-93825216.0,-94244824.0,0.0,0.0,1.4262127876281738,19.885623931884766,0.0,21.31183671951294,1658207098,6160
235000,234,146.49273681640625,1824560.875,134857015296.0,135005110272.0,3.2585487365722656,616.24169921875,-1524834.5,-1524466.75,-1722302.75,235000,25648336.0,26235294.0,-123163496.0,-125238936.0,-449365440.0,-449308160.0,-89873088.0,-89861632.0,-94269424.0,-94558568.0,-94269288.0,-94558504.0,0.0,0.0,1.4220054149627686,19.895450115203857,0.0,21.317455530166626,1658207120,6181
236000,235,143.98348999023438,1887184.375,534886580224.0,530861490176.0,19.42060089111328,625.222412109375,-1584106.0,-1583906.375,-1772808.25,236000,25571220.0,26331880.0,-122754472.0,-125503824.0,-447586080.0,-451036544.0,-89517216.0,-90207312.0,-94280800.0,-94569216.0,-94280752.0,-94568944.0,0.0,0.0,1.3999528884887695,19.815288066864014,0.0,21.215240955352783,1658207141,6202
237000,236,150.41915893554688,1911273.375,301466320896.0,300512182272.0,-22.031967163085938,628.7295532226562,-1605188.75,-1605551.125,-1854636.375,237000,25835876.0,26510652.0,-124967960.0,-127223400.0,-456781184.0,-458452544.0,-91356240.0,-91690512.0,-95960448.0,-96322664.0,-95960440.0,-96322792.0,0.0,0.0,1.380127191543579,19.86838936805725,0.0,21.24851655960083,1658207162,6224
238000,237,143.79644775390625,1857398.625,346777747456.0,348722233344.0,20.683082580566406,636.707763671875,-1540945.75,-1540150.0,-1751573.0,238000,25846432.0,26525756.0,-124801616.0,-126910464.0,-454688384.0,-455245952.0,-90937680.0,-91049192.0,-95679864.0,-95771288.0,-95679848.0,-95771384.0,0.0,0.0,1.381514310836792,19.87168288230896,0.0,21.253197193145752,1658207183,6245
239000,238,142.53408813476562,1883494.375,260411555840.0,259681714176.0,28.903656005859375,646.810302734375,-1575320.0,-1576168.625,-1786412.875,239000,26399164.0,27156700.0,-126242088.0,-128691136.0,-459870368.0,-459650400.0,-91974072.0,-91930080.0,-96668944.0,-96647016.0,-96668840.0,-96646696.0,0.0,0.0,1.3975491523742676,19.808247089385986,0.0,21.205796241760254,1658207204,6266
240000,239,151.9241180419922,2032528.0,282549092352.0,282194739200.0,-31.889747619628906,649.5252075195312,-1702699.5,-1702604.0,-1939415.0,240000,26514006.0,27157796.0,-127803648.0,-130151144.0,-467811456.0,-470013600.0,-93562288.0,-94002720.0,-98645752.0,-98835752.0,-98646096.0,-98835896.0,0.0,0.0,0.2566531843092448,10.0,1.4302468299865723,19.848358154296875,0.08040928840637207,21.35901427268982,1658207226,6287
241000,240,149.67697143554688,2030638.0,366508769280.0,365732036608.0,-17.29169273376465,638.6930541992188,-1711955.75,-1712058.25,-1925699.75,241000,26507340.0,27304056.0,-127416120.0,-130052504.0,-463811456.0,-464965728.0,-92762288.0,-92993144.0,-97731728.0,-97891992.0,-97731728.0,-97891928.0,0.0,0.0,1.5442209243774414,19.926278114318848,0.0,21.47049903869629,1658207247,6309
242000,241,146.39407348632812,1989238.75,297224241152.0,294642876416.0,3.9175405502319336,642.5530395507812,-1670723.875,-1674327.5,-1896203.0,242000,26688840.0,27363056.0,-128240056.0,-130515200.0,-466176896.0,-466204000.0,-93235376.0,-93240800.0,-98030296.0,-98247400.0,-98030200.0,-98247536.0,0.0,0.0,1.593463659286499,19.924195766448975,0.0,21.517659425735474,1658207269,6331
243000,242,144.851318359375,1987113.0,151005265920.0,149989343232.0,13.939630508422852,656.9083862304688,-1660904.75,-1660053.75,-1900488.875,243000,26886960.0,27519684.0,-129447320.0,-131775096.0,-471526880.0,-473476224.0,-94305376.0,-94695248.0,-99288336.0,-99489400.0,-99288312.0,-99489704.0,0.0,0.0,1.5209455490112305,20.076958179473877,0.0,21.597903728485107,1658207290,6352
244000,243,143.49688720703125,1959060.0,389188288512.0,387892117504.0,22.670747756958008,646.5192260742188,-1651754.25,-1653330.625,-1897232.5,244000,27362070.0,28121620.0,-130735784.0,-133205816.0,-472669408.0,-474134112.0,-94533880.0,-94826824.0,-99383168.0,-99420384.0,-99383128.0,-99420208.0,0.0,0.0,1.5124974250793457,19.8369722366333,0.0,21.349469661712646,1658207312,6373
245000,244,147.42320251464844,1939935.125,350584045568.0,349303537664.0,-2.7394638061523438,647.5496826171875,-1628626.5,-1627001.25,-1817763.25,245000,27222386.0,27890614.0,-130949056.0,-133314872.0,-477340320.0,-477249536.0,-95468064.0,-95449904.0,-100207872.0,-100431648.0,-100207848.0,-100431672.0,0.0,0.0,1.5303781032562256,19.7341525554657,0.0,21.264530658721924,1658207333,6395
246000,245,149.5711212158203,2072631.25,442817970176.0,441250938880.0,-16.6820011138916,657.3557739257812,-1741421.125,-1743399.5,-1970834.0,246000,27305544.0,27807160.0,-131602048.0,-133736344.0,-481250752.0,-482234304.0,-96250152.0,-96446864.0,-101336832.0,-101722512.0,-101336856.0,-101722432.0,0.0,0.0,1.5082004070281982,19.737955331802368,0.0,21.246155738830566,1658207354,6416
247000,246,146.9769287109375,2125875.75,439318937600.0,434288459776.0,0.15022563934326172,671.8368530273438,-1785218.5,-1786418.75,-2005132.375,247000,27360970.0,28083874.0,-131085848.0,-133479448.0,-475551328.0,-474886400.0,-95110264.0,-94977280.0,-100167352.0,-100341976.0,-100167416.0,-100342328.0,0.0,0.0,1.4964330196380615,19.869324922561646,0.0,21.365757942199707,1658207376,6437
248000,247,147.85939025878906,2027570.75,454864863232.0,455411466240.0,-5.601239204406738,676.9885864257812,-1692898.875,-1693863.75,-1920537.375,248000,28292524.0,28981280.0,-134764960.0,-137144416.0,-489404736.0,-488998464.0,-97880944.0,-97799696.0,-102766872.0,-102926736.0,-102766808.0,-102926936.0,0.0,0.0,1.5003888607025146,19.862568855285645,0.0,21.36295771598816,1658207397,6459
249000,248,145.35581970214844,1993824.25,518380584960.0,516001759232.0,10.703483581542969,671.757080078125,-1663594.875,-1664727.625,-1892234.75,249000,28554184.0,29314156.0,-135180928.0,-137727984.0,-486739264.0,-486264960.0,-97347856.0,-97252992.0,-102575608.0,-102696408.0,-102575656.0,-102696296.0,0.0,0.0,1.4736368656158447,20.496662616729736,0.0,21.97029948234558,1658207419,6481
250000,249,146.86019897460938,2064554.75,280494931968.0,277645230080.0,0.9099540710449219,671.1016845703125,-1729565.25,-1732286.25,-2008204.0,250000,28055296.0,28815320.0,-134401712.0,-136845616.0,-487779328.0,-487424608.0,-97555864.0,-97484920.0,-102485352.0,-102587256.0,-102485272.0,-102587608.0,0.0,0.0,0.16631091920048863,10.0,1.4150416851043701,19.90460705757141,0.07579660415649414,21.395445346832275,1658207441,6502
251000,250,146.40576171875,1977831.375,273932877824.0,273817829376.0,3.8770673274993896,681.6758422851562,-1645617.375,-1646306.0,-1906285.25,251000,28733964.0,29337364.0,-136454640.0,-138637776.0,-495723072.0,-495683456.0,-99144616.0,-99136688.0,-104391784.0,-104400608.0,-104391808.0,-104401040.0,0.0,0.0,1.4415020942687988,20.012019872665405,0.0,21.453521966934204,1658207462,6524
252000,251,143.4447479248047,2016723.25,363256283136.0,361286664192.0,23.2130126953125,684.8638916015625,-1694371.875,-1695767.625,-1931756.5,252000,28309840.0,29160716.0,-136089344.0,-138832416.0,-495902528.0,-498018560.0,-99180504.0,-99603712.0,-104406808.0,-104505232.0,-104406888.0,-104504952.0,0.0,0.0,1.452711820602417,19.95870304107666,0.0,21.411414861679077,1658207483,6545
253000,252,149.24951171875,2189519.5,464276291584.0,465512300544.0,-14.670215606689453,679.6080932617188,-1853220.5,-1853521.125,-2094843.25,253000,28869456.0,29504448.0,-138204784.0,-140368096.0,-499209216.0,-500223616.0,-99841840.0,-100044720.0,-104899920.0,-105049408.0,-104899792.0,-105049512.0,0.0,0.0,1.5830669403076172,19.900829792022705,0.0,21.483896732330322,1658207505,6567
254000,253,152.41818237304688,2229155.0,358007013376.0,356467408896.0,-35.239288330078125,667.7433471679688,-1884374.5,-1884602.25,-2086350.25,254000,29124184.0,29900104.0,-137772976.0,-140156720.0,-496189792.0,-496380512.0,-99237960.0,-99276104.0,-104489256.0,-104557624.0,-104489104.0,-104557392.0,0.0,0.0,1.6582143306732178,19.834545850753784,0.0,21.492760181427002,1658207526,6588
255000,254,143.40975952148438,1919600.25,332403245056.0,332812877824.0,23.344568252563477,666.6292114257812,-1606463.25,-1605249.75,-1791944.25,255000,28920172.0,29728408.0,-136877424.0,-139420832.0,-494956160.0,-494085280.0,-98991232.0,-98817056.0,-103822232.0,-103763600.0,-103822056.0,-103763800.0,0.0,0.0,1.5377750396728516,19.835110187530518,0.0,21.37288522720337,1658207548,6609
256000,255,148.73446655273438,2056945.75,520407810048.0,522347905024.0,-11.290167808532715,671.32958984375,-1724431.75,-1725008.0,-1909534.75,256000,28736140.0,29532658.0,-138100688.0,-140549872.0,-497672960.0,-500288576.0,-99534592.0,-100057712.0,-104924632.0,-105044688.0,-104924776.0,-105045008.0,0.0,0.0,1.4784305095672607,19.967494010925293,0.0,21.445924520492554,1658207569,6631
257000,256,148.86373901367188,2097220.25,543872647168.0,545139752960.0,-12.163494110107422,682.9434204101562,-1758362.5,-1759857.125,-1972637.75,257000,29700648.0,30378832.0,-140558656.0,-142731728.0,-506027776.0,-506568000.0,-101205552.0,-101313600.0,-106201024.0,-106400192.0,-106201064.0,-106400056.0,0.0,0.0,1.569110631942749,20.217176914215088,0.0,21.786287546157837,1658207591,6653
258000,257,148.0661163330078,2030534.625,426796056576.0,423586398208.0,-6.963892936706543,686.8038330078125,-1697421.375,-1697189.125,-1856572.125,258000,29147692.0,30023440.0,-139392048.0,-141900976.0,-502290848.0,-503143168.0,-100458168.0,-100628632.0,-105603416.0,-105623824.0,-105603232.0,-105623248.0,0.0,0.0,1.421907901763916,19.880475759506226,0.0,21.30238366127014,1658207612,6674
259000,258,142.57666015625,2003728.0,526380957696.0,526541946880.0,28.958314895629883,696.9517211914062,-1674378.75,-1673417.25,-1846644.125,259000,29448294.0,30153972.0,-139571088.0,-141920064.0,-502380128.0,-501012640.0,-100476024.0,-100202528.0,-105222936.0,-105236200.0,-105222912.0,-105236408.0,0.0,0.0,1.4098877906799316,19.822877883911133,0.0,21.232765674591064,1658207634,6695
